; generated by Slic3r 1.33.3-prusa3d on 2017-02-13 at 19:42:36

; external perimeters extrusion width = 1.00mm
; perimeters extrusion width = 0.67mm
; infill extrusion width = 0.67mm
; solid infill extrusion width = 0.67mm
; top infill extrusion width = 0.67mm

M107
M190 S55 ; set bed temperature and wait for it to be reached
M104 S200 ; set temperature
G28 ; home all axes
G1 Z5 F5000 ; lift nozzle

M109 S200 ; set temperature and wait for it to be reached
G21 ; set units to millimeters
G90 ; use absolute coordinates
M82 ; use absolute distances for extrusion
G92 E0
G1 Z0.200 F6600.000
G1 E-2.00000 F2400.00000
G92 E0
G1 X69.894 Y87.528 F6600.000
G1 E2.00000 F2400.00000
G1 F3000
G1 X70.452 Y87.120 E2.03613
G1 X71.069 Y86.735 E2.07414
G1 X71.755 Y86.379 E2.11453
G1 X72.410 Y86.100 E2.15171
G1 X73.111 Y85.863 E2.19034
G1 X73.837 Y85.677 E2.22952
G1 X74.556 Y85.552 E2.26763
G1 X75.225 Y85.483 E2.30279
G1 X98.696 Y84.057 E3.53128
G1 X99.658 Y84.020 E3.58157
G1 X100.434 Y84.019 E3.62212
G1 X101.290 Y84.050 E3.66687
G1 X102.132 Y84.111 E3.71098
G1 X103.034 Y84.211 E3.75839
G1 X103.914 Y84.346 E3.80490
G1 X104.780 Y84.513 E3.85097
G1 X105.612 Y84.706 E3.89561
G1 X106.571 Y84.970 E3.94756
G1 X107.228 Y85.176 E3.98352
G1 X108.116 Y85.491 E4.03279
G1 X108.868 Y85.791 E4.07505
G1 X109.649 Y86.136 E4.11967
G1 X110.409 Y86.507 E4.16388
G1 X111.170 Y86.914 E4.20895
G1 X111.911 Y87.348 E4.25378
G1 X112.688 Y87.843 E4.30196
G1 X113.398 Y88.337 E4.34714
G1 X114.075 Y88.845 E4.39136
G1 X114.751 Y89.395 E4.43690
G1 X115.444 Y90.005 E4.48511
G1 X116.039 Y90.571 E4.52799
G1 X116.645 Y91.192 E4.57335
G1 X117.221 Y91.829 E4.61825
G1 X117.823 Y92.549 E4.66722
G1 X118.327 Y93.202 E4.71037
G1 X118.839 Y93.920 E4.75642
G1 X119.337 Y94.679 E4.80386
G1 X119.796 Y95.445 E4.85047
G1 X120.072 Y95.971 E4.88154
G1 X120.312 Y96.506 E4.91216
G1 X120.506 Y97.021 E4.94090
G1 X120.674 Y97.565 E4.97068
G1 X120.821 Y98.181 E5.00375
G1 X120.926 Y98.813 E5.03720
G1 X120.988 Y99.468 E5.07160
G1 X121.002 Y100.127 E5.10604
G1 X120.974 Y100.727 E5.13740
G1 X120.900 Y101.370 E5.17126
G1 X120.785 Y101.985 E5.20389
G1 X120.616 Y102.636 E5.23905
G1 X120.461 Y103.105 E5.26485
G1 X120.281 Y103.567 E5.29077
G1 X120.073 Y104.029 E5.31722
G1 X119.859 Y104.442 E5.34153
G1 X119.113 Y105.671 E5.41668
G1 X118.376 Y106.732 E5.48415
G1 X117.467 Y107.885 E5.56084
G1 X116.615 Y108.839 E5.62771
G1 X115.715 Y109.742 E5.69429
G1 X114.712 Y110.639 E5.76459
G1 X113.756 Y111.400 E5.82844
G1 X112.718 Y112.137 E5.89491
G1 X111.635 Y112.818 E5.96176
G1 X110.340 Y113.527 E6.03891
G1 X109.213 Y114.060 E6.10405
G1 X108.015 Y114.547 E6.17162
G1 X106.753 Y114.976 E6.24122
G1 X105.419 Y115.343 E6.31355
G1 X104.716 Y115.501 E6.35118
G1 X103.877 Y115.661 E6.39577
G1 X103.143 Y115.774 E6.43457
G1 X102.242 Y115.879 E6.48199
G1 X101.449 Y115.941 E6.52357
G1 X100.700 Y115.975 E6.56272
G1 X99.945 Y115.984 E6.60217
G1 X99.174 Y115.967 E6.64244
G1 X75.226 Y114.517 E7.89593
G1 X74.680 Y114.464 E7.92454
G1 X74.129 Y114.381 E7.95366
G1 X73.565 Y114.259 E7.98384
G1 X73.105 Y114.135 E8.00874
G1 X72.470 Y113.922 E8.04370
G1 X71.818 Y113.651 E8.08059
G1 X71.139 Y113.304 E8.12045
G1 X70.546 Y112.943 E8.15671
G1 X69.965 Y112.527 E8.19402
G1 X69.443 Y112.092 E8.22956
G1 X68.927 Y111.593 E8.26704
G1 X68.495 Y111.111 E8.30083
G1 X68.049 Y110.537 E8.33883
G1 X67.671 Y109.964 E8.37470
G1 X67.317 Y109.335 E8.41240
G1 X67.032 Y108.726 E8.44754
G1 X66.773 Y108.052 E8.48528
G1 X66.577 Y107.410 E8.52030
G1 X66.424 Y106.739 E8.55628
G1 X66.318 Y106.077 E8.59132
G1 X66.263 Y105.486 E8.62230
G1 X66.243 Y104.903 E8.65282
G1 X66.243 Y95.070 E9.16655
G1 X66.295 Y94.133 E9.21557
G1 X66.418 Y93.288 E9.26019
G1 X66.606 Y92.487 E9.30316
G1 X66.895 Y91.610 E9.35137
G1 X67.228 Y90.844 E9.39503
G1 X67.621 Y90.117 E9.43819
G1 X68.087 Y89.412 E9.48237
G1 X68.637 Y88.722 E9.52846
G1 X69.212 Y88.122 E9.57189
G1 X69.847 Y87.566 E9.61598
G1 X70.269 Y88.033 F6600.000
G1 F3000
G1 X70.797 Y87.645 E9.65020
G1 X71.368 Y87.288 E9.68540
G1 X72.019 Y86.949 E9.72374
G1 X72.631 Y86.688 E9.75850
G1 X73.284 Y86.467 E9.79450
G1 X73.970 Y86.292 E9.83149
G1 X74.646 Y86.174 E9.86734
G1 X75.270 Y86.110 E9.90013
G1 X98.727 Y84.684 E11.12789
G1 X99.629 Y84.649 E11.17503
G1 X100.413 Y84.647 E11.21601
G1 X101.237 Y84.676 E11.25911
G1 X102.064 Y84.735 E11.30239
G1 X102.914 Y84.829 E11.34709
G1 X103.782 Y84.961 E11.39296
G1 X104.552 Y85.107 E11.43390
G1 X105.409 Y85.302 E11.47982
G1 X106.198 Y85.515 E11.52254
G1 X106.975 Y85.754 E11.56497
G1 X107.784 Y86.038 E11.60976
G1 X108.562 Y86.344 E11.65346
G1 X109.344 Y86.687 E11.69808
G1 X110.112 Y87.061 E11.74273
G1 X110.849 Y87.454 E11.78633
G1 X111.568 Y87.875 E11.82987
G1 X112.292 Y88.334 E11.87463
G1 X113.022 Y88.840 E11.92104
G1 X113.669 Y89.325 E11.96331
G1 X114.332 Y89.863 E12.00790
G1 X114.950 Y90.404 E12.05082
G1 X115.580 Y91.001 E12.09616
G1 X116.156 Y91.590 E12.13922
G1 X116.723 Y92.214 E12.18323
G1 X117.234 Y92.821 E12.22471
G1 X117.796 Y93.541 E12.27242
G1 X118.254 Y94.178 E12.31339
G1 X119.044 Y95.404 E12.38960
G1 X119.371 Y95.977 E12.42411
G1 X119.616 Y96.479 E12.45329
G1 X119.840 Y97.024 E12.48403
G1 X120.017 Y97.555 E12.51327
G1 X120.173 Y98.158 E12.54584
G1 X120.279 Y98.726 E12.57603
G1 X120.348 Y99.318 E12.60716
G1 X120.375 Y99.920 E12.63864
G1 X120.358 Y100.531 E12.67058
G1 X120.298 Y101.143 E12.70273
G1 X120.193 Y101.752 E12.73502
G1 X120.043 Y102.357 E12.76755
G1 X119.743 Y103.226 E12.81558
G1 X119.531 Y103.705 E12.84298
G1 X119.320 Y104.119 E12.86724
G1 X118.589 Y105.325 E12.94091
G1 X117.877 Y106.349 E13.00606
G1 X117.107 Y107.335 E13.07143
G1 X116.267 Y108.291 E13.13792
G1 X115.301 Y109.269 E13.20973
G1 X114.316 Y110.150 E13.27878
G1 X113.381 Y110.895 E13.34123
G1 X112.375 Y111.611 E13.40575
G1 X111.314 Y112.278 E13.47122
G1 X110.056 Y112.967 E13.54616
G1 X108.959 Y113.486 E13.60955
G1 X107.791 Y113.960 E13.67542
G1 X106.568 Y114.376 E13.74292
G1 X105.256 Y114.735 E13.81397
G1 X103.773 Y115.041 E13.89311
G1 X103.062 Y115.151 E13.93065
G1 X102.179 Y115.254 E13.97712
G1 X101.409 Y115.314 E14.01745
G1 X100.680 Y115.347 E14.05560
G1 X99.946 Y115.356 E14.09392
G1 X99.203 Y115.339 E14.13277
G1 X75.280 Y113.891 E15.38492
G1 X74.782 Y113.844 E15.41104
G1 X74.291 Y113.771 E15.43699
G1 X73.401 Y113.567 E15.48470
G1 X72.822 Y113.382 E15.51644
G1 X72.196 Y113.132 E15.55166
G1 X71.627 Y112.855 E15.58472
G1 X71.051 Y112.521 E15.61954
G1 X70.521 Y112.159 E15.65306
G1 X70.007 Y111.751 E15.68733
G1 X69.533 Y111.313 E15.72106
G1 X69.065 Y110.812 E15.75685
G1 X68.629 Y110.265 E15.79342
G1 X68.260 Y109.722 E15.82773
G1 X67.930 Y109.151 E15.86215
G1 X67.654 Y108.581 E15.89524
G1 X67.387 Y107.905 E15.93324
G1 X67.196 Y107.292 E15.96679
G1 X67.044 Y106.639 E16.00178
G1 X66.944 Y106.013 E16.03492
G1 X66.890 Y105.449 E16.06453
G1 X66.871 Y104.895 E16.09348
G1 X66.871 Y95.085 E16.60599
G1 X66.918 Y94.219 E16.65130
G1 X67.025 Y93.462 E16.69124
G1 X67.199 Y92.697 E16.73223
G1 X67.470 Y91.866 E16.77789
G1 X67.779 Y91.146 E16.81883
G1 X68.141 Y90.472 E16.85881
G1 X68.582 Y89.799 E16.90087
G1 X69.092 Y89.156 E16.94373
G1 X69.629 Y88.592 E16.98440
G1 X70.222 Y88.070 E17.02568
G1 X70.472 Y88.678 F6600.000
G1 F3000
G1 X71.003 Y88.267 E17.06075
G1 X71.537 Y87.917 E17.09408
G1 X72.088 Y87.614 E17.12697
G1 X72.686 Y87.342 E17.16126
G1 X73.353 Y87.103 E17.19828
G1 X74.016 Y86.925 E17.23413
G1 X74.679 Y86.804 E17.26935
G1 X75.267 Y86.740 E17.30024
G1 X98.765 Y85.312 E18.53018
G1 X99.562 Y85.279 E18.57188
G1 X100.998 Y85.294 E18.64691
G1 X101.662 Y85.332 E18.68164
G1 X102.518 Y85.414 E18.72655
G1 X103.286 Y85.517 E18.76707
G1 X104.040 Y85.645 E18.80699
G1 X104.874 Y85.820 E18.85154
G1 X105.641 Y86.012 E18.89285
G1 X106.413 Y86.235 E18.93479
G1 X107.181 Y86.488 E18.97704
G1 X108.000 Y86.794 E19.02276
G1 X108.688 Y87.081 E19.06171
G1 X109.443 Y87.429 E19.10511
G1 X110.160 Y87.795 E19.14716
G1 X110.884 Y88.198 E19.19043
G1 X111.555 Y88.606 E19.23151
G1 X112.266 Y89.076 E19.27602
G1 X112.905 Y89.533 E19.31707
G1 X113.568 Y90.047 E19.36086
G1 X114.075 Y90.470 E19.39541
G1 X114.609 Y90.945 E19.43273
G1 X115.173 Y91.482 E19.47340
G1 X115.727 Y92.051 E19.51491
G1 X116.331 Y92.721 E19.56201
G1 X116.822 Y93.310 E19.60211
G1 X117.324 Y93.959 E19.64497
G1 X117.794 Y94.617 E19.68718
G1 X118.258 Y95.324 E19.73141
G1 X118.675 Y96.016 E19.77360
G1 X118.890 Y96.415 E19.79726
G1 X119.138 Y96.956 E19.82835
G1 X119.327 Y97.458 E19.85642
G1 X119.491 Y98.007 E19.88633
G1 X119.617 Y98.578 E19.91689
G1 X119.705 Y99.194 E19.94937
G1 X119.743 Y99.763 E19.97918
G1 X119.740 Y100.336 E20.00912
G1 X119.690 Y100.947 E20.04116
G1 X119.597 Y101.529 E20.07192
G1 X119.469 Y102.076 E20.10128
G1 X119.192 Y102.910 E20.14721
G1 X119.009 Y103.339 E20.17159
G1 X118.810 Y103.740 E20.19493
G1 X118.158 Y104.833 E20.26145
G1 X117.382 Y105.962 E20.33303
G1 X116.630 Y106.925 E20.39685
G1 X115.846 Y107.822 E20.45912
G1 X114.876 Y108.806 E20.53128
G1 X113.915 Y109.667 E20.59869
G1 X113.007 Y110.391 E20.65938
G1 X112.030 Y111.085 E20.72199
G1 X110.999 Y111.735 E20.78566
G1 X109.772 Y112.407 E20.85875
G1 X108.711 Y112.908 E20.92004
G1 X107.574 Y113.370 E20.98417
G1 X106.382 Y113.775 E21.04994
G1 X105.101 Y114.126 E21.11933
G1 X103.668 Y114.422 E21.19578
G1 X102.972 Y114.529 E21.23255
G1 X102.116 Y114.629 E21.27759
G1 X100.660 Y114.719 E21.35381
G1 X99.225 Y114.711 E21.42877
G1 X75.334 Y113.265 E22.67928
G1 X74.441 Y113.159 E22.72621
G1 X73.664 Y112.988 E22.76780
G1 X73.090 Y112.811 E22.79919
G1 X72.506 Y112.582 E22.83196
G1 X71.969 Y112.325 E22.86307
G1 X71.436 Y112.021 E22.89512
G1 X70.949 Y111.694 E22.92576
G1 X70.454 Y111.306 E22.95863
G1 X70.008 Y110.900 E22.99012
G1 X69.580 Y110.447 E23.02272
G1 X69.214 Y109.999 E23.05292
G1 X68.860 Y109.495 E23.08507
G1 X68.552 Y108.981 E23.11637
G1 X68.248 Y108.370 E23.15204
G1 X67.991 Y107.729 E23.18815
G1 X67.812 Y107.163 E23.21916
G1 X67.668 Y106.556 E23.25173
G1 X67.574 Y105.992 E23.28159
G1 X67.519 Y105.430 E23.31112
G1 X67.500 Y104.894 E23.33914
G1 X67.499 Y95.107 E23.85048
G1 X67.532 Y94.406 E23.88711
G1 X67.623 Y93.688 E23.92492
G1 X67.770 Y92.996 E23.96188
G1 X67.977 Y92.311 E23.99926
G1 X68.279 Y91.562 E24.04148
G1 X68.600 Y90.933 E24.07835
G1 X68.969 Y90.342 E24.11477
G1 X69.394 Y89.774 E24.15183
G1 X69.859 Y89.251 E24.18837
G1 X70.427 Y88.717 E24.22912
G1 E22.22912 F2400.00000
G92 E0
G1 X82.919 Y104.819 F6600.000
G1 E2.00000 F2400.00000
G1 F128.951
G1 X83.527 Y104.738 E2.03209
G1 X84.256 Y104.340 E2.07545
G1 X84.778 Y103.750 E2.11663
G1 X85.319 Y104.276 E2.15604
G1 X85.842 Y104.594 E2.18803
G1 X86.390 Y104.801 E2.21865
G1 X86.915 Y104.920 E2.24676
G1 X87.337 Y104.968 E2.26894
G1 X87.930 Y104.977 E2.29993
G1 X88.545 Y104.917 E2.33219
G1 X89.285 Y104.715 E2.37228
G1 X90.062 Y104.303 E2.41825
G1 X90.383 Y104.563 E2.43983
G1 X91.003 Y104.796 E2.47444
G1 X91.598 Y104.845 E2.50561
G1 X92.104 Y104.798 E2.53219
G1 X92.886 Y104.805 E2.57302
G1 X93.552 Y104.771 E2.60790
G1 X94.322 Y104.647 E2.64861
G1 X94.760 Y104.499 E2.67280
G1 X95.302 Y104.905 E2.70816
G1 X95.818 Y105.135 E2.73770
G1 X96.317 Y105.257 E2.76453
G1 X96.830 Y105.292 E2.79136
G1 X97.343 Y105.236 E2.81835
G1 X97.884 Y105.077 E2.84781
G1 X98.237 Y104.880 E2.86893
G1 X98.340 Y104.937 E2.87505
G1 X99.423 Y105.042 E2.93193
G1 X100.070 Y104.745 E2.96911
G1 X100.134 Y104.793 E2.97330
G1 X100.352 Y104.860 E2.98522
G1 X100.384 Y105.401 E3.01351
G1 X100.501 Y105.881 E3.03933
G1 X100.635 Y106.162 E3.05561
G1 X99.844 Y106.175 E3.09693
G1 X99.244 Y106.152 E3.12832
G1 X82.931 Y105.161 E3.98214
G1 X82.921 Y104.879 E3.99688
G1 X82.221 Y104.771 F6600.000
G1 F128.951
G1 X82.172 Y105.115 E4.01506
G1 X79.365 Y104.944 E4.16201
G1 X79.305 Y104.665 E4.17697
G1 X79.760 Y104.426 E4.20383
G1 X80.226 Y104.093 E4.23375
G1 X80.637 Y103.665 E4.26476
G1 X80.878 Y104.074 E4.28954
G1 X81.662 Y104.645 E4.34025
G1 X82.162 Y104.757 E4.36702
G1 X80.985 Y102.249 F6600.000
G1 F128.951
G1 X80.960 Y102.666 E4.38884
G1 X81.077 Y103.172 E4.41597
G1 X81.353 Y103.643 E4.44449
G1 X81.927 Y104.061 E4.48158
G1 X82.646 Y104.222 E4.52009
G1 X83.329 Y104.130 E4.55605
G1 X83.858 Y103.841 E4.58758
G1 X84.245 Y103.405 E4.61805
G1 X84.451 Y102.928 E4.64517
G1 X84.536 Y102.458 E4.67011
G1 X84.522 Y99.300 E4.83513
G1 X85.032 Y99.246 E4.86194
G1 X85.712 Y99.034 E4.89914
G1 X85.590 Y99.523 E4.92546
G1 X85.600 Y100.062 E4.95365
G1 X85.798 Y100.629 E4.98503
G1 X85.377 Y100.893 E5.01103
G1 X84.972 Y101.564 E5.05196
G1 X84.896 Y102.281 E5.08962
G1 X85.019 Y102.852 E5.12011
G1 X85.314 Y103.394 E5.15234
G1 X85.706 Y103.776 E5.18096
G1 X86.119 Y104.027 E5.20620
G1 X86.572 Y104.198 E5.23148
G1 X87.021 Y104.299 E5.25553
G1 X87.378 Y104.341 E5.27433
G1 X87.904 Y104.349 E5.30181
G1 X88.430 Y104.297 E5.32945
G1 X89.052 Y104.127 E5.36312
G1 X89.649 Y103.811 E5.39839
G1 X90.118 Y103.409 E5.43065
G1 X90.274 Y103.665 E5.44633
G1 X90.700 Y104.011 E5.47498
G1 X91.142 Y104.178 E5.49967
G1 X91.594 Y104.215 E5.52336
G1 X92.078 Y104.169 E5.54874
G1 X92.873 Y104.177 E5.59027
G1 X93.486 Y104.145 E5.62236
G1 X94.170 Y104.035 E5.65857
G1 X94.778 Y103.830 E5.69207
G1 X94.934 Y103.742 E5.70144
G1 X95.180 Y104.028 E5.72114
G1 X95.622 Y104.360 E5.75002
G1 X96.023 Y104.538 E5.77293
G1 X96.414 Y104.634 E5.79399
G1 X96.817 Y104.661 E5.81508
G1 X97.220 Y104.618 E5.83625
G1 X97.639 Y104.494 E5.85910
G1 X98.122 Y104.225 E5.88796
G1 X98.208 Y104.147 E5.89405
G1 X98.529 Y104.324 E5.91319
G1 X99.315 Y104.401 E5.95445
G1 X100.000 Y104.086 E5.99381
G1 X100.103 Y103.984 E6.00136
G1 X100.423 Y104.225 E6.02226
G1 X101.085 Y104.426 E6.05845
G1 X100.985 Y104.919 E6.08474
G1 X101.008 Y105.307 E6.10503
G1 X101.096 Y105.669 E6.12450
G1 X101.322 Y106.144 E6.15197
G1 X101.856 Y106.697 E6.19216
G1 X100.732 Y106.789 E6.25108
G1 X99.837 Y106.804 E6.29785
G1 X99.213 Y106.780 E6.33051
G1 X75.889 Y105.363 E7.55130
G1 X75.729 Y105.339 E7.55977
G1 X75.626 Y105.295 E7.56560
G1 X75.571 Y105.257 E7.56910
G1 X75.485 Y105.140 E7.57666
G1 X75.445 Y105.035 E7.58254
G1 X75.421 Y104.835 E7.59306
G1 X75.421 Y103.696 E7.65260
G1 X75.968 Y104.010 E7.68554
G1 X76.329 Y104.153 E7.70584
G1 X76.713 Y104.259 E7.72665
G1 X77.090 Y104.322 E7.74660
G1 X77.637 Y104.351 E7.77520
G1 X78.162 Y104.317 E7.80271
G1 X78.651 Y104.221 E7.82874
G1 X79.106 Y104.059 E7.85398
G1 X79.430 Y103.889 E7.87308
G1 X79.813 Y103.615 E7.89771
G1 X80.173 Y103.241 E7.92481
G1 X80.509 Y102.692 E7.95846
G1 X80.652 Y102.192 E7.98562
G1 X80.926 Y102.239 E8.00014
G1 X80.863 Y101.831 F6600.000
G1 F128.951
G1 X80.685 Y101.859 E8.00956
G1 X80.459 Y101.130 E8.04940
G1 X79.934 Y100.583 E8.08903
G1 X79.303 Y100.298 E8.12517
G1 X78.748 Y100.234 E8.15437
G1 X78.246 Y100.318 E8.18095
G1 X77.879 Y100.484 E8.20201
G1 X77.443 Y100.810 E8.23042
G1 X77.371 Y100.299 E8.25736
G1 X77.356 Y99.929 E8.27671
G1 X77.374 Y99.599 E8.29399
G1 X77.443 Y99.164 E8.31698
G1 X78.077 Y99.523 E8.35503
G1 X78.545 Y99.671 E8.38069
G1 X79.087 Y99.700 E8.40906
G1 X79.665 Y99.523 E8.44065
G1 X80.113 Y99.181 E8.47008
G1 X80.237 Y99.251 E8.47755
G1 X80.779 Y99.348 E8.50630
G1 X80.991 Y99.326 E8.51742
G1 X81.006 Y101.809 E8.64717
G1 X80.922 Y101.822 E8.65160
G1 E6.65160 F2400.00000
G92 E0
G1 X105.145 Y105.811 F6600.000
G1 E2.00000 F2400.00000
G1 F128.951
G1 X105.640 Y104.721 E2.06253
G1 X106.103 Y103.526 E2.12948
G1 X106.692 Y104.141 E2.17394
G1 X107.228 Y104.351 E2.20400
G1 X107.758 Y104.417 E2.23190
G1 X106.989 Y104.903 E2.27942
G1 X106.475 Y105.193 E2.31028
G1 X105.802 Y105.530 E2.34958
G1 X105.201 Y105.788 E2.38376
G1 X110.056 Y103.579 F6600.000
G1 F84.6555
G1 X109.149 Y104.359 E2.47896
G1 X108.595 Y104.789 E2.53476
G1 X108.094 Y105.142 E2.58351
G1 X107.396 Y105.584 E2.64926
G1 X106.847 Y105.893 E2.69939
G1 X106.136 Y106.250 E2.76271
G1 X105.264 Y106.622 E2.83817
G1 X104.420 Y106.920 E2.90935
G1 X103.445 Y107.193 E2.98999
G1 X102.509 Y107.388 E3.06607
G1 X101.659 Y107.509 E3.13435
G1 X100.771 Y107.581 E3.20526
G1 X99.828 Y107.597 E3.28030
G1 X99.173 Y107.572 E3.33249
G1 X75.616 Y106.128 E5.21069
G1 X75.347 Y106.043 E5.23317
G1 X75.215 Y105.975 E5.24501
G1 X74.973 Y105.781 E5.26967
G1 X74.804 Y105.553 E5.29227
G1 X74.676 Y105.233 E5.31971
