; Postprocessed by [ArcWelder](https://github.com/FormerLurker/ArcWelderLib)
; Copyright(C) 2021 - Brad Hochgesang
; Version: 1.2.0, Branch: HEAD, BuildDate: 2021-11-21T20:25:43Z
; resolution=0.05mm
; path_tolerance=5.0%
; max_radius=9999.00mm
; default_xyz_precision=3
; default_e_precision=5
; extrusion_rate_variance_percent=5.0%

; generated by Slic3r 1.33.3-prusa3d on 2017-02-13 at 19:42:36

; external perimeters extrusion width = 1.00mm
; perimeters extrusion width = 0.67mm
; infill extrusion width = 0.67mm
; solid infill extrusion width = 0.67mm
; top infill extrusion width = 0.67mm

M107
M190 S55 ; set bed temperature and wait for it to be reached
M104 S200 ; set temperature
G28 ; home all axes
G1 Z5 F5000 ; lift nozzle

M109 S200 ; set temperature and wait for it to be reached
G21 ; set units to millimeters
G90 ; use absolute coordinates
M82 ; use absolute distances for extrusion
G92 E0
G1 Z0.200 F6600.000
G1 E-2.00000 F2400.00000
G92 E0
G1 X69.894 Y87.528 F6600.000
G1 E2.00000 F2400.00000
G1 F3000
G3 X75.225 Y85.483 I5.966 J7.580 E2.30279
G1 X98.696 Y84.057 E3.53128
G3 X120.072 Y95.971 I1.371 J22.673 E4.88154
G3 X119.859 Y104.442 I-8.262 J4.030 E5.34153
G3 X99.174 Y115.967 I-19.805 J-11.221 E6.64244
G1 X75.226 Y114.517 E7.89593
G3 X66.243 Y104.903 I0.620 J-9.583 E8.65282
G1 X66.243 Y95.070 E9.16655
G3 X69.847 Y87.566 I9.667 J0.025 E9.61598
G1 X70.269 Y88.033 F6600.000
G1 F3000
G3 X75.270 Y86.110 I5.587 J7.064 E9.90013
G1 X98.727 Y84.684 E11.12789
G3 X119.616 Y96.479 I1.349 J22.006 E12.45329
G3 X119.320 Y104.119 I-7.806 J3.523 E12.86724
G3 X99.203 Y115.339 I-19.263 J-10.894 E14.13277
G1 X75.280 Y113.891 E15.38492
G3 X66.871 Y104.895 I0.569 J-8.960 E16.09348
G1 X66.871 Y95.085 E16.60599
G3 X70.222 Y88.070 I9.037 J0.009 E17.02568
G1 X70.472 Y88.678 F6600.000
G1 F3000
G3 X75.267 Y86.740 I5.383 J6.419 E17.30024
G1 X98.765 Y85.312 E18.53018
G3 X118.890 Y96.415 I1.298 J21.438 E19.79726
G3 X118.810 Y103.740 I-7.072 J3.586 E20.19493
G3 X99.225 Y114.711 I-18.752 J-10.509 E21.42877
G1 X75.334 Y113.265 E22.67928
G3 X67.500 Y104.894 I0.513 J-8.332 E23.33914
G1 X67.499 Y95.107 E23.85048
G3 X70.427 Y88.717 I8.428 J-0.004 E24.22912
G1 E22.22912 F2400.00000
G92 E0
G1 X82.919 Y104.819 F6600.000
G1 E2.00000 F2400.00000
G1 F128.951
G1 X83.527 Y104.738 E2.03209
G1 X84.256 Y104.340 E2.07545
G1 X84.778 Y103.750 E2.11663
G2 X87.337 Y104.968 I2.707 J-2.390 E2.26894
G2 X90.062 Y104.303 I0.430 J-4.155 E2.41825
G1 X90.383 Y104.563 E2.43983
G2 X92.104 Y104.798 I1.214 J-2.473 E2.53219
G2 X94.760 Y104.499 I0.601 J-6.607 E2.67280
G2 X98.237 Y104.880 I1.989 J-2.093 E2.86893
G1 X98.340 Y104.937 E2.87505
G1 X99.423 Y105.042 E2.93193
G1 X100.070 Y104.745 E2.96911
G2 X100.352 Y104.860 I0.301 J-0.334 E2.98522
G2 X100.635 Y106.162 I2.246 J0.194 E3.05561
G3 X99.244 Y106.152 I-0.604 J-12.696 E3.12832
G1 X82.931 Y105.161 E3.98214
G1 X82.921 Y104.879 E3.99688
G1 X82.221 Y104.771 F6600.000
G1 F128.951
G1 X82.172 Y105.115 E4.01506
G1 X79.365 Y104.944 E4.16201
G1 X79.305 Y104.665 E4.17697
G2 X80.637 Y103.665 I-1.293 J-3.109 E4.26476
G1 X80.878 Y104.074 E4.28954
G1 X81.662 Y104.645 E4.34025
G1 X82.162 Y104.757 E4.36702
G1 X80.985 Y102.249 F6600.000
G1 F128.951
G2 X81.353 Y103.643 I1.701 J0.297 E4.44449
G1 X81.927 Y104.061 E4.48158
G1 X82.646 Y104.222 E4.52009
G1 X83.329 Y104.130 E4.55605
G1 X83.858 Y103.841 E4.58758
G2 X84.536 Y102.458 I-1.310 J-1.500 E4.67011
G1 X84.522 Y99.300 E4.83513
G2 X85.712 Y99.034 I-0.072 J-3.118 E4.89914
G2 X85.798 Y100.629 I1.717 J0.707 E4.98503
G1 X85.377 Y100.893 E5.01103
G1 X84.972 Y101.564 E5.05196
G1 X84.896 Y102.281 E5.08962
G2 X86.572 Y104.198 I2.178 J-0.213 E5.23148
G2 X89.649 Y103.811 I1.096 J-3.715 E5.39839
G1 X90.118 Y103.409 E5.43065
G1 X90.274 Y103.665 E5.44633
G2 X91.594 Y104.215 I1.226 J-1.084 E5.52336
G3 X92.873 Y104.177 I0.820 J6.060 E5.59027
G2 X94.934 Y103.742 I0.203 J-4.136 E5.70144
G2 X98.208 Y104.147 I1.831 J-1.362 E5.89405
G1 X98.529 Y104.324 E5.91319
G1 X99.315 Y104.401 E5.95445
G1 X100.000 Y104.086 E5.99381
G1 X100.103 Y103.984 E6.00136
G1 X100.423 Y104.225 E6.02226
G1 X101.085 Y104.426 E6.05845
G2 X101.322 Y106.144 I1.915 J0.611 E6.15197
G1 X101.856 Y106.697 E6.19216
G3 X99.213 Y106.780 I-1.774 J-14.378 E6.33051
G1 X75.889 Y105.363 E7.55130
G3 X75.421 Y104.835 I-0.028 J-0.447 E7.59306
G1 X75.421 Y103.696 E7.65260
G2 X79.813 Y103.615 I2.140 J-3.094 E7.89771
G2 X80.652 Y102.192 I-1.605 J-1.905 E7.98562
G1 X80.926 Y102.239 E8.00014
G1 X80.863 Y101.831 F6600.000
G1 F128.951
G1 X80.685 Y101.859 E8.00956
G1 X80.459 Y101.130 E8.04940
G1 X79.934 Y100.583 E8.08903
G1 X79.303 Y100.298 E8.12517
G2 X77.443 Y100.810 I-0.494 J1.840 E8.23042
G3 X77.443 Y99.164 I3.830 J-0.823 E8.31698
G2 X78.545 Y99.671 I1.747 J-2.345 E8.38069
G1 X79.087 Y99.700 E8.40906
G1 X79.665 Y99.523 E8.44065
G1 X80.113 Y99.181 E8.47008
G1 X80.237 Y99.251 E8.47755
G1 X80.779 Y99.348 E8.50630
G1 X80.991 Y99.326 E8.51742
G1 X81.006 Y101.809 E8.64717
G1 X80.922 Y101.822 E8.65160
G1 E6.65160 F2400.00000
G92 E0
G1 X105.145 Y105.811 F6600.000
G1 E2.00000 F2400.00000
G1 F128.951
G2 X106.103 Y103.526 I-19.670 J-9.590 E2.12948
G1 X106.692 Y104.141 E2.17394
G2 X107.758 Y104.417 I1.075 J-1.954 E2.23190
G3 X105.201 Y105.788 I-7.658 J-11.213 E2.38376
G1 X110.056 Y103.579 F6600.000
G1 F84.6555
G3 X99.173 Y107.572 I-10.022 J-10.487 E3.33249
G1 X75.616 Y106.128 E5.21069
G3 X74.628 Y104.862 I0.232 J-1.200 E5.34946
G1 X74.629 Y102.253 E5.55709
G1 X75.023 Y102.123 E5.59011
G2 X79.293 Y103.013 I2.543 J-1.514 E5.98043
G2 X79.890 Y101.973 I-1.064 J-1.302 E6.07766
G1 X79.757 Y101.544 E6.11344
G2 X77.943 Y101.505 I-0.920 J0.591 E6.28408
G3 X76.625 Y100.685 I-0.360 J-0.890 E6.42665
G3 X76.784 Y98.800 I3.044 J-0.692 E6.57956
G3 X77.707 Y98.403 I0.719 J0.400 E6.66563
G1 X78.395 Y98.792 E6.72848
G2 X79.693 Y98.423 I0.465 J-0.832 E6.84682
G1 X79.905 Y97.941 E6.88877
G1 X80.246 Y98.346 E6.93091
G2 X80.808 Y98.548 I0.572 J-0.709 E6.97911
G1 X81.826 Y98.442 E7.06053
G1 X81.782 Y99.137 E7.11596
G1 X81.799 Y101.920 E7.33747
G1 X81.758 Y102.600 E7.39165
G2 X82.261 Y103.323 I0.816 J-0.031 E7.46510
G2 X83.743 Y102.389 I0.434 J-0.954 E7.63070
G1 X83.726 Y98.493 E7.94078
G2 X85.160 Y98.376 I0.440 J-3.456 E8.05616
G1 X85.692 Y97.970 E8.10943
G2 X86.284 Y98.631 I1.447 J-0.700 E8.18075
G1 X86.727 Y98.775 E8.21776
G2 X86.384 Y99.613 I1.770 J1.214 E8.29020
G2 X87.052 Y100.596 I0.808 J0.169 E8.39463
G3 X87.911 Y100.888 I-0.006 J1.426 E8.46808
G3 X88.110 Y101.412 I-0.338 J0.428 E8.51469
G1 X87.961 Y101.796 E8.54747
G1 X87.292 Y101.316 E8.61298
G2 X85.958 Y101.465 I-0.556 J1.065 E8.72613
G2 X86.194 Y103.145 I0.923 J0.727 E8.87724
G2 X89.200 Y103.152 I1.509 J-2.524 E9.12896
G2 X90.120 Y101.817 I-1.278 J-1.865 E9.26081
G1 X90.623 Y101.893 E9.30127
G2 X90.880 Y103.136 I1.629 J0.311 E9.40475
G2 X91.589 Y103.419 I0.643 J-0.581 E9.46754
G3 X92.856 Y103.384 I0.801 J6.047 E9.56850
G2 X95.264 Y102.557 I0.212 J-3.301 E9.77626
G2 X98.143 Y103.034 I1.519 J-0.243 E10.08238
G2 X99.179 Y103.591 I0.953 J-0.530 E10.18086
G2 X99.761 Y103.207 I-0.236 J-0.990 E10.23714
G1 X100.106 Y102.719 E10.28474
G1 X100.544 Y103.324 E10.34423
G2 X102.150 Y102.297 I0.693 J-0.685 E10.55389
G1 X101.991 Y101.944 E10.58468
G1 X101.264 Y100.732 E10.69718
G1 X101.350 Y100.526 E10.71498
G1 X102.156 Y99.163 E10.84103
G3 X103.253 Y101.989 I-38.637 J16.624 E11.08236
G1 X103.556 Y102.717 E11.14511
G2 X103.111 Y103.790 I9.220 J4.453 E11.23764
G3 X102.767 Y104.123 I-0.505 J-0.177 E11.27704
G2 X102.017 Y104.430 I0.130 J1.388 E11.34220
G2 X103.053 Y106.108 I0.821 J0.652 E11.54680
G2 X104.628 Y105.032 I-0.181 J-1.956 E11.70491
G2 X106.459 Y100.116 I-45.319 J-19.678 E12.12253
G1 X106.783 Y99.376 E12.18682
G1 X107.051 Y99.722 E12.22162
G2 X107.522 Y99.926 I0.718 J-1.012 E12.26265
G1 X108.184 Y99.998 E12.31566
G1 X107.057 Y101.553 E12.46846
G2 X106.858 Y103.168 I1.060 J0.950 E12.60558
G1 X107.144 Y103.466 E12.63842
G2 X107.642 Y103.604 I0.523 J-0.920 E12.67985
G3 X109.996 Y103.579 I1.412 J22.082 E12.86725
G1 X109.700 Y103.763 F6600.000
G1 E10.86725 F2400.00000
G92 E0
G1 X74.711 Y98.225 F6600.000
G1 E2.00000 F2400.00000
G1 F79.5472
G1 X74.618 Y99.219 E2.08455
G1 F86.7242
G2 X74.642 Y101.031 I12.415 J0.742 E2.22544
G1 F81.7168
G1 X74.722 Y101.696 E2.28067
G1 E0.28067 F2400.00000
G92 E0
G1 X86.798 Y98.209 F6600.000
G1 E2.00000 F2400.00000
G1 F141.776
G1 X87.149 Y98.182 E2.01671
G1 F128.32
G1 X87.536 Y98.157 E2.03710
G1 F113.18
G1 X87.646 Y98.173 E2.04369
G1 F102.752
G1 X87.736 Y98.197 E2.04983
G1 F93.3759
G3 X87.877 Y98.419 I-0.081 J0.208 E2.06999
G1 F100.299
G1 X87.830 Y98.575 E2.08096
G1 F110.578
G1 X87.316 Y99.167 E2.12868
G1 E0.12868 F2400.00000
G92 E0
G1 X90.046 Y101.242 F6600.000
G1 E2.00000 F2400.00000
G1 F588.781
G1 X90.263 Y101.244 E2.00248
G1 F349.225
G1 X90.696 Y101.247 E2.01085
G1 F248.229
G1 X91.130 Y101.250 E2.02262
G1 E0.02262 F2400.00000
G92 E0
G1 X95.131 Y101.963 F6600.000
G1 E2.00000 F2400.00000
G1 F584.133
G1 X95.242 Y101.841 E2.00190
G1 F366.669
G3 X95.454 Y101.642 I0.304 J0.112 E2.00734
G1 F291.343
G1 X95.617 Y101.666 E2.01115
G1 F229.44
G3 X95.745 Y101.709 I0.014 J0.169 E2.01519
G1 X96.182 Y101.446 E2.03016
G1 E0.03016 F2400.00000
G92 E0
G1 X100.087 Y99.652 F6600.000
G1 E2.00000 F2400.00000
G1 F673.668
G1 X100.201 Y99.626 E2.00117
G1 X100.412 Y99.302 E2.00503
G1 X100.201 Y96.812 F6600.000
G1 F128.951
G1 X100.121 Y96.763 E2.00994
G1 X99.495 Y96.568 E2.04420
G2 X97.871 Y96.891 I-0.337 J2.550 E2.13205
G1 X97.077 Y97.551 E2.18601
G2 X93.467 Y95.152 I-3.725 J1.689 E2.42458
G1 X91.657 Y95.111 E2.51918
G1 X91.026 Y95.177 E2.55234
G1 X90.206 Y95.494 E2.59825
G1 X90.101 Y95.597 E2.60596
G2 X85.835 Y95.384 I-2.331 J3.854 E2.83884
G2 X84.244 Y95.126 I-1.235 J2.579 E2.92428
G1 X84.233 Y94.760 E2.94342
G1 X99.251 Y93.847 E3.72948
G3 X108.004 Y96.549 I0.800 J12.937 E4.21858
G2 X106.788 Y96.758 I-0.050 J3.353 E4.28346
G1 X106.197 Y96.546 E4.31628
G1 X105.316 Y96.596 E4.36239
G1 X104.513 Y96.986 E4.40902
G1 X104.237 Y96.805 E4.42627
G2 X102.141 Y96.738 I-1.125 J2.364 E4.53893
G1 X101.962 Y96.624 E4.55002
G1 X100.851 Y96.532 E4.60826
G1 X100.256 Y96.789 E4.64213
G1 X100.193 Y97.549 F6600.000
G1 F128.951
G2 X98.203 Y97.432 I-1.082 J1.415 E4.75260
G1 X97.673 Y97.873 E4.78862
G1 X97.365 Y98.588 E4.82927
G1 X97.402 Y99.268 E4.86486
G2 X97.838 Y100.293 I4.007 J-1.099 E4.92319
G2 X96.918 Y100.082 I-0.991 J2.209 E4.97270
G2 X95.734 Y96.717 I-4.596 J-0.274 E5.16423
G2 X93.996 Y95.855 I-2.215 J2.283 E5.26707
G1 X93.419 Y95.779 E5.29748
G1 X91.683 Y95.740 E5.38821
G1 X91.175 Y95.793 E5.41493
G1 X90.553 Y96.033 E5.44976
G1 X90.108 Y96.468 E5.48224
G2 X87.581 Y95.580 I-2.204 J2.233 E5.62686
G2 X85.809 Y96.105 I0.060 J3.455 E5.72449
G1 X85.712 Y96.017 E5.73137
G2 X84.881 Y95.752 I-0.920 J1.450 E5.77726
G1 X81.520 Y95.763 E5.95287
G2 X80.281 Y95.798 I-0.544 J2.702 E6.01805
G1 X79.799 Y96.053 E6.04651
G1 X79.657 Y96.204 E6.05733
G2 X75.423 Y96.240 I-2.091 J3.114 E6.29254
G1 X75.424 Y95.134 E6.35036
G3 X75.918 Y94.635 I0.444 J-0.055 E6.39186
G1 X99.223 Y93.219 E7.61166
G3 X109.680 Y97.196 I0.834 J13.543 E8.21403
G1 X107.871 Y97.188 E8.30853
G2 X106.773 Y97.466 I-0.110 J1.871 E8.36842
G1 X106.664 Y97.381 E8.37562
G1 X106.105 Y97.181 E8.40668
G1 X105.477 Y97.216 E8.43951
G2 X104.556 Y97.849 I0.534 J1.764 E8.49862
G1 X104.409 Y97.669 E8.51074
G2 X102.960 Y97.176 I-1.354 J1.602 E8.59242
G1 X102.283 Y97.350 E8.62896
G1 X102.131 Y97.477 E8.63928
G1 X101.755 Y97.237 E8.66261
G1 X100.956 Y97.171 E8.70451
G1 X100.315 Y97.448 E8.74100
G1 X100.239 Y97.511 E8.74616
G1 X100.159 Y98.734 F6600.000
G1 F84.6555
G2 X99.265 Y97.985 I-1.288 J0.629 E8.84214
G2 X98.291 Y99.420 I-0.142 J0.951 E9.01400
G2 X99.067 Y100.764 I8.716 J-4.136 E9.13761
G2 X98.309 Y101.994 I5.782 J4.412 E9.25275
G2 X97.558 Y101.087 I-2.030 J0.917 E9.34747
G2 X96.753 Y100.863 I-0.781 J1.247 E9.41478
G1 X96.020 Y100.952 E9.47350
G2 X95.758 Y98.112 I-4.654 J-1.003 E9.70401
G2 X93.359 Y96.571 I-2.401 J1.101 E9.94348
G1 X91.716 Y96.533 E10.07425
G2 X90.699 Y96.998 I-0.045 J1.245 E10.16668
G1 X90.589 Y97.395 E10.19943
G1 X90.634 Y98.060 E10.25247
G1 X90.631 Y100.601 E10.45467
G1 X90.134 Y100.668 E10.49455
G2 X89.584 Y99.506 I-1.969 J0.221 E10.59857
G2 X89.648 Y97.138 I-1.724 J-1.231 E10.79918
G2 X87.609 Y96.373 I-1.749 J1.561 E10.97951
G2 X85.715 Y97.323 I-0.046 J2.272 E11.15483
G1 X85.454 Y96.851 E11.19769
G2 X84.817 Y96.545 I-0.675 J0.588 E11.25543
G1 X81.494 Y96.556 E11.51989
G1 X80.844 Y96.511 E11.57172
G2 X80.071 Y96.919 I-0.009 J0.920 E11.64392
G1 X79.812 Y97.476 E11.69282
G2 X77.308 Y96.383 I-2.148 J1.506 E11.92133
G2 X75.025 Y97.801 I0.202 J2.873 E12.14356
G1 X74.630 Y97.671 E12.17662
G1 X74.631 Y95.074 E12.38331
G3 X75.831 Y93.846 I1.217 J-0.011 E12.53421
G1 X99.187 Y92.427 E14.39633
G3 X112.531 Y99.641 I0.871 J14.337 E15.66788
G3 X112.530 Y100.359 I-0.718 J0.358 E15.72693
G3 X111.127 Y102.391 I-11.635 J-6.533 E15.92378
G1 X110.782 Y101.909 E15.97095
G2 X110.255 Y101.639 I-0.723 J0.762 E16.01852
G1 X109.492 Y101.554 E16.07962
G2 X110.767 Y99.731 I-21.568 J-16.442 E16.25668
G2 X110.821 Y98.422 I-1.181 J-0.704 E16.36505
G2 X110.188 Y97.991 I-0.742 J0.410 E16.42773
G1 X107.897 Y97.981 E16.61006
G2 X106.738 Y98.568 I-0.088 J1.264 E16.71817
G2 X105.989 Y97.981 I-0.958 J0.451 E16.79614
G2 X105.012 Y98.602 I-0.052 J0.997 E16.89403
G2 X104.741 Y99.269 I3.038 J1.623 E16.95141
G1 X104.320 Y99.257 E16.98486
G2 X103.872 Y98.265 I-1.982 J0.298 E17.07271
G2 X102.414 Y98.275 I-0.724 J0.744 E17.20088
G1 X102.171 Y98.689 E17.23906
G1 X101.836 Y98.230 E17.28428
G2 X101.088 Y97.977 I-0.613 J0.581 E17.34901
G2 X100.197 Y98.688 I0.545 J1.596 E17.44158
G1 X100.099 Y98.339 F6600.000
G1 E15.44158 F2400.00000
G92 E0
G1 X108.736 Y99.492 F6600.000
G1 E2.00000 F2400.00000
G1 F726.379
G3 X109.098 Y99.536 I0.082 J0.839 E2.00340
G1 E0.00340 F2400.00000
G92 E0
G1 X110.590 Y102.500 F6600.000
G1 E2.00000 F2400.00000
G1 F345.711
G1 X110.650 Y102.858 E2.00706
G1 F254.767
G1 X110.655 Y102.901 E2.00820
G1 X110.592 Y102.940 E2.01014
G1 F338.27
G1 X110.508 Y102.983 E2.01203
G1 F535.271
G1 X110.362 Y103.035 E2.01398
G1 E0.01398 F2400.00000
G92 E0
G1 X92.618 Y101.390 F6600.000
G1 E2.00000 F2400.00000
G1 F84.6555
G1 X92.623 Y98.541 E2.22674
G3 X93.726 Y98.685 I0.173 J2.969 E2.31591
G3 X93.906 Y98.886 I-0.306 J0.455 E2.33748
G3 X93.853 Y101.077 I-2.354 J1.039 E2.51804
G3 X93.149 Y101.371 I-0.625 J-0.506 E2.58098
G1 X92.678 Y101.388 E2.61850
G1 X92.810 Y101.039 F6600.000
G1 X93.264 Y100.956 F6600.000
G1 F1200
G2 X93.271 Y98.976 I-4.726 J-1.007 E2.71886
G1 E0.71886 F2400.00000
G92 E0
G1 X93.513 Y94.675 F6600.000
G1 E2.00000 F2400.00000
G1 F1200
G1 X92.571 Y94.693 E2.02239
G1 F1200
G1 X91.646 Y94.710 E2.03825
G1 F1200
G1 X90.914 Y94.772 E2.04615
G1 F1200
G1 X90.515 Y94.859 E2.05324
G1 F1200
G1 X90.116 Y94.946 E2.06332
G1 F1200
G1 X89.717 Y95.033 E2.07640
G1 X89.219 Y94.787 F6600.000
G1 F1200
G1 X90.544 Y95.026 E2.10020
G1 X93.513 Y94.675 F6600.000
G1 F1200
G1 X93.976 Y94.691 E2.11461
G1 F1200
G1 X94.236 Y94.701 E2.12384
G1 F1200
G1 X94.675 Y94.744 E2.14265
G1 F1200
G1 X95.114 Y94.787 E2.16467
G1 X95.625 Y94.319 F6600.000
G1 F121.066
G1 X97.692 Y96.387 E2.32738
G1 X98.276 Y96.136 E2.36275
G1 X98.371 Y96.119 E2.36810
G1 X96.784 Y94.532 E2.49297
G1 X97.676 Y94.478 E2.54271
G1 X99.227 Y96.028 E2.66473
G1 X99.582 Y96.036 E2.68449
G1 X100.205 Y96.229 E2.72080
G1 X100.323 Y96.178 E2.72797
G1 X98.568 Y94.424 E2.86606
G1 X99.466 Y94.375 E2.91610
G1 X101.109 Y96.017 E3.04535
G1 X102.143 Y96.105 E3.10309
G1 X100.408 Y94.370 E3.23959
G3 X101.420 Y94.436 I-0.018 J8.068 E3.29605
G1 X102.997 Y96.013 E3.42013
G1 X103.746 Y96.077 E3.46195
G1 X104.140 Y96.210 E3.48512
G1 X102.548 Y94.617 E3.61044
G3 X103.822 Y94.945 I-1.866 J9.884 E3.68372
G1 X105.233 Y96.356 E3.79477
G1 X105.691 Y95.830 F6600.000
G1 F1200
G1 X106.313 Y96.034 E3.81658
G1 F1200
G1 X106.624 Y96.184 E3.82614
G1 F1200
G1 X106.771 Y96.255 E3.82972
G1 X106.769 Y96.274 E3.83013
G1 F1200
G1 X106.767 Y96.311 E3.83073
G1 F1200
G1 X106.765 Y96.416 E3.83165
G1 X110.444 Y97.629 F6600.000
G1 F1200
G3 X110.657 Y97.714 I0.016 J0.270 E3.83280
G1 E1.83280 F2400.00000
G92 E0
