; generated by Slic3r 1.36.2-prusa3d on 2018-02-10 at 11:41:23

; 

; external perimeters extrusion width = 0.60mm
; perimeters extrusion width = 0.50mm
; infill extrusion width = 0.50mm
; solid infill extrusion width = 0.50mm
; top infill extrusion width = 0.40mm
; support material extrusion width = 0.50mm

M107
M190 S50 ; set bed temperature and wait for it to be reached
M104 S200 ; set temperature


; Filament gcode

M109 S200 ; set temperature and wait for it to be reached
G21 ; set units to millimeters
G90 ; use absolute coordinates
M82 ; use absolute distances for extrusion
G92 E0
G1 Z0.198 F7800.000
G1 E-3.00000 F2400.00000
G92 E0
G1 X93.760 Y56.031 F7800.000
G1 E3.00000 F2400.00000
G1 F2100
G1 X94.660 Y55.497 E3.03378
G1 X127.319 Y42.235 E4.17220
G1 X128.047 Y42.030 E4.19663
G1 X129.326 Y41.891 E4.23818
G1 X131.045 Y42.138 E4.29429
G1 X132.145 Y42.580 E4.33257
G1 X132.754 Y42.945 E4.35548
G1 X148.586 Y56.171 E5.02174
G1 X185.986 Y93.551 E6.72951
G1 X186.519 Y94.451 E6.76329
G1 X199.788 Y127.127 E7.90232
G1 X200.007 Y127.973 E7.93052
G1 X200.118 Y128.877 E7.95995
G1 X200.105 Y129.498 E7.97999
G1 X199.844 Y130.944 E8.02747
G1 X199.420 Y131.970 E8.06331
G1 X199.051 Y132.571 E8.08608
G1 X185.836 Y148.387 E8.75173
G1 X148.458 Y185.782 E10.45934
G1 X147.565 Y186.310 E10.49282
G1 X114.889 Y199.579 E11.63185
G1 X114.043 Y199.798 E11.66006
G1 X113.139 Y199.909 E11.68948
G1 X112.519 Y199.896 E11.70952
G1 X111.068 Y199.633 E11.75714
G1 X110.042 Y199.208 E11.79299
G1 X109.445 Y198.842 E11.81561
G1 X93.629 Y185.627 E12.48126
G1 X56.234 Y148.249 E14.18887
G1 X55.706 Y147.356 E14.22235
G1 X42.438 Y114.680 E15.36138
G1 X42.219 Y113.834 E15.38959
G1 X42.108 Y112.930 E15.41900
G1 X42.120 Y112.310 E15.43904
G1 X42.383 Y110.859 E15.48667
G1 X42.808 Y109.833 E15.52252
G1 X43.174 Y109.236 E15.54514
G1 X56.386 Y93.424 E16.21064
G1 X93.718 Y56.073 E17.91616
G1 X94.005 Y56.360 F7800.000
G1 F2100
G1 X94.818 Y55.873 E17.94676
G1 X127.471 Y42.614 E19.08499
G1 X128.123 Y42.431 E19.10686
G1 X129.325 Y42.298 E19.14591
G1 X130.923 Y42.527 E19.19806
G1 X131.963 Y42.945 E19.23427
G1 X132.518 Y43.278 E19.25514
G1 X148.314 Y56.475 E19.91992
G1 X185.671 Y93.810 E21.62566
G1 X186.143 Y94.608 E21.65564
G1 X199.408 Y127.274 E22.79429
G1 X199.602 Y128.024 E22.81930
G1 X199.700 Y129.452 E22.86555
G1 X199.460 Y130.808 E22.91000
G1 X199.056 Y131.786 E22.94420
G1 X198.723 Y132.330 E22.96479
G1 X185.536 Y148.111 E23.62899
G1 X148.203 Y185.464 E25.33459
G1 X147.408 Y185.934 E25.36442
G1 X114.742 Y199.199 E26.50308
G1 X113.993 Y199.393 E26.52808
G1 X112.564 Y199.491 E26.57433
G1 X111.209 Y199.251 E26.61877
G1 X110.230 Y198.847 E26.65298
G1 X109.686 Y198.514 E26.67357
G1 X93.905 Y185.326 E27.33778
G1 X56.552 Y147.994 E29.04338
G1 X56.082 Y147.199 E29.07321
G1 X42.818 Y114.533 E30.21186
G1 X42.623 Y113.784 E30.23687
G1 X42.525 Y112.355 E30.28311
G1 X42.766 Y111.000 E30.32756
G1 X43.170 Y110.021 E30.36177
G1 X43.503 Y109.477 E30.38236
G1 X56.690 Y93.696 E31.04656
G1 X93.962 Y56.402 E32.74943
G1 X94.249 Y56.689 F7800.000
G1 F2100
G1 X94.972 Y56.250 E32.77674
G1 X127.623 Y42.992 E33.91489
G1 X128.197 Y42.831 E33.93413
G1 X129.326 Y42.706 E33.97081
G1 X130.804 Y42.916 E34.01902
G1 X131.787 Y43.313 E34.05327
G1 X132.283 Y43.611 E34.07198
G1 X148.042 Y56.778 E34.73521
G1 X185.354 Y94.066 E36.43884
G1 X185.766 Y94.763 E36.46498
G1 X199.028 Y127.422 E37.60340
G1 X199.199 Y128.078 E37.62530
G1 X199.294 Y129.410 E37.66845
G1 X199.077 Y130.666 E37.70960
G1 X198.691 Y131.604 E37.74237
G1 X198.392 Y132.091 E37.76082
G1 X185.232 Y147.839 E38.42364
G1 X147.947 Y185.147 E40.12713
G1 X147.254 Y185.557 E40.15315
G1 X114.595 Y198.819 E41.29156
G1 X113.938 Y198.989 E41.31347
G1 X112.606 Y199.085 E41.35661
G1 X111.351 Y198.868 E41.39775
G1 X110.416 Y198.484 E41.43040
G1 X109.925 Y198.183 E41.44898
G1 X94.177 Y185.023 E42.11181
G1 X56.869 Y147.738 E43.81529
G1 X56.459 Y147.045 E43.84131
G1 X43.198 Y114.386 E44.97973
G1 X43.027 Y113.729 E45.00163
G1 X42.931 Y112.397 E45.04477
G1 X43.148 Y111.141 E45.08592
G1 X43.534 Y110.203 E45.11870
G1 X43.833 Y109.716 E45.13714
G1 X56.993 Y93.968 E45.79997
G1 X94.206 Y56.731 E47.50019
G1 X94.493 Y57.017 F7800.000
G1 F2100
G1 X95.127 Y56.627 E47.52426
G1 X127.771 Y43.371 E48.66215
G1 X128.269 Y43.233 E48.67883
G1 X129.324 Y43.113 E48.71313
G1 X130.679 Y43.304 E48.75731
G1 X131.608 Y43.679 E48.78968
G1 X132.044 Y43.941 E48.80612
G1 X147.770 Y57.082 E49.46800
G1 X185.035 Y94.320 E51.16942
G1 X185.389 Y94.918 E51.19188
G1 X198.648 Y127.569 E52.33002
G1 X198.795 Y128.132 E52.34879
G1 X198.889 Y129.368 E52.38882
G1 X198.694 Y130.528 E52.42684
G1 X198.329 Y131.417 E52.45785
G1 X198.065 Y131.849 E52.47421
G1 X184.931 Y147.564 E53.13566
G1 X147.693 Y184.829 E54.83709
G1 X147.094 Y185.182 E54.85954
G1 X114.447 Y198.439 E55.99756
G1 X113.885 Y198.585 E56.01633
G1 X112.649 Y198.680 E56.05636
G1 X111.481 Y198.482 E56.09461
G1 X110.589 Y198.115 E56.12575
G1 X110.145 Y197.838 E56.14266
G1 X94.452 Y184.722 E56.80320
G1 X57.188 Y147.484 E58.50462
G1 X56.836 Y146.889 E58.52695
G1 X43.577 Y114.238 E59.66509
G1 X43.431 Y113.675 E59.68386
G1 X43.336 Y112.440 E59.72389
G1 X43.532 Y111.279 E59.76191
G1 X43.896 Y110.391 E59.79292
G1 X44.161 Y109.958 E59.80928
G1 X57.294 Y94.243 E60.47074
G1 X94.450 Y57.060 E62.16844
G1 E59.16844 F2400.00000
G92 E0
G1 X169.548 Y111.929 F7800.000
G1 E3.00000 F2400.00000
G1 F1200
G1 X169.497 Y112.782 E3.05338
G1 X169.549 Y113.578 E3.10317
G1 E0.10317 F2400.00000
G92 E0
G1 X130.130 Y169.340 F7800.000
G1 E3.00000 F2400.00000
G1 F1200
G1 X129.334 Y169.288 E3.05004
G1 F1200
G1 X128.836 Y169.314 E3.07926
G1 F1200
G1 X128.438 Y169.340 E3.10427
G1 E0.10427 F2400.00000
G92 E0
G1 X72.676 Y129.921 F7800.000
G1 E3.00000 F2400.00000
G1 F1200
G1 X72.728 Y129.125 E3.05001
G1 F1200
G1 X72.702 Y128.627 E3.07923
G1 F1200
G1 X72.676 Y128.229 E3.10423
G1 E0.10423 F2400.00000
G92 E0
G1 X112.095 Y72.467 F7800.000
G1 E3.00000 F2400.00000
G1 F1200
G1 X112.956 Y72.517 E3.05081
G1 F1200
G1 X113.764 Y72.466 E3.10186
G1 E0.10186 F2400.00000
G92 E0
G1 X130.262 Y50.485 F7800.000
G1 E3.00000 F2400.00000
G1 F1200
G1 X130.233 Y59.154 E3.38701
G1 X145.841 Y59.154 E4.08380
G1 X145.841 Y96.133 E5.73468
G1 X182.862 Y96.133 E7.38749
G1 X182.862 Y106.331 E7.84277
G1 X181.150 Y106.331 E7.91921
G1 X180.941 Y106.170 E7.93096
G1 X179.114 Y105.413 E8.01927
G1 X177.153 Y105.155 E8.10757
G1 X175.192 Y105.413 E8.19588
G1 X173.364 Y106.170 E8.28418
G1 X171.795 Y107.374 E8.37249
G1 X170.591 Y108.944 E8.46079
G1 X169.847 Y110.739 E8.54753
G1 X169.725 Y111.640 E8.58814
G1 X169.413 Y111.619 E8.60209
G1 X169.413 Y103.425 E8.96792
G1 X145.841 Y103.425 E10.02028
G1 X145.841 Y121.204 E10.81401
G1 X145.884 Y121.204 E10.81593
G1 X145.884 Y138.383 E11.58287
G1 X169.413 Y138.383 E12.63331
G1 X169.413 Y113.888 E13.72686
G1 X169.725 Y113.867 E13.74085
G1 X169.834 Y114.693 E13.77803
G1 X170.591 Y116.520 E13.86634
G1 X171.795 Y118.090 E13.95464
G1 X173.364 Y119.294 E14.04294
G1 X175.192 Y120.051 E14.13125
G1 X177.153 Y120.309 E14.21955
G1 X179.114 Y120.051 E14.30786
G1 X180.941 Y119.294 E14.39616
G1 X181.150 Y119.134 E14.40791
G1 X182.862 Y119.134 E14.48436
G1 X182.862 Y128.033 E14.88165
G1 X191.711 Y128.033 E15.27669
G1 X192.833 Y127.172 E15.33981
G1 X193.373 Y126.948 E15.36592
G1 X193.953 Y126.872 E15.39203
G1 X194.532 Y126.948 E15.41814
G1 X195.073 Y127.172 E15.44424
G1 X195.537 Y127.528 E15.47035
G1 X195.893 Y127.992 E15.49646
G1 X196.116 Y128.532 E15.52256
G1 X196.193 Y129.112 E15.54867
G1 X196.116 Y129.692 E15.57478
G1 X195.893 Y130.232 E15.60088
G1 X195.538 Y130.695 E15.62692
G1 X195.047 Y131.062 E15.65428
G1 X194.532 Y131.276 E15.67916
G1 X193.953 Y131.352 E15.70527
G1 X193.373 Y131.276 E15.73138
G1 X192.833 Y131.052 E15.75748
G1 X191.531 Y130.053 E15.83074
G1 X182.862 Y130.024 E16.21775
G1 X182.862 Y145.632 E16.91454
G1 X145.884 Y145.632 E18.56542
G1 X145.884 Y182.653 E20.21822
G1 X135.686 Y182.653 E20.67351
G1 X135.686 Y180.941 E20.74995
G1 X135.846 Y180.732 E20.76170
G1 X136.603 Y178.905 E20.85000
G1 X136.861 Y176.944 E20.93831
G1 X136.603 Y174.983 E21.02661
G1 X135.846 Y173.155 E21.11492
G1 X134.641 Y171.585 E21.20325
G1 X133.040 Y170.368 E21.29304
G1 X131.245 Y169.625 E21.37978
G1 X130.419 Y169.516 E21.41697
G1 X130.440 Y169.204 E21.43095
G1 X138.592 Y169.204 E21.79489
G1 X138.592 Y145.632 E22.84725
G1 X120.813 Y145.632 E23.64098
G1 X120.813 Y145.675 E23.64290
G1 X103.634 Y145.675 E24.40984
G1 X103.634 Y169.204 E25.46028
G1 X128.129 Y169.204 E26.55383
G1 X128.149 Y169.516 E26.56782
G1 X127.323 Y169.625 E26.60501
G1 X125.496 Y170.382 E26.69331
G1 X123.927 Y171.586 E26.78162
G1 X122.722 Y173.155 E26.86992
G1 X121.966 Y174.983 E26.95823
G1 X121.707 Y176.944 E27.04653
G1 X121.966 Y178.905 E27.13483
G1 X122.722 Y180.732 E27.22314
G1 X122.883 Y180.941 E27.23489
G1 X122.883 Y182.653 E27.31133
G1 X113.984 Y182.653 E27.70862
G1 X113.984 Y191.502 E28.10367
G1 X114.844 Y192.624 E28.16679
G1 X115.068 Y193.164 E28.19290
G1 X115.145 Y193.744 E28.21901
G1 X115.068 Y194.323 E28.24511
G1 X114.855 Y194.838 E28.26999
G1 X114.487 Y195.329 E28.29736
G1 X114.024 Y195.684 E28.32339
G1 X113.484 Y195.907 E28.34950
G1 X112.904 Y195.984 E28.37561
G1 X112.325 Y195.907 E28.40171
G1 X111.784 Y195.684 E28.42782
G1 X111.320 Y195.328 E28.45393
G1 X110.964 Y194.864 E28.48003
G1 X110.741 Y194.323 E28.50614
G1 X110.664 Y193.744 E28.53225
G1 X110.741 Y193.164 E28.55836
G1 X110.964 Y192.624 E28.58446
G1 X111.963 Y191.322 E28.65772
G1 X111.992 Y182.653 E29.04473
G1 X96.385 Y182.653 E29.74152
G1 X96.385 Y145.675 E31.39240
G1 X59.363 Y145.675 E33.04520
G1 X59.363 Y135.477 E33.50048
G1 X61.075 Y135.477 E33.57693
G1 X61.284 Y135.637 E33.58868
G1 X63.112 Y136.394 E33.67698
G1 X65.073 Y136.652 E33.76528
G1 X67.034 Y136.394 E33.85359
G1 X68.861 Y135.637 E33.94189
G1 X70.430 Y134.433 E34.03020
G1 X71.634 Y132.864 E34.11850
G1 X72.391 Y131.036 E34.20681
G1 X72.500 Y130.210 E34.24401
G1 X72.813 Y130.230 E34.25800
G1 X72.813 Y138.383 E34.62194
G1 X96.385 Y138.383 E35.67430
G1 X96.385 Y120.604 E36.46803
G1 X96.342 Y120.604 E36.46996
G1 X96.342 Y103.425 E37.23690
G1 X72.813 Y103.425 E38.28734
G1 X72.813 Y127.920 E39.38091
G1 X72.500 Y127.940 E39.39490
G1 X72.391 Y127.114 E39.43210
G1 X71.634 Y125.287 E39.52040
G1 X70.430 Y123.718 E39.60871
G1 X68.861 Y122.513 E39.69701
G1 X67.034 Y121.756 E39.78532
G1 X65.073 Y121.498 E39.87362
G1 X63.112 Y121.756 E39.96193
G1 X61.284 Y122.513 E40.05023
G1 X61.075 Y122.674 E40.06198
G1 X59.363 Y122.674 E40.13842
G1 X59.363 Y113.775 E40.53571
G1 X50.514 Y113.775 E40.93076
G1 X49.393 Y114.635 E40.99388
G1 X48.852 Y114.859 E41.01999
G1 X48.273 Y114.935 E41.04610
G1 X47.693 Y114.859 E41.07220
G1 X47.153 Y114.635 E41.09831
G1 X46.689 Y114.279 E41.12442
G1 X46.333 Y113.815 E41.15052
G1 X46.109 Y113.275 E41.17663
G1 X46.033 Y112.695 E41.20274
G1 X46.109 Y112.116 E41.22884
G1 X46.322 Y111.601 E41.25373
G1 X46.690 Y111.110 E41.28109
G1 X47.153 Y110.755 E41.30712
G1 X47.693 Y110.532 E41.33323
G1 X48.273 Y110.455 E41.35934
G1 X48.852 Y110.532 E41.38545
G1 X49.393 Y110.755 E41.41155
G1 X50.694 Y111.754 E41.48480
G1 X59.363 Y111.783 E41.87182
G1 X59.363 Y96.176 E42.56861
G1 X96.342 Y96.176 E44.21949
G1 X96.342 Y59.154 E45.87229
G1 X106.540 Y59.154 E46.32757
G1 X106.540 Y60.866 E46.40402
G1 X106.379 Y61.075 E46.41577
G1 X105.622 Y62.903 E46.50407
G1 X105.364 Y64.864 E46.59238
G1 X105.622 Y66.825 E46.68068
G1 X106.379 Y68.652 E46.76898
G1 X107.583 Y70.221 E46.85729
G1 X109.153 Y71.425 E46.94559
G1 X110.980 Y72.182 E47.03390
G1 X111.806 Y72.291 E47.07108
G1 X111.785 Y72.604 E47.08507
G1 X103.634 Y72.604 E47.44900
G1 X103.634 Y96.176 E48.50136
G1 X121.413 Y96.176 E49.29509
G1 X121.413 Y96.133 E49.29701
G1 X138.592 Y96.133 E50.06396
G1 X138.592 Y72.604 E51.11439
G1 X114.073 Y72.604 E52.20900
G1 X114.053 Y72.290 E52.22302
G1 X114.901 Y72.183 E52.26119
G1 X116.729 Y71.425 E52.34952
G1 X118.299 Y70.221 E52.43783
G1 X119.503 Y68.652 E52.52613
G1 X120.260 Y66.825 E52.61443
G1 X120.518 Y64.864 E52.70274
G1 X120.260 Y62.903 E52.79104
G1 X119.503 Y61.075 E52.87935
G1 X119.343 Y60.866 E52.89110
G1 X119.343 Y59.154 E52.96754
G1 X128.242 Y59.154 E53.36483
G1 X128.242 Y50.305 E53.75988
G1 X127.381 Y49.184 E53.82300
G1 X127.157 Y48.643 E53.84911
G1 X127.081 Y48.064 E53.87521
G1 X127.157 Y47.484 E53.90132
G1 X127.370 Y46.969 E53.92620
G1 X127.738 Y46.479 E53.95357
G1 X128.201 Y46.124 E53.97960
G1 X128.740 Y45.900 E54.00563
G1 X129.348 Y45.827 E54.03300
G1 X129.901 Y45.900 E54.05788
G1 X130.441 Y46.124 E54.08398
G1 X130.904 Y46.479 E54.11002
G1 X131.271 Y46.969 E54.13738
G1 X131.485 Y47.484 E54.16226
G1 X131.561 Y48.064 E54.18837
G1 X131.485 Y48.643 E54.21448
G1 X131.261 Y49.184 E54.24058
G1 X130.299 Y50.438 E54.31116
G1 X129.883 Y50.613 F7800.000
G1 X129.754 Y50.484 F7800.000
G1 F2400
G1 X129.724 Y59.662 E54.64535
G1 X145.333 Y59.662 E55.21372
G1 X145.333 Y96.640 E56.56020
G1 X182.355 Y96.640 E57.90825
G1 X182.355 Y105.823 E58.24262
G1 X181.322 Y105.823 E58.28022
G1 X181.197 Y105.727 E58.28596
G1 X179.246 Y104.919 E58.36285
G1 X177.153 Y104.643 E58.43974
G1 X175.059 Y104.919 E58.51663
G1 X173.108 Y105.727 E58.59352
G1 X171.433 Y107.012 E58.67040
G1 X170.106 Y108.741 E58.74975
G1 X169.920 Y108.678 E58.75692
G1 X169.920 Y102.917 E58.96669
G1 X145.333 Y102.917 E59.86197
G1 X145.333 Y121.711 E60.54630
G1 X145.376 Y121.711 E60.54787
G1 X145.376 Y138.890 E61.17340
G1 X169.920 Y138.890 E62.06711
G1 X169.920 Y116.786 E62.87197
G1 X170.106 Y116.723 E62.87914
G1 X171.433 Y118.452 E62.95849
G1 X173.108 Y119.737 E63.03537
G1 X175.059 Y120.545 E63.11226
G1 X177.153 Y120.821 E63.18915
G1 X179.246 Y120.545 E63.26604
G1 X181.197 Y119.737 E63.34293
G1 X181.322 Y119.641 E63.34867
G1 X182.355 Y119.641 E63.38627
G1 X182.355 Y128.540 E63.71030
G1 X191.883 Y128.540 E64.05726
G1 X193.089 Y127.615 E64.11258
G1 X193.505 Y127.443 E64.12901
G1 X193.953 Y127.384 E64.14543
G1 X194.400 Y127.443 E64.16186
G1 X194.817 Y127.615 E64.17829
G1 X195.175 Y127.890 E64.19472
G1 X195.449 Y128.248 E64.21114
G1 X195.622 Y128.665 E64.22757
G1 X195.681 Y129.112 E64.24400
G1 X195.622 Y129.559 E64.26043
G1 X195.449 Y129.976 E64.27685
G1 X195.177 Y130.330 E64.29312
G1 X194.794 Y130.618 E64.31057
G1 X194.400 Y130.781 E64.32610
G1 X193.953 Y130.840 E64.34253
G1 X193.505 Y130.781 E64.35896
G1 X193.089 Y130.609 E64.37538
G1 X191.704 Y129.546 E64.43894
G1 X182.355 Y129.515 E64.77937
G1 X182.355 Y145.124 E65.34774
G1 X145.376 Y145.124 E66.69422
G1 X145.376 Y182.146 E68.04226
G1 X136.193 Y182.146 E68.37664
G1 X136.193 Y181.113 E68.41424
G1 X136.289 Y180.988 E68.41998
G1 X137.097 Y179.037 E68.49687
G1 X137.373 Y176.944 E68.57375
G1 X137.097 Y174.850 E68.65064
G1 X136.289 Y172.899 E68.72753
G1 X135.003 Y171.223 E68.80449
G1 X133.260 Y169.898 E68.88419
G1 X133.323 Y169.711 E68.89137
G1 X139.099 Y169.711 E69.10170
G1 X139.099 Y145.124 E69.99697
G1 X120.305 Y145.124 E70.68131
G1 X120.305 Y145.167 E70.68288
G1 X103.126 Y145.167 E71.30841
G1 X103.126 Y169.711 E72.20211
G1 X125.230 Y169.711 E73.00698
G1 X125.294 Y169.897 E73.01414
G1 X123.565 Y171.224 E73.09349
G1 X122.279 Y172.899 E73.17038
G1 X121.471 Y174.850 E73.24727
G1 X121.195 Y176.944 E73.32416
G1 X121.471 Y179.037 E73.40105
G1 X122.279 Y180.988 E73.47793
G1 X122.375 Y181.113 E73.48368
G1 X122.375 Y182.146 E73.52127
G1 X113.476 Y182.146 E73.84531
G1 X113.476 Y191.674 E74.19227
G1 X114.401 Y192.879 E74.24759
G1 X114.574 Y193.296 E74.26402
G1 X114.633 Y193.744 E74.28044
G1 X114.574 Y194.191 E74.29687
G1 X114.411 Y194.585 E74.31240
G1 X114.123 Y194.968 E74.32985
G1 X113.768 Y195.240 E74.34612
G1 X113.352 Y195.413 E74.36254
G1 X112.904 Y195.472 E74.37897
G1 X112.457 Y195.413 E74.39540
G1 X112.040 Y195.240 E74.41183
G1 X111.682 Y194.966 E74.42826
G1 X111.408 Y194.608 E74.44468
G1 X111.235 Y194.191 E74.46111
G1 X111.176 Y193.744 E74.47754
G1 X111.235 Y193.296 E74.49396
G1 X111.408 Y192.879 E74.51039
G1 X112.470 Y191.495 E74.57394
G1 X112.501 Y182.146 E74.91438
G1 X96.892 Y182.146 E75.48275
G1 X96.892 Y145.167 E76.82922
G1 X59.871 Y145.167 E78.17727
G1 X59.871 Y135.984 E78.51165
G1 X60.903 Y135.984 E78.54924
