;FLAVOR:RepRap
;TIME:3485
;Generated with Cura_SteamEngine 2.3.1
M190 S50
M104 S195
M109 S195
G21 ;metric values
G90 ;absolute positioning
M82 ;set extruder to absolute mode
M107 ;start with the fan off
G28 X0 Y0 ;move X/Y to min endstops
G28 Z0 ;move Z to min endstops
G1 Z15.0 F9000 ;move the platform down 15mm
G92 E0 ;zero the extruded length
G1 F200 E3 ;extrude 3mm of feed stock
G92 E0 ;zero the extruded length again
G1 F9000
;Put printing message on LCD screen
M117 Printing...
;LAYER_COUNT:119
;LAYER:0
M107
G1 F2700 E-6.5
G0 F4320 X54.925 Y69.189 Z.2
;TYPE:SKIRT
G1 F2700 E0
G1 F1800 X55.455 Y68.78 E0.02227
G1 X56.03 Y68.437 E0.04454
G1 X56.641 Y68.166 E0.06677
G1 X57.28 Y67.969 E0.08901
G1 X57.939 Y67.85 E0.11128
G1 X58.605 Y67.81 E0.13347
G1 X141.394 Y67.81 E2.88704
G1 X142.062 Y67.85 E2.9093
G1 X142.72 Y67.969 E2.93154
G1 X143.36 Y68.166 E2.95381
G1 X143.971 Y68.438 E2.97606
G1 X144.545 Y68.781 E2.9983
G1 X145.29 Y69.388 E3.03026
G1 X145.386 Y69.481 E3.03471
G1 X145.838 Y69.974 E3.05695
G1 X146.228 Y70.518 E3.07922
G1 X146.55 Y71.104 E3.10145
G1 X146.8 Y71.725 E3.12372
G1 X146.974 Y72.371 E3.14597
G1 X147.07 Y73.033 E3.16822
G1 X147.09 Y73.498 E3.1837
G1 X147.1 Y83.988 E3.5326
G1 X147.091 Y84.306 E3.54318
G1 X146.801 Y89.487 E3.71577
G1 X146.733 Y94.881 E3.89519
G1 X147.017 Y101.034 E4.10006
G1 X147.023 Y101.292 E4.10864
G1 X147.023 Y112.491 E4.48112
G1 X146.983 Y113.159 E4.50338
G1 X146.864 Y113.817 E4.52562
G1 X146.667 Y114.457 E4.54789
G1 X146.395 Y115.068 E4.57014
G1 X146.052 Y115.642 E4.59238
G1 X145.507 Y116.322 E4.62136
G1 X145.416 Y116.419 E4.62578
G1 X144.93 Y116.879 E4.64804
G1 X144.393 Y117.278 E4.67029
G1 X143.811 Y117.609 E4.69256
G1 X143.195 Y117.869 E4.7148
G1 X142.552 Y118.054 E4.73705
G1 X142.137 Y118.13 E4.75109
G1 X135.473 Y119.098 E4.97506
G1 X130.241 Y120.189 E5.15282
G1 X127.71 Y120.829 E5.23965
G1 X122.564 Y122.367 E5.41829
G1 X117.518 Y124.192 E5.59676
G1 X113.224 Y125.985 E5.75153
G1 X108.339 Y128.239 E5.93046
G1 X102.255 Y131.519 E6.16035
G1 X101.648 Y131.801 E6.18261
G1 X101.012 Y132.008 E6.20486
G1 X100.356 Y132.138 E6.2271
G1 X99.597 Y132.19 E6.25241
G1 X88.404 Y132.19 E6.62469
G1 X87.736 Y132.15 E6.64694
G1 X87.078 Y132.031 E6.66918
G1 X86.438 Y131.834 E6.69146
G1 X85.628 Y131.454 E6.72121
G1 X81.443 Y129.066 E6.88147
G1 X76.678 Y126.667 E7.05891
G1 X71.745 Y124.525 E7.23778
G1 X69.278 Y123.574 E7.32572
G1 X66.797 Y122.701 E7.4132
G1 X61.642 Y121.126 E7.59248
G1 X57.174 Y119.978 E7.74591
G1 X56.537 Y119.773 E7.76817
G1 X55.929 Y119.494 E7.79042
G1 X55.359 Y119.144 E7.81267
G1 X54.834 Y118.728 E7.83495
G1 X54.573 Y118.479 E7.84694
G1 X54.516 Y118.421 E7.84965
G1 X54.076 Y117.917 E7.8719
G1 X53.7 Y117.364 E7.89414
G1 X53.392 Y116.77 E7.9164
G1 X53.158 Y116.143 E7.93866
G1 X52.999 Y115.493 E7.96091
G1 X52.92 Y114.829 E7.98315
G1 X52.91 Y114.478 E7.99483
G1 X52.953 Y101.28 E8.4338
G1 X52.9 Y74.185 E9.33499
G1 X52.952 Y73.412 E9.36075
G1 X53.057 Y72.648 E9.3864
G1 X53.188 Y71.991 E9.40869
G1 X53.396 Y71.355 E9.43094
G1 X53.678 Y70.749 E9.45317
G1 X54.03 Y70.18 E9.47543
G1 X54.448 Y69.658 E9.49767
G1 X54.925 Y69.189 E9.51992
G0 F4320 X55.295 Y69.399
G1 F1800 X55.817 Y69.02 E9.54137
G1 X56.382 Y68.709 E9.56282
G1 X56.98 Y68.47 E9.58424
G1 X57.604 Y68.307 E9.60569
G1 X58.243 Y68.223 E9.62713
G1 X58.605 Y68.21 E9.63918
G1 X141.394 Y68.21 E12.39275
G1 X142.037 Y68.25 E12.41418
G1 X142.671 Y68.369 E12.43563
G1 X143.285 Y68.566 E12.45708
G1 X143.87 Y68.837 E12.47853
G1 X144.417 Y69.179 E12.49998
G1 X145.012 Y69.675 E12.52575
G1 X145.108 Y69.768 E12.53019
G1 X145.542 Y70.245 E12.55164
G1 X145.915 Y70.771 E12.57309
G1 X146.219 Y71.339 E12.59452
G1 X146.45 Y71.941 E12.61596
G1 X146.605 Y72.567 E12.63741
G1 X146.69 Y73.498 E12.6685
G1 X146.7 Y83.988 E13.0174
G1 X146.692 Y84.284 E13.02725
G1 X146.401 Y89.483 E13.20044
G1 X146.333 Y94.894 E13.38043
G1 X146.617 Y101.052 E13.58546
G1 X146.623 Y101.292 E13.59345
G1 X146.623 Y112.491 E13.96593
G1 X146.583 Y113.134 E13.98735
G1 X146.464 Y113.768 E14.00881
G1 X146.267 Y114.382 E14.03026
G1 X145.996 Y114.967 E14.0517
G1 X145.654 Y115.514 E14.07316
G1 X145.215 Y116.049 E14.09617
G1 X145.124 Y116.146 E14.1006
G1 X144.655 Y116.588 E14.12203
G1 X144.135 Y116.968 E14.14345
G1 X143.571 Y117.281 E14.16491
G1 X142.973 Y117.522 E14.18635
G1 X142.079 Y117.734 E14.21691
G1 X135.402 Y118.704 E14.44132
G1 X130.176 Y119.794 E14.61888
G1 X127.588 Y120.448 E14.70766
G1 X122.44 Y121.987 E14.88637
G1 X117.373 Y123.82 E15.06559
G1 X113.059 Y125.62 E15.22106
G1 X108.16 Y127.881 E15.40052
G1 X102.065 Y131.167 E15.63083
G1 X101.48 Y131.437 E15.65226
G1 X100.865 Y131.633 E15.67372
G1 X100.232 Y131.751 E15.69514
G1 X99.597 Y131.79 E15.7163
G1 X88.404 Y131.79 E16.08858
G1 X87.761 Y131.75 E16.11001
G1 X87.127 Y131.631 E16.13146
G1 X86.513 Y131.434 E16.15291
G1 X85.826 Y131.106 E16.17823
G1 X81.65 Y128.723 E16.33815
G1 X76.852 Y126.308 E16.51681
G1 X71.879 Y124.148 E16.69714
G1 X69.399 Y123.192 E16.78554
G1 X66.941 Y122.327 E16.87221
G1 X61.731 Y120.735 E17.0534
G1 X57.273 Y119.59 E17.20649
G1 X56.66 Y119.392 E17.22791
G1 X56.076 Y119.119 E17.24935
G1 X55.53 Y118.775 E17.27082
G1 X54.858 Y118.199 E17.30026
G1 X54.801 Y118.141 E17.30296
G1 X54.379 Y117.654 E17.32439
G1 X54.02 Y117.118 E17.34585
G1 X53.73 Y116.543 E17.36727
G1 X53.513 Y115.935 E17.38874
G1 X53.373 Y115.306 E17.41017
G1 X53.31 Y114.479 E17.43776
G1 X53.353 Y101.281 E17.87673
G1 X53.3 Y74.184 E18.77798
G1 X53.348 Y73.466 E18.80191
G1 X53.453 Y72.702 E18.82756
G1 X53.581 Y72.07 E18.84901
G1 X53.785 Y71.459 E18.87044
G1 X54.064 Y70.877 E18.8919
G1 X54.412 Y70.335 E18.91333
G1 X54.825 Y69.839 E18.93479
G1 X55.295 Y69.399 E18.95621
G1 F2700 E12.45621
G0 F4320 X59.1 Y74
;TYPE:WALL-INNER
G1 F2700 E18.95621
G1 F1800 X81.3 Y74 E19.69458
G1 X81.3 Y90.201 E20.23343
G1 X77.1 Y90.201 E20.37312
G1 X77.1 Y79.252 E20.73729
G1 X76.049 Y78.202 E20.7867
G1 X64.351 Y78.201 E21.17578
G1 X63.3 Y79.252 E21.22521
G1 X63.3 Y90.95 E21.61429
G1 X64.351 Y92 E21.6637
G1 X69.3 Y92 E21.82831
G1 X69.3 Y96.201 E21.96803
G1 X59.1 Y96.201 E22.30728
G1 X59.1 Y74 E23.04569
G0 F4320 X58.7 Y73.6
;TYPE:WALL-OUTER
G1 F1800 X81.7 Y73.6 E23.81068
G1 X81.7 Y90.601 E24.37613
G1 X76.7 Y90.601 E24.54243
G1 X76.7 Y79.418 E24.91438
G1 X75.883 Y78.602 E24.95279
G1 X64.517 Y78.601 E25.33082
G1 X63.7 Y79.418 E25.36925
G1 X63.7 Y90.784 E25.74728
G1 X64.517 Y91.6 E25.78569
G1 X69.7 Y91.6 E25.95808
G1 X69.7 Y96.601 E26.12441
G1 X58.7 Y96.601 E26.49027
G1 X58.7 Y73.6 E27.25529
G1 F2700 E20.75529
G0 F4320 X59.471 Y74.179
;TYPE:SKIN
G1 F2700 E27.25529
G1 F1800 X63.794 Y78.502 E27.45863
G0 X63.864 Y78.572
G0 F4320 X63.511 Y78.785
G1 F1800 X59.28 Y74.553 E27.65767
G0 X59.21 Y74.483
G0 F4320 X59.28 Y75.119
G1 F1800 X63.228 Y79.067 E27.84337
G0 X63.298 Y79.137
G0 F4320 X63.119 Y79.524
G1 F1800 X59.28 Y75.685 E28.02394
G0 X59.21 Y75.615
G0 F4320 X59.28 Y76.25
G1 F1800 X63.119 Y80.09 E28.20454
G0 X63.189 Y80.16
G0 F4320 X63.119 Y80.656
G1 F1800 X59.28 Y76.816 E28.38514
G0 X59.21 Y76.746
G0 F4320 X59.28 Y77.382
G1 F1800 X63.119 Y81.221 E28.56571
G0 X63.189 Y81.291
G0 F4320 X63.119 Y81.787
G1 F1800 X59.28 Y77.947 E28.74631
G0 X59.21 Y77.877
G0 F4320 X59.28 Y78.513
G1 F1800 X63.119 Y82.353 E28.92691
G0 X63.189 Y82.423
G0 F4320 X63.119 Y82.918
G1 F1800 X59.28 Y79.079 E29.10749
G0 X59.21 Y79.009
G0 F4320 X59.28 Y79.644
G1 F1800 X63.119 Y83.484 E29.28808
G0 X63.189 Y83.554
G0 F4320 X63.119 Y84.05
G1 F1800 X59.28 Y80.21 E29.46868
G0 X59.21 Y80.14
G0 F4320 X59.28 Y80.776
G1 F1800 X63.119 Y84.615 E29.64926
G0 X63.189 Y84.685
G0 F4320 X63.119 Y85.181
G1 F1800 X59.28 Y81.342 E29.82983
G0 X59.21 Y81.272
G0 F4320 X59.28 Y81.907
G1 F1800 X63.119 Y85.747 E30.01043
G0 X63.189 Y85.817
G0 F4320 X63.119 Y86.312
G1 F1800 X59.28 Y82.473 E30.19101
G0 X59.21 Y82.403
G0 F4320 X59.28 Y83.039
G1 F1800 X63.119 Y86.878 E30.37158
G0 X63.189 Y86.948
G0 F4320 X63.119 Y87.444
G1 F1800 X59.28 Y83.604 E30.55218
G0 X59.21 Y83.534
G0 F4320 X59.28 Y84.17
G1 F1800 X63.119 Y88.01 E30.73278
G0 X63.189 Y88.08
G0 F4320 X63.119 Y88.575
G1 F1800 X59.28 Y84.736 E30.91335
G0 X59.21 Y84.666
G0 F4320 X59.28 Y85.301
G1 F1800 X63.119 Y89.141 E31.09395
G0 X63.189 Y89.211
G0 F4320 X63.119 Y89.707
G1 F1800 X59.28 Y85.867 E31.27455
G0 X59.21 Y85.797
G0 F4320 X59.28 Y86.433
G1 F1800 X63.119 Y90.272 E31.45512
G0 X63.189 Y90.342
G0 F4320 X63.119 Y90.838
G1 F1800 X59.28 Y86.998 E31.63572
G0 X59.21 Y86.928
G0 F4320 X59.28 Y87.564
G1 F1800 X67.735 Y96.02 E32.03344
G0 X67.805 Y96.09
G0 F4320 X67.17 Y96.02
G1 F1800 X59.28 Y88.13 E32.40456
G0 X59.21 Y88.06
G0 F4320 X59.28 Y88.695
G1 F1800 X66.604 Y96.02 E32.74909
G0 X66.674 Y96.09
G0 F4320 X66.038 Y96.02
G1 F1800 X59.28 Y89.261 E33.06698
G0 X59.21 Y89.191
G0 F4320 X59.28 Y89.827
G1 F1800 X65.473 Y96.02 E33.35828
G0 X65.543 Y96.09
G0 F4320 X64.907 Y96.02
G1 F1800 X59.28 Y90.392 E33.62298
G0 X59.21 Y90.322
G0 F4320 X59.28 Y90.958
G1 F1800 X64.341 Y96.02 E33.86106
G0 X64.411 Y96.09
G0 F4320 X63.776 Y96.02
G1 F1800 X59.28 Y91.524 E34.07254
G0 X59.21 Y91.454
G0 F4320 X59.28 Y92.09
G1 F1800 X63.21 Y96.02 E34.2574
G0 X63.28 Y96.09
G0 F4320 X62.644 Y96.02
G1 F1800 X59.28 Y92.655 E34.41565
G0 X59.21 Y92.585
G0 F4320 X59.28 Y93.221
G1 F1800 X62.079 Y96.02 E34.54731
G0 X62.149 Y96.09
G0 F4320 X61.513 Y96.02
G1 F1800 X59.28 Y93.787 E34.65234
G0 X59.21 Y93.717
G0 F4320 X59.28 Y94.352
G1 F1800 X60.947 Y96.02 E34.73077
G0 X61.017 Y96.09
G0 F4320 X60.381 Y96.02
G1 F1800 X59.28 Y94.918 E34.78259
G0 X59.21 Y94.848
G0 F4320 X59.28 Y95.484
G1 F1800 X59.816 Y96.02 E34.8078
G1 F2700 E28.3078
G0 F4320 X64.461 Y92.179
G1 F2700 E34.8078
G1 F1800 X68.301 Y96.02 E34.98844
G0 X68.371 Y96.09
G0 F4320 X68.867 Y96.02
G1 F1800 X65.026 Y92.179 E35.16911
G0 X64.956 Y92.109
G0 F4320 X65.592 Y92.179
G1 F1800 X69.12 Y95.707 E35.33506
G0 X69.19 Y95.777
G0 F4320 X69.12 Y95.141
G1 F1800 X66.158 Y92.179 E35.47438
G0 X66.088 Y92.109
G0 F4320 X66.724 Y92.179
G1 F1800 X69.12 Y94.576 E35.58711
G0 X69.19 Y94.646
G0 F4320 X69.12 Y94.01
G1 F1800 X67.289 Y92.179 E35.67323
G0 X67.219 Y92.109
G0 F4320 X67.855 Y92.179
G1 F1800 X69.12 Y93.444 E35.73273
G0 X69.19 Y93.514
G0 F4320 X69.12 Y92.879
G1 F1800 X68.421 Y92.179 E35.76563
G0 X68.351 Y92.109
G0 F4320 X68.986 Y92.179
G1 F1800 X69.12 Y92.313 E35.77194
G1 F2700 E29.27194
G0 F4320 X77.279 Y89.724
G1 F2700 E35.77194
G1 F1800 X77.574 Y90.019 E35.78581
G0 F4320 X78.14 Y90.019
G1 F1800 X77.279 Y89.159 E35.82629
G0 X77.209 Y89.089
G0 F4320 X77.279 Y88.593
G1 F1800 X78.705 Y90.019 E35.89336
G0 X78.775 Y90.089
G0 F4320 X79.271 Y90.019
G1 F1800 X77.279 Y88.027 E35.98706
G0 X77.209 Y87.957
G0 F4320 X77.279 Y87.462
G1 F1800 X79.837 Y90.019 E36.10736
G0 X79.907 Y90.089
G0 F4320 X80.402 Y90.019
G1 F1800 X77.279 Y86.896 E36.25425
G0 X77.209 Y86.826
G0 F4320 X77.279 Y86.33
G1 F1800 X80.968 Y90.019 E36.42777
G0 X81.038 Y90.089
G0 F4320 X81.119 Y89.605
G1 F1800 X77.279 Y85.764 E36.60842
G0 X77.209 Y85.694
G0 F4320 X77.279 Y85.199
G1 F1800 X81.119 Y89.039 E36.78904
G0 X81.189 Y89.109
G0 F4320 X81.119 Y88.473
G1 F1800 X77.279 Y84.633 E36.96966
G0 X77.209 Y84.563
G0 F4320 X77.279 Y84.067
G1 F1800 X81.119 Y87.908 E37.15031
G0 X81.189 Y87.978
G0 F4320 X81.119 Y87.342
G1 F1800 X77.279 Y83.502 E37.33093
G0 X77.209 Y83.432
G0 F4320 X77.279 Y82.936
G1 F1800 X81.119 Y86.776 E37.51155
G0 X81.189 Y86.846
G0 F4320 X81.119 Y86.211
G1 F1800 X77.279 Y82.37 E37.6922
G0 X77.209 Y82.3
G0 F4320 X77.279 Y81.805
G1 F1800 X81.119 Y85.645 E37.87282
G0 X81.189 Y85.715
G0 F4320 X81.119 Y85.079
G1 F1800 X77.279 Y81.239 E38.05344
G0 X77.209 Y81.169
G0 F4320 X77.279 Y80.673
G1 F1800 X81.119 Y84.514 E38.23409
G0 X81.189 Y84.584
G0 F4320 X81.119 Y83.948
G1 F1800 X77.279 Y80.108 E38.41471
G0 X77.209 Y80.038
G0 F4320 X77.279 Y79.542
G1 F1800 X81.119 Y83.382 E38.59533
G0 X81.189 Y83.452
G0 F4320 X81.119 Y82.817
G1 F1800 X72.482 Y74.179 E39.00161
G0 X72.412 Y74.109
G0 F4320 X71.917 Y74.179
G1 F1800 X75.758 Y78.02 E39.18228
G0 X75.828 Y78.09
G0 F4320 X75.192 Y78.02
G1 F1800 X71.351 Y74.179 E39.36295
G0 X71.281 Y74.109
G0 F4320 X70.785 Y74.179
G1 F1800 X74.626 Y78.02 E39.54362
G0 X74.696 Y78.09
G0 F4320 X74.06 Y78.02
G1 F1800 X70.219 Y74.179 E39.72429
G0 X70.149 Y74.109
G0 F4320 X69.654 Y74.179
G1 F1800 X73.495 Y78.02 E39.90496
G0 X73.565 Y78.09
G0 F4320 X72.929 Y78.02
G1 F1800 X69.088 Y74.179 E40.08562
G0 X69.018 Y74.109
G0 F4320 X68.522 Y74.179
G1 F1800 X72.363 Y78.02 E40.26629
G0 X72.433 Y78.09
G0 F4320 X71.798 Y78.02
G1 F1800 X67.957 Y74.179 E40.44696
G0 X67.887 Y74.109
G0 F4320 X67.391 Y74.179
G1 F1800 X71.232 Y78.02 E40.62763
G0 X71.302 Y78.09
G0 F4320 X70.666 Y78.02
G1 F1800 X66.825 Y74.179 E40.8083
G0 X66.755 Y74.109
G0 F4320 X66.26 Y74.179
G1 F1800 X70.101 Y78.02 E40.98897
G0 X70.171 Y78.09
G0 F4320 X69.535 Y78.02
G1 F1800 X65.694 Y74.179 E41.16964
G0 X65.624 Y74.109
G0 F4320 X65.128 Y74.179
G1 F1800 X68.969 Y78.02 E41.35031
G0 X69.039 Y78.09
G0 F4320 X68.404 Y78.02
G1 F1800 X64.563 Y74.179 E41.53098
G0 X64.493 Y74.109
G0 F4320 X63.997 Y74.179
G1 F1800 X67.838 Y78.02 E41.71164
G0 X67.908 Y78.09
G0 F4320 X67.272 Y78.02
G1 F1800 X63.431 Y74.179 E41.89231
G0 X63.361 Y74.109
G0 F4320 X62.866 Y74.179
G1 F1800 X66.707 Y78.02 E42.07298
G0 X66.777 Y78.09
G0 F4320 X66.141 Y78.02
G1 F1800 X62.3 Y74.179 E42.25365
G0 X62.23 Y74.109
G0 F4320 X61.734 Y74.179
G1 F1800 X65.575 Y78.02 E42.43432
G0 X65.645 Y78.09
G0 F4320 X65.009 Y78.02
G1 F1800 X61.168 Y74.179 E42.61499
G0 X61.098 Y74.109
G0 F4320 X60.603 Y74.179
G1 F1800 X64.444 Y78.02 E42.79566
G0 X64.514 Y78.09
G0 F4320 X64.077 Y78.219
G1 F1800 X60.037 Y74.179 E42.98569
G0 X59.967 Y74.109
G1 F2700 E36.48569
G0 F4320 X73.048 Y74.179
G1 F2700 E42.98569
G1 F1800 X81.119 Y82.251 E43.36534
G0 X81.189 Y82.321
G0 F4320 X81.119 Y81.685
G1 F1800 X73.614 Y74.179 E43.71838
G0 X73.544 Y74.109
G0 F4320 X74.179 Y74.179
G1 F1800 X81.119 Y81.119 E44.04482
G0 X81.189 Y81.189
G0 F4320 X81.119 Y80.554
G1 F1800 X74.745 Y74.179 E44.34465
G0 X74.675 Y74.109
G0 F4320 X75.311 Y74.179
G1 F1800 X81.119 Y79.988 E44.61787
G0 X81.189 Y80.058
G0 F4320 X81.119 Y79.422
G1 F1800 X75.876 Y74.179 E44.86448
G0 X75.806 Y74.109
G0 F4320 X76.442 Y74.179
G1 F1800 X81.119 Y78.857 E45.0845
G0 X81.189 Y78.927
G0 F4320 X81.119 Y78.291
G1 F1800 X77.008 Y74.179 E45.27789
G0 X76.938 Y74.109
G0 F4320 X77.573 Y74.179
G1 F1800 X81.119 Y77.725 E45.44468
G0 X81.189 Y77.795
G0 F4320 X81.119 Y77.16
G1 F1800 X78.139 Y74.179 E45.58488
G0 X78.069 Y74.109
G0 F4320 X78.705 Y74.179
G1 F1800 X81.119 Y76.594 E45.69845
G0 X81.189 Y76.664
G0 F4320 X81.119 Y76.028
G1 F1800 X79.27 Y74.179 E45.78542
G0 X79.2 Y74.109
G0 F4320 X79.836 Y74.179
G1 F1800 X81.119 Y75.463 E45.84579
G0 X81.189 Y75.533
G0 F4320 X81.119 Y74.897
G1 F1800 X80.402 Y74.179 E45.87954
G0 X80.332 Y74.109
G0 F4320 X80.967 Y74.179
G1 F1800 X81.119 Y74.331 E45.88669
G1 F2700 E39.38669
G0 F4320 X81.3 Y103.8
;TYPE:WALL-INNER
G1 F2700 E45.88669
G1 F1800 X81.3 Y114 E46.22594
G1 X77.1 Y114 E46.36564
G1 X77.1 Y109.05 E46.53027
G1 X76.048 Y108.001 E46.57969
G1 X64.351 Y108 E46.96873
G1 X63.301 Y109.05 E47.01812
G1 X63.3 Y114 E47.18276
G1 X59.1 Y114 E47.32245
G1 X59.1 Y103.8 E47.6617
G1 X81.3 Y103.8 E48.40008
G0 F4320 X81.7 Y103.4
;TYPE:WALL-OUTER
G1 F1800 X81.7 Y114.4 E48.76594
G1 X76.7 Y114.4 E48.93224
G1 X76.7 Y109.216 E49.10466
G1 X75.883 Y108.401 E49.14304
G1 X64.517 Y108.4 E49.52108
G1 X63.701 Y109.216 E49.55946
G1 X63.7 Y114.4 E49.73188
G1 X58.7 Y114.4 E49.89818
G1 X58.7 Y103.4 E50.26404
G1 X81.7 Y103.4 E51.02902
G1 F2700 E44.52902
G0 F4320 X80.786 Y103.979
;TYPE:SKIN
G1 F2700 E51.02902
G1 F1800 X81.119 Y104.313 E51.04471
G0 F4320 X81.119 Y104.878
G1 F1800 X80.22 Y103.979 E51.087
G0 X80.15 Y103.909
G0 F4320 X79.654 Y103.979
G1 F1800 X81.119 Y105.444 E51.15591
G0 X81.189 Y105.514
G0 F4320 X81.119 Y106.01
G1 F1800 X79.089 Y103.979 E51.25141
G0 X79.019 Y103.909
G0 F4320 X78.523 Y103.979
G1 F1800 X81.119 Y106.575 E51.37352
G0 X81.189 Y106.645
G0 F4320 X81.119 Y107.141
G1 F1800 X77.957 Y103.979 E51.52225
G0 X77.887 Y103.909
G0 F4320 X77.392 Y103.979
G1 F1800 X81.119 Y107.707 E51.69758
G0 X81.189 Y107.777
G0 F4320 X81.119 Y108.272
G1 F1800 X76.826 Y103.979 E51.89951
