; generated by PrusaSlicer 2.6.1+MacOS-x64 on 2023-10-31 at 11:20:29 UTC


;
;

;
;
; 

; external perimeters extrusion width = 0.60mm
; perimeters extrusion width = 0.60mm
; infill extrusion width = 0.60mm
; solid infill extrusion width = 0.60mm
; top infill extrusion width = 0.50mm
; first layer extrusion width = 0.60mm

M73 P0 R38
M201 X2500 Y2500 Z400 E5000 ; sets maximum accelerations, mm/sec^2
M203 X180 Y180 Z12 E80 ; sets maximum feedrates, mm / sec
M204 P1250 R1250 T2500 ; sets acceleration (P, T) and retract acceleration (R), mm/sec^2
M205 X8.00 Y8.00 Z2.00 E10.00 ; sets the jerk limits, mm/sec
M205 S0 T0 ; sets the minimum extruding and travel feed rate, mm/sec
;TYPE:Custom
G90 ; use absolute coordinates
M83 ; extruder relative mode
M104 S170 ; set extruder temp for bed leveling
M140 S60 ; set bed temp
M109 R170 ; wait for bed leveling temp
M190 S60 ; wait for bed temp
M204 T1250 ; set travel acceleration
G28 ; home all without mesh bed level
G29 ; mesh bed leveling 
M204 T2500 ; restore travel acceleration
M104 S205 ; set extruder temp
G92 E0
G1 Y-2 X179 F2400
G1 Z3 F720
M109 S205 ; wait for extruder temp

; intro line
G1 X170 F1000
G1 Z0.2 F720
G1 X110 E8 F900
G1 X40 E10 F700
G92 E0

M221 S95 ; set flow to compensate for slic3r overextruding?
G21 ; set units to millimeters
G90 ; use absolute coordinates
M83 ; use relative distances for extrusion
; Filament gcode
M107
;LAYER_CHANGE
;Z:0.3
;HEIGHT:0.3
;BEFORE_LAYER_CHANGE
G92 E0.0
;0.3


G1 E-1.5 F2100
G1 Z.2 F720
G1 Z.3
;AFTER_LAYER_CHANGE
;0.3
; printing object 3DBenchy.stl id:0 copy 0
G1 Z.5
G1 X92.51 Y91.264 F9000
G1 Z.3 F720
G1 E1.5 F2100
M204 P800
;TYPE:Perimeter
;WIDTH:0.424523
G1 F2400
G1 X92.675 Y91.656 E.0191
;WIDTH:0.381563
G1 X92.876 Y92.188 E.0225
;WIDTH:0.417687
G1 X92.969 Y92.449 E.01221
;WIDTH:0.455671
G1 X93.063 Y92.71 E.01354
G1 X92.941 Y93.049 E.01758
;WIDTH:0.417894
G1 X92.737 Y93.543 E.02357
;WIDTH:0.414356
G1 X92.633 Y93.69 E.00786
;WIDTH:0.451753
G1 X92.467 Y93.722 E.00817
;WIDTH:0.489151
G1 X92.301 Y93.755 E.00897
;WIDTH:0.526549
G1 X92.136 Y93.787 E.00969
G1 X92.206 Y93.706 E.00617
;WIDTH:0.496183
G1 X92.276 Y93.625 E.00577
;WIDTH:0.465818
G1 X92.399 Y93.408 E.01249
;WIDTH:0.434484
G1 X92.523 Y93.192 E.0115
;WIDTH:0.450513
G1 X92.65 Y92.722 E.02345
G1 X92.604 Y92.468 E.01243
;WIDTH:0.411206
G1 X92.559 Y92.214 E.01116
;WIDTH:0.388208
G1 X92.345 Y91.699 E.02252
;WIDTH:0.422069
G1 X92.165 Y91.365 E.01693
;WIDTH:0.455931
G1 X91.984 Y91.031 E.01855
;WIDTH:0.489793
G1 X91.803 Y90.698 E.02011
G1 X92.106 Y90.119 E.03467
G1 X92.308 Y90.785 E.03693
;WIDTH:0.467484
G1 X92.487 Y91.209 E.02314
M204 P1000
G1 E-1.05 F2100
;WIPE_START
G1 F7200
G1 X92.675 Y91.656 E-.13436
G1 X92.876 Y92.188 E-.15758
G1 X92.969 Y92.449 E-.07677
G1 X93.063 Y92.71 E-.07687
G1 X93.058 Y92.725 E-.00442
;WIPE_END
G1 Z.5 F720
G1 X96.926 Y89.974 F9000
G1 Z.3 F720
G1 E1.5 F2100
M204 P800
;WIDTH:0.524507
G1 F2400
G1 X97.217 Y90.152 E.01958
G1 X97.523 Y90.251 E.01846
G1 X97.337 Y90.423 E.01454
G1 X96.909 Y90.946 E.03878
;WIDTH:0.562827
G1 X96.585 Y91.339 E.03166
G1 X96.733 Y90.857 E.03135
;WIDTH:0.524507
G1 X96.913 Y90.033 E.0484
M204 P1000
G1 E-1.05 F2100
;WIPE_START
G1 F7200
G1 X97.217 Y90.152 E-.09046
G1 X97.523 Y90.251 E-.08911
G1 X97.337 Y90.423 E-.0702
G1 X96.909 Y90.946 E-.18725
G1 X96.879 Y90.982 E-.01298
;WIPE_END
G1 Z.5 F720
G1 X99.352 Y87.451 F9000
G1 Z.3 F720
G1 E1.5 F2100
M204 P800
;WIDTH:0.6
G1 F2400
G1 X98.147 Y87.462 E.0805
G1 X97.366 Y87.596 E.05294
G1 X96.995 Y87.812 E.02868
G1 X96.771 Y88.049 E.02179
G1 X96.573 Y87.8 E.02125
G1 X96.219 Y87.586 E.02763
G1 X95.869 Y87.515 E.02386
G1 X95.664 Y87.546 E.01385
G1 X95.241 Y87.681 E.02966
G1 X94.796 Y88.02 E.03737
G1 X94.57 Y88.382 E.02851
G1 X94.502 Y88.237 E.0107
G1 X94.259 Y87.922 E.02658
G1 X93.919 Y87.673 E.02815
G1 X93.594 Y87.559 E.02301
G1 X93.127 Y87.509 E.03138
G1 X92.624 Y87.633 E.03461
G1 X92.281 Y87.854 E.02726
G1 X92.161 Y88.02 E.01368
G1 X91.801 Y87.693 E.03249
G1 X91.525 Y87.588 E.01973
G1 X91.189 Y87.547 E.02261
G1 X90.803 Y87.654 E.02676
G1 X90.384 Y87.833 E.03044
G1 X90.19 Y88.09 E.02151
G1 X90.009 Y87.824 E.02149
G1 X89.549 Y87.585 E.03463
G1 X89.133 Y87.486 E.02857
G1 X88.815 Y87.498 E.02126
G1 X88.313 Y87.693 E.03598
G1 X87.97 Y87.995 E.03053
G1 X87.766 Y88.294 E.02418
G1 X87.643 Y88.712 E.02911
G1 X87.676 Y89.261 E.03674
G1 X87.89 Y89.813 E.03955
G1 X88.432 Y90.779 E.074
G1 X88.251 Y91.149 E.02752
G1 X88.105 Y90.954 E.01627
G1 X87.745 Y90.657 E.03118
G1 X87.427 Y90.515 E.02327
G1 X87.082 Y90.446 E.0235
G1 X86.518 Y90.486 E.03777
G1 X86.583 Y90.215 E.01862
G1 X86.629 Y89.544 E.04493
G1 X86.602 Y89.214 E.02212
G1 X86.505 Y88.631 E.03948
G1 X86.345 Y88.13 E.03513
G1 X86.052 Y87.54 E.04401
G1 X85.659 Y87.022 E.04344
G1 X85.128 Y86.567 E.04672
G1 X84.603 Y86.293 E.03956
G1 X84.04 Y86.129 E.03917
G1 X83.358 Y86.035 E.04599
G1 X81.75 Y85.999 E.10745
G1 X81.243 Y86.053 E.03406
G1 X80.705 Y86.272 E.0388
G1 X80.316 Y86.641 E.03582
G1 X80.161 Y86.95 E.02309
G1 X79.815 Y86.532 E.03625
G1 X79.413 Y86.235 E.03339
G1 X78.735 Y85.953 E.04906
G1 X78.121 Y85.852 E.04157
G1 X77.522 Y85.846 E.04002
G1 X76.918 Y85.935 E.04079
G1 X76.664 Y86.018 E.01785
G1 X76.062 Y86.345 E.04577
G1 X75.774 Y86.655 E.02827
G1 X75.638 Y86.459 E.01594
G1 X75.368 Y86.253 E.02269
G1 X74.966 Y86.094 E.02888
G1 X74.363 Y86.024 E.04055
G1 X73.446 Y86.01 E.06127
G1 X71.514 Y86.021 E.12907
G1 X71.023 Y86.003 E.03282
G1 X70.479 Y86.089 E.03679
G1 X70.229 Y86.184 E.01787
G1 X69.858 Y86.515 E.03322
G1 X69.725 Y86.74 E.01746
G1 X69.525 Y86.502 E.02077
G1 X69.081 Y86.168 E.03712
G1 X68.481 Y85.938 E.04293
G1 X67.98 Y85.855 E.03393
G1 X67.353 Y85.847 E.04189
G1 X66.559 Y85.979 E.05377
G1 X65.939 Y86.229 E.04466
G1 X65.43 Y86.561 E.0406
G1 X65.136 Y86.846 E.02735
G1 X65.139 Y85.48 E.09126
G1 X65.177 Y84.879 E.04023
G1 X65.337 Y84.579 E.02271
G1 X65.532 Y84.431 E.01635
G1 X65.859 Y84.354 E.02244
G1 X89.205 Y82.926 E1.56255
G1 X90.059 Y82.902 E.05707
G1 X90.788 Y82.92 E.04872
G1 X91.609 Y82.988 E.05504
G1 X92.405 Y83.101 E.05371
G1 X93.046 Y83.227 E.04364
G1 X93.67 Y83.38 E.04292
G1 X94.392 Y83.595 E.05033
G1 X95.378 Y83.964 E.07033
G1 X95.966 Y84.221 E.04287
G1 X96.62 Y84.549 E.04888
G1 X97.572 Y85.114 E.07396
G1 X98.11 Y85.475 E.04328
G1 X98.793 Y85.993 E.05727
G1 X99.24 Y86.364 E.03881
G1 X99.821 Y86.904 E.05299
G1 X100.413 Y87.526 E.05737
G1 X100.043 Y87.45 E.02523
G1 X99.412 Y87.451 E.04215
M204 P1000
G1 E-1.05 F2100
;WIPE_START
G1 F7200
G1 X98.147 Y87.462 E-.35052
G1 X97.793 Y87.523 E-.09948
;WIPE_END
G1 Z.5 F720
G1 X102.049 Y90.007 F9000
G1 Z.3 F720
G1 E1.5 F2100
M204 P800
;WIDTH:0.758798
G1 F2400
G1 X102.021 Y90.121 E.01017
G1 X101.759 Y90.56 E.04428
;WIDTH:0.759544
G1 X101.396 Y91.127 E.05837
;WIDTH:0.769115
G1 X101.102 Y91.601 E.04903
G1 X100.807 Y91.367 E.0331
G1 X100.446 Y91.193 E.03522
G1 X100.817 Y90.744 E.0512
;WIDTH:0.759544
G1 X101.223 Y90.146 E.06267
;WIDTH:0.758798
G1 X101.466 Y89.641 E.04854
G1 X101.548 Y89.123 E.04542
G1 X101.981 Y89.811 E.07041
G1 X102.029 Y89.95 E.01274
M204 P1000
G1 E-1.05 F2100
;WIPE_START
G1 F7200
G1 X102.021 Y90.121 E-.04743
G1 X101.759 Y90.56 E-.14166
G1 X101.396 Y91.127 E-.18654
G1 X101.255 Y91.355 E-.07437
;WIPE_END
G1 Z.5 F720
G1 X69.561 Y89.16 F9000
G1 Z.3 F720
G1 E1.5 F2100
M204 P800
;WIDTH:0.6
G1 F2400
G1 X69.733 Y89.044 E.01386
G1 X70.012 Y88.689 E.03016
G1 X70.447 Y88.918 E.03284
G1 X70.819 Y89.006 E.02554
G1 X71.254 Y89.002 E.02906
G1 X71.258 Y90.905 E.12713
;WIDTH:0.648502
G1 X71.234 Y91.067 E.01193
;WIDTH:0.697004
G1 X71.211 Y91.23 E.01299
;WIDTH:0.745507
G1 X71.188 Y91.392 E.0139
;WIDTH:0.79401
G1 X71.165 Y91.554 E.01489
G1 X71.163 Y92.337 E.07126
;WIDTH:0.768895
G1 X71.198 Y92.495 E.01422
;WIDTH:0.726671
G1 X71.233 Y92.653 E.01337
;WIDTH:0.684447
G1 X71.268 Y92.811 E.01252
;WIDTH:0.642223
G1 X71.303 Y92.97 E.01173
;WIDTH:0.6
G1 X71.532 Y93.416 E.03349
G1 X71.898 Y93.715 E.03157
G1 X72.199 Y93.854 E.02215
G1 X72.645 Y93.944 E.0304
G1 X73.106 Y93.896 E.03096
G1 X73.382 Y93.805 E.01941
G1 X73.746 Y93.573 E.02884
G1 X73.939 Y93.359 E.01925
G1 X74.164 Y92.941 E.03171
;WIDTH:0.647525
G1 X74.224 Y92.779 E.01256
;WIDTH:0.69505
G1 X74.284 Y92.617 E.01359
;WIDTH:0.742576
G1 X74.344 Y92.456 E.01453
;WIDTH:0.786716
G1 X74.369 Y91.913 E.04897
G1 X74.345 Y91.813 E.00927
;WIDTH:0.740037
G1 X74.322 Y91.714 E.00857
;WIDTH:0.693358
G1 X74.298 Y91.614 E.00807
;WIDTH:0.646679
G1 X74.274 Y91.515 E.0074
;WIDTH:0.6
G1 X74.264 Y89.031 E.16595
G1 X74.889 Y88.937 E.04222
G1 X75.359 Y88.742 E.03399
G1 X75.628 Y88.491 E.02458
G1 X75.789 Y88.701 E.01768
G1 X76.197 Y88.962 E.03236
G1 X76.044 Y89.207 E.0193
G1 X75.924 Y89.675 E.03228
G1 X75.915 Y90.002 E.02185
G1 X76.036 Y90.41 E.02843
G1 X76.282 Y90.725 E.0267
G1 X75.911 Y90.854 E.02624
G1 X75.534 Y91.174 E.03304
G1 X75.32 Y91.482 E.02506
;WIDTH:0.646679
G1 X75.263 Y91.595 E.00919
;WIDTH:0.693358
G1 X75.206 Y91.707 E.00986
;WIDTH:0.740037
G1 X75.148 Y91.82 E.0107
;WIDTH:0.786716
G1 X75.091 Y91.933 E.0114
G1 X75.082 Y92.322 E.03506
;WIDTH:0.780749
G1 X75.12 Y92.412 E.00873
;WIDTH:0.73953
G1 X75.158 Y92.502 E.00823
;WIDTH:0.698312
G1 X75.292 Y92.79 E.02512
;WIDTH:0.649155
G1 X75.425 Y93.077 E.02307
;WIDTH:0.6
G1 X75.779 Y93.493 E.03649
G1 X76.235 Y93.782 E.03607
G1 X77.015 Y94.031 E.0547
G1 X77.938 Y94.087 E.06177
G1 X78.489 Y94.012 E.03715
G1 X79.311 Y93.707 E.05857
G1 X79.828 Y93.322 E.04306
G1 X80.177 Y92.92 E.03556
G1 X80.381 Y93.352 E.03192
G1 X80.73 Y93.707 E.03326
G1 X81.158 Y93.899 E.03134
G1 X81.578 Y93.95 E.02826
G1 X82.125 Y93.912 E.03663
G1 X82.901 Y93.918 E.05184
G1 X83.574 Y93.874 E.04506
G1 X84.074 Y93.779 E.034
G1 X84.568 Y93.584 E.03548
G1 X85.079 Y93.21 E.0423
G1 X85.12 Y93.335 E.00879
G1 X85.285 Y93.591 E.02035
G1 X85.613 Y93.984 E.0342
G1 X86.059 Y94.242 E.03442
G1 X86.474 Y94.356 E.02875
G1 X86.747 Y94.383 E.01833
G1 X87.233 Y94.298 E.03296
G1 X87.67 Y94.1 E.03205
G1 X87.99 Y93.842 E.02746
G1 X88.182 Y93.579 E.02175
G1 X88.298 Y93.702 E.01129
G1 X88.587 Y93.897 E.02329
G1 X89.008 Y94.021 E.02932
G1 X89.277 Y93.991 E.01808
G1 X89.781 Y93.762 E.03698
G1 X90.098 Y93.457 E.02939
G1 X90.351 Y93.771 E.02694
G1 X90.787 Y94.018 E.03348
G1 X91.318 Y94.111 E.03601
G1 X91.668 Y94.054 E.02369
G1 X91.543 Y94.168 E.0113
G1 X91.357 Y94.494 E.02507
G1 X91.274 Y94.782 E.02002
G1 X91.278 Y95.325 E.03628
G1 X91.44 Y95.783 E.03245
G1 X91.628 Y96.086 E.02382
G1 X91.837 Y96.299 E.01994
G1 X92.169 Y96.504 E.02607
G1 X92.528 Y96.614 E.02508
;WIDTH:0.591048
G1 X92.612 Y96.599 E.00561
;WIDTH:0.546062
G1 X92.695 Y96.584 E.00507
;WIDTH:0.501076
G1 X92.778 Y96.57 E.00458
;WIDTH:0.45609
G1 X92.862 Y96.555 E.00417
;WIDTH:0.411105
G1 X93.47 Y96.448 E.0267
;WIDTH:0.422279
G1 X93.676 Y96.378 E.00971
;WIDTH:0.462001
G1 X93.882 Y96.307 E.01081
;WIDTH:0.501723
G1 X94.087 Y96.237 E.01182
;WIDTH:0.541445
G1 X94.293 Y96.167 E.01295
;WIDTH:0.570722
G1 X94.447 Y96.061 E.01181
;WIDTH:0.6
G1 X94.602 Y95.956 E.01251
G1 X94.771 Y95.768 E.01689
G1 X95.121 Y95.242 E.04221
G1 X95.411 Y94.599 E.04712
G1 X95.789 Y93.627 E.06967
G1 X96.168 Y92.572 E.07489
G1 X96.197 Y92.858 E.0192
G1 X96.282 Y93.166 E.02135
G1 X96.465 Y93.5 E.02544
G1 X96.813 Y93.874 E.03413
G1 X97.27 Y94.074 E.03333
G1 X97.763 Y94.138 E.03321
G1 X98.703 Y94.101 E.06285
G1 X97.826 Y94.726 E.07194
G1 X97.031 Y95.222 E.0626
G1 X96.06 Y95.736 E.0734
G1 X94.632 Y96.342 E.10363
;WIDTH:0.554925
G1 X94.485 Y96.415 E.01004
;WIDTH:0.509851
G1 X94.338 Y96.488 E.00912
;WIDTH:0.464777
G1 X94.192 Y96.561 E.00815
;WIDTH:0.419703
G1 X93.957 Y96.639 E.01097
;WIDTH:0.410531
G1 X93.454 Y96.78 E.02255
;WIDTH:0.411647
G1 X92.9 Y96.9 E.02455
;WIDTH:0.458735
G1 X92.773 Y96.9 E.00625
;WIDTH:0.505823
G1 X92.646 Y96.901 E.00699
;WIDTH:0.552911
G1 X92.519 Y96.901 E.00774
;WIDTH:0.6
G1 X92.392 Y96.901 E.00848
G1 X91.734 Y96.997 E.04442
G1 X90.628 Y97.088 E.07414
G1 X89.99 Y97.099 E.04263
M73 P1 R38
G1 X89.181 Y97.072 E.05408
G1 X65.887 Y95.648 E1.55907
G1 X65.471 Y95.53 E.02889
G1 X65.248 Y95.301 E.02135
G1 X65.143 Y94.925 E.02608
G1 X65.123 Y93.055 E.12493
G1 X65.459 Y93.396 E.03198
G1 X65.885 Y93.674 E.03398
G1 X66.49 Y93.929 E.04386
G1 X67.178 Y94.069 E.0469
G1 X67.887 Y94.079 E.04737
G1 X68.487 Y93.99 E.04052
G1 X68.952 Y93.841 E.03262
G1 X69.346 Y93.634 E.02973
G1 X69.804 Y93.26 E.0395
G1 X70.109 Y92.859 E.03366
;WIDTH:0.642223
G1 X70.198 Y92.706 E.01276
;WIDTH:0.684447
G1 X70.288 Y92.554 E.01366
;WIDTH:0.726671
G1 X70.377 Y92.401 E.01462
;WIDTH:0.768895
G1 X70.467 Y92.249 E.01552
G1 X70.481 Y92.096 E.0135
;WIDTH:0.79401
G1 X70.439 Y91.613 E.04412
G1 X70.332 Y91.467 E.01647
;WIDTH:0.745507
G1 X70.224 Y91.322 E.01536
;WIDTH:0.697004
G1 X70.117 Y91.176 E.01428
;WIDTH:0.648502
G1 X70.009 Y91.03 E.01323
;WIDTH:0.6
G1 X69.734 Y90.8 E.02395
G1 X69.234 Y90.562 E.03699
G1 X68.72 Y90.509 E.03452
G1 X68.274 Y90.595 E.03034
G1 X67.862 Y90.82 E.03136
G1 X67.664 Y91.007 E.01819
G1 X67.422 Y90.998 E.01618
G1 X67.281 Y90.906 E.01125
G1 X67.155 Y90.588 E.02285
G1 X67.101 Y89.929 E.04417
G1 X67.16 Y89.335 E.03988
G1 X67.302 Y88.998 E.02443
G1 X67.472 Y88.923 E.01241
G1 X67.943 Y89.151 E.03496
G1 X68.475 Y89.361 E.03821
G1 X69.055 Y89.367 E.03875
G1 X69.393 Y89.275 E.0234
G1 X69.511 Y89.194 E.00956
M204 P1000
G1 X69.27 Y88.733 F9000
M204 P800
;TYPE:External perimeter
G1 F2400
G1 X69.029 Y88.832 E.01741
G1 X68.557 Y88.824 E.03154
G1 X68.023 Y88.59 E.03895
G1 X67.651 Y88.39 E.02822
G1 X67.289 Y88.408 E.02421
G1 X66.968 Y88.575 E.02417
G1 X66.791 Y88.787 E.01845
G1 X66.752 Y88.894 E.00761
G1 X66.621 Y89.336 E.0308
G1 X66.563 Y89.924 E.03947
G1 X66.626 Y90.69 E.05135
G1 X66.816 Y91.187 E.03555
G1 X67.065 Y91.426 E.02306
G1 X67.398 Y91.536 E.02343
G1 X67.697 Y91.544 E.01998
G1 X67.983 Y91.462 E.01988
G1 X68.16 Y91.265 E.01769
G1 X68.426 Y91.108 E.02063
G1 X68.715 Y91.045 E.01976
G1 X69.133 Y91.095 E.02812
G1 X69.583 Y91.354 E.03469
G1 X69.815 Y91.712 E.0285
G1 X69.861 Y92.119 E.02736
G1 X69.625 Y92.628 E.03748
G1 X69.336 Y92.967 E.02976
G1 X69.085 Y93.166 E.0214
G1 X68.772 Y93.336 E.0238
G1 X68.409 Y93.46 E.02563
G1 X67.809 Y93.549 E.04052
G1 X67.196 Y93.533 E.04097
G1 X66.607 Y93.406 E.04025
G1 X66.106 Y93.186 E.03655
G1 X65.717 Y92.914 E.03171
G1 X65.308 Y92.46 E.04082
;WIDTH:0.62143
G1 X65.055 Y91.939 E.04024
G1 X64.947 Y91.423 E.03663
;WIDTH:0.60487
G1 X64.902 Y91.143 E.01912
;WIDTH:0.575015
G1 X64.857 Y90.864 E.018
;WIDTH:0.545159
G1 X64.81 Y90.191 E.04045
;WIDTH:0.520684
G1 X64.822 Y89.456 E.04184
;WIDTH:0.555579
G1 X64.871 Y88.952 E.03102
;WIDTH:0.587494
G1 X64.963 Y88.473 E.03182
;WIDTH:0.61941
G1 X65.055 Y87.993 E.03383
G1 X65.3 Y87.487 E.03892
;WIDTH:0.6
G1 X65.669 Y87.056 E.0379
G1 X66.232 Y86.678 E.0453
G1 X66.745 Y86.481 E.03671
G1 X67.429 Y86.378 E.04621
G1 X67.963 Y86.391 E.03568
G1 X68.43 Y86.478 E.03173
G1 X68.806 Y86.628 E.02704
G1 X69.123 Y86.855 E.02605
G1 X69.442 Y87.255 E.03418
G1 X69.607 Y87.699 E.03164
;WIDTH:0.591242
G1 X69.633 Y87.971 E.01796
;WIDTH:0.6
G1 X69.528 Y88.46 E.03341
G1 X69.311 Y88.69 E.02112
M204 P1000
G1 X69.299 Y88.992 F9000
G1 E-1.05 F2100
;WIPE_START
G1 F7200
G1 X69.029 Y88.832 E-.08748
G1 X68.557 Y88.824 E-.1308
G1 X68.023 Y88.59 E-.16155
G1 X67.8 Y88.47 E-.07017
;WIPE_END
G1 Z.5 F720
G1 X70.233 Y86.897 F9000
G1 Z.3 F720
G1 E1.5 F2100
M204 P800
G1 F2400
G1 X70.5 Y86.646 E.02448
G1 X71.003 Y86.538 E.03437
G1 X71.517 Y86.557 E.03436
G1 X73.449 Y86.546 E.12907
G1 X74.355 Y86.56 E.06053
G1 X74.9 Y86.626 E.03667
G1 X75.195 Y86.773 E.02202
G1 X75.356 Y86.996 E.01837
G1 X75.438 Y87.453 E.03102
;WIDTH:0.577807
G1 X75.414 Y87.733 E.018
;WIDTH:0.6
G1 X75.251 Y88.11 E.02744
G1 X75.04 Y88.307 E.01928
G1 X74.784 Y88.412 E.01848
G1 X74.346 Y88.495 E.02978
G1 X73.726 Y88.498 E.04142
G1 X73.742 Y92.363 E.2582
G1 X73.673 Y92.727 E.02475
G1 X73.511 Y93.034 E.02319
G1 X73.314 Y93.232 E.01866
G1 X73.033 Y93.366 E.0208
G1 X72.635 Y93.403 E.0267
G1 X72.217 Y93.285 E.02902
G1 X71.928 Y93.052 E.0248
G1 X71.772 Y92.639 E.02949
G1 X71.799 Y91.926 E.04767
G1 X71.783 Y89.148 E.18559
G1 X71.816 Y88.606 E.03628
G1 X71.801 Y88.511 E.00643
G1 X71.597 Y88.464 E.01399
G1 X70.815 Y88.47 E.05224
G1 X70.539 Y88.358 E.0199
G1 X70.332 Y88.219 E.01666
