; G-Code generated by Simplify3D(R) Version 4.1.2
; Sep 29, 2023 at 2:47:58 PM
; Settings Summary
;   processName,Process1
;   applyToModels,FlowerPot
;   profileName,Janus (modified)
;   profileVersion,2023-07-20 08:52:57
;   baseProfile,Titan Atlas
;   printMaterial,PLA
;   printQuality,2.0mm Nozzle
;   printExtruders,E1 Pellet Only
;   extruderName,Pellet E0
;   extruderToolheadNumber,0
;   extruderDiameter,2
;   extruderAutoWidth,1
;   extruderWidth,2.4
;   extrusionMultiplier,1
;   extruderUseRetract,1
;   extruderRetractionDistance,5
;   extruderExtraRestartDistance,0.1
;   extruderRetractionZLift,1
;   extruderRetractionSpeed,6000
;   extruderUseCoasting,0
;   extruderCoastingDistance,0.2
;   extruderUseWipe,0
;   extruderWipeDistance,5
;   primaryExtruder,0
;   layerHeight,1
;   topSolidLayers,0
;   bottomSolidLayers,2
;   perimeterOutlines,1
;   printPerimetersInsideOut,0
;   startPointOption,2
;   startPointOriginX,0
;   startPointOriginY,0
;   sequentialIslands,0
;   spiralVaseMode,1
;   firstLayerHeightPercentage,100
;   firstLayerWidthPercentage,100
;   firstLayerUnderspeed,0.5
;   useRaft,0
;   raftExtruder,0
;   raftTopLayers,2
;   raftBaseLayers,2
;   raftOffset,2
;   raftSeparationDistance,0.15
;   raftTopInfill,100
;   aboveRaftSpeedMultiplier,0.6
;   useSkirt,1
;   skirtExtruder,0
;   skirtLayers,1
;   skirtOutlines,1
;   skirtOffset,5
;   usePrimePillar,0
;   primePillarExtruder,0
;   primePillarWidth,12
;   primePillarLocation,7
;   primePillarSpeedMultiplier,1
;   useOozeShield,0
;   oozeShieldExtruder,0
;   oozeShieldOffset,2
;   oozeShieldOutlines,1
;   oozeShieldSidewallShape,1
;   oozeShieldSidewallAngle,30
;   oozeShieldSpeedMultiplier,1
;   infillExtruder,0
;   internalInfillPattern,Rectilinear
;   externalInfillPattern,Rectilinear
;   infillPercentage,0
;   outlineOverlapPercentage,45
;   infillExtrusionWidthPercentage,100
;   minInfillLength,10
;   infillLayerInterval,1
;   internalInfillAngles,45,-45
;   overlapInternalInfillAngles,0
;   externalInfillAngles,45,-45
;   generateSupport,0
;   supportExtruder,0
;   supportInfillPercentage,15
;   supportExtraInflation,1
;   supportBaseLayers,0
;   denseSupportExtruder,0
;   denseSupportLayers,0
;   denseSupportInfillPercentage,100
;   supportLayerInterval,1
;   supportHorizontalPartOffset,0.5
;   supportUpperSeparationLayers,1
;   supportLowerSeparationLayers,1
;   supportType,0
;   supportGridSpacing,3
;   maxOverhangAngle,45
;   supportAngles,0
;   temperatureName,Pellet,Bed
;   temperatureNumber,0,0
;   temperatureSetpointCount,1,1
;   temperatureSetpointLayers,1,1
;   temperatureSetpointTemperatures,190,85
;   temperatureStabilizeAtStartup,0,0
;   temperatureHeatedBed,0,1
;   fanLayers,1
;   fanSpeeds,0
;   blipFanToFullPower,0
;   adjustSpeedForCooling,1
;   minSpeedLayerTime,25
;   minCoolingSpeedSlowdown,20
;   increaseFanForCooling,0
;   minFanLayerTime,45
;   maxCoolingFanSpeed,100
;   increaseFanForBridging,0
;   bridgingFanSpeed,100
;   use5D,1
;   relativeEdistances,0
;   allowEaxisZeroing,0
;   independentExtruderAxes,0
;   includeM10123,0
;   stickySupport,1
;   applyToolheadOffsets,1
;   gcodeXoffset,0
;   gcodeYoffset,0
;   gcodeZoffset,0
;   overrideMachineDefinition,1
;   machineTypeOverride,0
;   strokeXoverride,750
;   strokeYoverride,530
;   strokeZoverride,610
;   originOffsetXoverride,0
;   originOffsetYoverride,0
;   originOffsetZoverride,0
;   homeXdirOverride,-1
;   homeYdirOverride,-1
;   homeZdirOverride,-1
;   flipXoverride,1
;   flipYoverride,-1
;   flipZoverride,1
;   toolheadOffsets,0,0|0,0|0,0|0,0|0,0|0,0
;   overrideFirmwareConfiguration,0
;   firmwareTypeOverride,RepRap (Marlin/Repetier/Sprinter)
;   GPXconfigOverride,r2
;   baudRateOverride,250000
;   overridePrinterModels,1
;   printerModelsOverride
;   startingGcode,
;   layerChangeGcode,
;   retractionGcode,
;   toolChangeGcode,
;   endingGcode,
;   exportFileFormat,gcode
;   celebration,0
;   celebrationSong,Funky Town
;   postProcessing,
;   defaultSpeed,5000
;   outlineUnderspeed,1
;   solidInfillUnderspeed,1
;   supportUnderspeed,1
;   rapidXYspeed,10000
;   rapidZspeed,1200
;   minBridgingArea,99999
;   bridgingExtraInflation,0
;   bridgingExtrusionMultiplier,1
;   bridgingSpeedMultiplier,1
;   useFixedBridgingAngle,0
;   fixedBridgingAngle,0
;   applyBridgingToPerimeters,0
;   filamentDiameters,2.85|2.85|1.75|1.75|1.75|1.75
;   filamentPricesPerKg,46|46|46|46|46|46
;   filamentDensities,1.25|1.25|1.25|1.25|1.25|1.25
;   useMinPrintHeight,0
;   minPrintHeight,60
;   useMaxPrintHeight,0
;   maxPrintHeight,90
;   useDiaphragm,0
;   diaphragmLayerInterval,1
;   robustSlicing,1
;   mergeAllIntoSolid,1
;   onlyRetractWhenCrossingOutline,0
;   retractBetweenLayers,0
;   useRetractionMinTravel,1
;   retractionMinTravel,20
;   retractWhileWiping,0
;   onlyWipeOutlines,0
;   avoidCrossingOutline,0
;   maxMovementDetourFactor,3
;   toolChangeRetractionDistance,15
;   toolChangeExtraRestartDistance,0
;   toolChangeRetractionSpeed,4000
;   externalThinWallType,0
;   internalThinWallType,1
;   thinWallAllowedOverlapPercentage,10
;   singleExtrusionMinLength,10
;   singleExtrusionMinPrintingWidthPercentage,50
;   singleExtrusionMaxPrintingWidthPercentage,200
;   singleExtrusionEndpointExtension,0
;   horizontalSizeCompensation,0
G90
M82
M106 S0
M140 S85
M104 S190 T0
; process Process1
; layer 1, Z = 1.000
T0
G1 E-5.0000 F6000
; feature skirt
; tool H1.000 W2.400
G1 Z1.000 F1200
G1 X300.414 Y210.153 F10000
G1 E0.1000 F6000
G1 X300.518 Y210.011 E0.1662 F2500
G1 X303.602 Y206.062 E2.0513
G1 X303.716 Y205.924 E2.1186
G1 X307.216 Y201.937 E4.1146
G1 X307.340 Y201.805 E4.1828
G1 X310.965 Y198.133 E6.1239
G1 X311.094 Y198.010 E6.1911
G1 X314.924 Y194.554 E8.1316
G1 X315.060 Y194.438 E8.1989
G1 X319.082 Y191.209 E10.1394
G1 X319.224 Y191.101 E10.2067
G1 X323.426 Y188.109 E12.1472
G1 X323.575 Y188.010 E12.2144
G1 X327.940 Y185.265 E14.1545
G1 X328.092 Y185.176 E14.2207
G1 X332.478 Y182.755 E16.1054
G1 X332.634 Y182.674 E16.1716
G1 X337.283 Y180.442 E18.1117
G1 X337.446 Y180.370 E18.1789
G1 X342.219 Y178.409 E20.1199
G1 X342.388 Y178.345 E20.1882
G1 X347.406 Y176.618 E22.1847
G1 X347.579 Y176.564 E22.2529
G1 X352.548 Y175.173 E24.1939
G1 X352.721 Y175.129 E24.2611
G1 X357.760 Y174.027 E26.2017
G1 X357.936 Y173.994 E26.2689
G1 X363.029 Y173.185 E28.2090
G1 X363.203 Y173.162 E28.2752
G1 X368.187 Y172.657 E30.1599
G1 X368.363 Y172.645 E30.2261
G1 X373.515 Y172.417 E32.1662
G1 X373.693 Y172.415 E32.2334
G1 X378.852 Y172.485 E34.1744
G1 X379.034 Y172.492 E34.2427
G1 X384.325 Y172.874 E36.2387
G1 X384.503 Y172.892 E36.3059
G1 X389.472 Y173.540 E38.1910
G1 X389.646 Y173.568 E38.2572
G1 X394.713 Y174.524 E40.1973
G1 X394.888 Y174.562 E40.2645
G1 X399.893 Y175.809 E42.2051
G1 X400.065 Y175.857 E42.2723
G1 X404.991 Y177.391 E44.2134
G1 X405.163 Y177.450 E44.2816
G1 X410.128 Y179.320 E46.2776
G1 X410.293 Y179.388 E46.3448
G1 X414.873 Y181.422 E48.2299
G1 X415.031 Y181.498 E48.2962
G1 X419.619 Y183.856 E50.2367
G1 X419.778 Y183.943 E50.3049
G1 X424.348 Y186.641 E52.3014
G1 X424.502 Y186.737 E52.3697
G1 X428.784 Y189.615 E54.3107
G1 X428.929 Y189.719 E54.3779
G1 X433.037 Y192.837 E56.3180
G1 X433.174 Y192.947 E56.3842
G1 X436.985 Y196.198 E58.2689
G1 X437.116 Y196.316 E58.3351
G1 X440.844 Y199.881 E60.2757
G1 X440.972 Y200.010 E60.3439
G1 X444.587 Y203.895 E62.3404
G1 X444.706 Y204.031 E62.4086
G1 X447.994 Y208.008 E64.3496
G1 X448.104 Y208.149 E64.4169
G1 X451.155 Y212.306 E66.3569
G1 X451.255 Y212.450 E66.4232
G1 X453.986 Y216.650 E68.3078
G1 X454.078 Y216.801 E68.3740
G1 X456.638 Y221.277 E70.3141
G1 X456.723 Y221.434 E70.3813
G1 X459.022 Y226.052 E72.3219
G1 X459.097 Y226.214 E72.3891
G1 X461.127 Y230.957 E74.3302
G1 X461.193 Y231.126 E74.3984
G1 X462.992 Y236.117 E76.3944
G1 X463.047 Y236.287 E76.4616
G1 X464.472 Y241.091 E78.3467
G1 X464.517 Y241.262 E78.4130
G1 X465.700 Y246.282 E80.3535
G1 X465.736 Y246.460 E80.4217
G1 X466.650 Y251.688 E82.4182
G1 X466.675 Y251.867 E82.4864
G1 X467.265 Y256.993 E84.4275
G1 X467.280 Y257.171 E84.4947
G1 X467.573 Y262.319 E86.4348
G1 X467.578 Y262.495 E86.5010
G1 X467.578 Y267.505 E88.3856
G1 X467.573 Y267.681 E88.4519
G1 X467.280 Y272.831 E90.3924
G1 X467.264 Y273.011 E90.4606
G1 X466.654 Y278.283 E92.4571
G1 X466.628 Y278.462 E92.5254
G1 X465.736 Y283.544 E94.4664
G1 X465.700 Y283.719 E94.5337
G1 X464.517 Y288.740 E96.4742
G1 X464.471 Y288.912 E96.5414
G1 X463.000 Y293.857 E98.4820
G1 X462.944 Y294.026 E98.5492
G1 X461.192 Y298.878 E100.4898
G1 X461.126 Y299.044 E100.5570
G1 X459.097 Y303.785 E102.4971
G1 X459.023 Y303.945 E102.5633
G1 X456.794 Y308.432 E104.4484
G1 X456.710 Y308.590 E104.5157
G1 X454.079 Y313.197 E106.5117
G1 X453.984 Y313.352 E106.5799
G1 X451.169 Y317.675 E108.5209
G1 X451.067 Y317.822 E108.5881
G1 X448.007 Y321.975 E110.5287
G1 X447.897 Y322.116 E110.5959
G1 X444.605 Y326.084 E112.5360
G1 X444.488 Y326.217 E112.6022
G1 X441.076 Y329.884 E114.4868
G1 X440.953 Y330.010 E114.5531
G1 X437.231 Y333.580 E116.4931
G1 X437.099 Y333.700 E116.5604
G1 X433.176 Y337.051 E118.5014
G1 X433.035 Y337.165 E118.5697
G1 X428.806 Y340.369 E120.5657
G1 X428.661 Y340.473 E120.6329
G1 X424.499 Y343.264 E122.5180
G1 X424.350 Y343.358 E122.5842
G1 X419.912 Y345.983 E124.5243
G1 X419.755 Y346.070 E124.5915
G1 X415.171 Y348.435 E126.5321
G1 X415.010 Y348.512 E126.5993
G1 X410.297 Y350.610 E128.5404
G1 X410.129 Y350.679 E128.6086
G1 X405.163 Y352.550 E130.6051
G1 X404.991 Y352.609 E130.6733
G1 X400.065 Y354.142 E132.6144
G1 X399.893 Y354.191 E132.6816
G1 X394.889 Y355.437 E134.6216
G1 X394.717 Y355.475 E134.6879
G1 X389.795 Y356.408 E136.5725
G1 X389.621 Y356.436 E136.6387
G1 X384.507 Y357.107 E138.5793
G1 X384.327 Y357.126 E138.6475
G1 X379.034 Y357.508 E140.6440
G1 X378.852 Y357.515 E140.7122
G1 X373.693 Y357.585 E142.6533
G1 X373.515 Y357.583 E142.7205
G1 X368.363 Y357.355 E144.6606
G1 X368.187 Y357.343 E144.7268
G1 X363.203 Y356.838 E146.6114
G1 X363.029 Y356.815 E146.6777
G1 X357.936 Y356.006 E148.6177
G1 X357.760 Y355.973 E148.6850
G1 X352.721 Y354.870 E150.6255
G1 X352.548 Y354.827 E150.6927
G1 X347.579 Y353.436 E152.6338
G1 X347.406 Y353.382 E152.7020
G1 X342.388 Y351.655 E154.6985
G1 X342.219 Y351.591 E154.7667
G1 X337.446 Y349.630 E156.7078
G1 X337.283 Y349.558 E156.7750
G1 X332.633 Y347.325 E158.7155
G1 X332.474 Y347.243 E158.7828
G1 X327.962 Y344.747 E160.7229
G1 X327.810 Y344.658 E160.7891
G1 X323.571 Y341.988 E162.6737
G1 X323.425 Y341.890 E162.7400
G1 X319.224 Y338.899 E164.6800
G1 X319.082 Y338.791 E164.7472
G1 X315.060 Y335.562 E166.6878
G1 X314.924 Y335.446 E166.7550
G1 X311.094 Y331.990 E168.6956
G1 X310.965 Y331.867 E168.7628
G1 X307.340 Y328.195 E170.7039
G1 X307.216 Y328.063 E170.7721
G1 X303.716 Y324.076 E172.7681
G1 X303.602 Y323.938 E172.8353
G1 X300.518 Y319.989 E174.7204
G1 X300.414 Y319.847 E174.7867
G1 X297.475 Y315.607 E176.7272
G1 X297.376 Y315.455 E176.7954
G1 X294.613 Y310.925 E178.7919
G1 X294.523 Y310.767 E178.8602
G1 X292.099 Y306.213 E180.8012
G1 X292.020 Y306.053 E180.8684
G1 X289.863 Y301.368 E182.8085
G1 X289.794 Y301.206 E182.8747
G1 X287.961 Y296.544 E184.7594
G1 X287.901 Y296.379 E184.8256
G1 X286.289 Y291.479 E186.7661
G1 X286.237 Y291.305 E186.8344
G1 X284.876 Y286.176 E188.8309
G1 X284.835 Y285.999 E188.8991
G1 X283.805 Y280.944 E190.8401
G1 X283.774 Y280.768 E190.9074
G1 X283.038 Y275.664 E192.8474
G1 X283.018 Y275.489 E192.9137
G1 X282.585 Y270.498 E194.7983
G1 X282.575 Y270.322 E194.8645
G1 X282.422 Y265.166 E196.8051
G1 X282.422 Y264.985 E196.8733
G1 X282.575 Y259.680 E198.8698
G1 X282.585 Y259.499 E198.9380
G1 X283.035 Y254.360 E200.8791
G1 X283.056 Y254.182 E200.9463
G1 X283.801 Y249.078 E202.8868
G1 X283.832 Y248.902 E202.9541
G1 X284.870 Y243.851 E204.8941
G1 X284.910 Y243.679 E204.9604
G1 X286.195 Y238.837 E206.8450
G1 X286.245 Y238.669 E206.9112
G1 X287.848 Y233.767 E208.8513
G1 X287.909 Y233.599 E208.9185
G1 X289.793 Y228.796 E210.8596
G1 X289.864 Y228.629 E210.9278
G1 X292.087 Y223.812 E212.9238
G1 X292.167 Y223.652 E212.9910
G1 X294.525 Y219.229 E214.8766
G1 X294.614 Y219.074 E214.9438
G1 X297.376 Y214.545 E216.9399
G1 X297.475 Y214.393 E217.0081
G1 X300.414 Y210.153 E218.9486
; feature outer perimeter
G1 X306.426 Y214.469 F10000
G1 X309.358 Y210.714 E220.7412 F2500
G1 X312.694 Y206.914 E222.6432
G1 X316.144 Y203.421 E224.4903
G1 X319.789 Y200.131 E226.3376
G1 X323.618 Y197.057 E228.1850
G1 X327.618 Y194.209 E230.0322
G1 X331.775 Y191.595 E231.8797
G1 X335.947 Y189.293 E233.6724
G1 X340.374 Y187.167 E235.5199
G1 X344.915 Y185.301 E237.3670
G1 X349.695 Y183.656 E239.2688
G1 X354.423 Y182.332 E241.1159
G1 X359.220 Y181.283 E242.9633
G1 X364.070 Y180.512 E244.8107
G1 X368.811 Y180.032 E246.6035
G1 X373.717 Y179.816 E248.4509
G1 X378.626 Y179.882 E250.2980
G1 X383.669 Y180.246 E252.2001
G1 X388.394 Y180.862 E253.9926
G1 X393.219 Y181.773 E255.8401
G1 X397.984 Y182.960 E257.6873
G1 X402.672 Y184.419 E259.5345
G1 X407.403 Y186.202 E261.4365
G1 X411.758 Y188.135 E263.2290
G1 X416.125 Y190.380 E265.0763
G1 X420.478 Y192.949 E266.9782
G1 X424.554 Y195.688 E268.8253
G1 X428.465 Y198.657 E270.6728
G1 X432.091 Y201.749 E272.4655
G1 X435.640 Y205.143 E274.3128
G1 X439.083 Y208.843 E276.2146
G1 X442.212 Y212.628 E278.0618
G1 X445.118 Y216.586 E279.9093
G1 X447.715 Y220.581 E281.7019
G1 X450.154 Y224.844 E283.5495
G1 X452.342 Y229.239 E285.3967
G1 X454.274 Y233.753 E287.2438
G1 X455.988 Y238.510 E289.1459
G1 X457.342 Y243.078 E290.9384
G1 X458.468 Y247.857 E292.7857
G1 X459.338 Y252.837 E294.6876
G1 X459.899 Y257.715 E296.5347
G1 X460.178 Y262.617 E298.3821
G1 X460.178 Y267.383 E300.1749
G1 X459.899 Y272.285 E302.0222
G1 X459.317 Y277.307 E303.9240
G1 X458.468 Y282.143 E305.7711
G1 X457.342 Y286.922 E307.6184
G1 X455.943 Y291.628 E309.4657
G1 X454.274 Y296.246 E311.3130
G1 X452.342 Y300.761 E313.1605
G1 X450.222 Y305.028 E314.9530
G1 X447.715 Y309.419 E316.8550
G1 X445.035 Y313.533 E318.7022
G1 X442.123 Y317.486 E320.5495
G1 X438.988 Y321.265 E322.3969
G1 X435.742 Y324.754 E324.1896
G1 X432.198 Y328.154 E326.0371
G1 X428.465 Y331.343 E327.8842
G1 X424.435 Y334.396 E329.7863
G1 X420.478 Y337.051 E331.5788
G1 X416.252 Y339.550 E333.4263
G1 X411.888 Y341.802 E335.2736
G1 X407.403 Y343.799 E337.1207
G1 X402.672 Y345.581 E339.0226
G1 X397.984 Y347.040 E340.8696
G1 X393.219 Y348.227 E342.7172
G1 X388.537 Y349.115 E344.5098
G1 X383.669 Y349.754 E346.3571
G1 X378.626 Y350.118 E348.2590
G1 X373.717 Y350.184 E350.1061
G1 X368.811 Y349.968 E351.9535
G1 X364.070 Y349.488 E353.7463
G1 X359.220 Y348.717 E355.5937
G1 X354.423 Y347.668 E357.4411
G1 X349.695 Y346.344 E359.2881
G1 X344.915 Y344.699 E361.1900
G1 X340.374 Y342.833 E363.0371
G1 X335.947 Y340.708 E364.8844
G1 X331.650 Y338.331 E366.7319
G1 X327.618 Y335.791 E368.5247
G1 X323.618 Y332.943 E370.3721
G1 X319.789 Y329.869 E372.2194
G1 X316.143 Y326.579 E374.0667
G1 X312.694 Y323.086 E375.9138
G1 X309.358 Y319.286 E377.8158
G1 X306.426 Y315.531 E379.6083
G1 X303.629 Y311.495 E381.4557
G1 X300.997 Y307.179 E383.3575
G1 X298.690 Y302.845 E385.2046
G1 X296.636 Y298.385 E387.0521
G1 X294.892 Y293.950 E388.8448
G1 X293.357 Y289.286 E390.6921
G1 X292.061 Y284.399 E392.5940
G1 X291.081 Y279.589 E394.4410
G1 X290.380 Y274.728 E396.2886
G1 X289.968 Y269.981 E398.0813
G1 X289.822 Y265.073 E399.9286
G1 X289.968 Y260.019 E401.8304
G1 X290.396 Y255.128 E403.6776
G1 X291.106 Y250.270 E405.5248
G1 X292.094 Y245.459 E407.3723
G1 X293.316 Y240.853 E409.1650
G1 X294.843 Y236.186 E411.0125
G1 X296.636 Y231.616 E412.8596
