; Original model: https://www.thingiverse.com/thing:1013494
; Plant Sign, by SpoonUnit
; License: CC BY-NC-SA 3.0

; generated by PrusaSlicer 2.7.4+MacOS-x64 on 2024-05-26 at 02:00:16 UTC


;
;

;
;
;

; external perimeters extrusion width = 0.42mm
; perimeters extrusion width = 0.44mm
; infill extrusion width = 0.44mm
; solid infill extrusion width = 0.44mm
; top infill extrusion width = 0.40mm
; first layer extrusion width = 0.42mm

M201 X500 Y500 Z100 E5000 ; sets maximum accelerations, mm/sec^2
M203 X500 Y500 Z10 E60 ; sets maximum feedrates, mm / sec
M204 P500 R1000 T500 ; sets acceleration (P, T) and retract acceleration (R), mm/sec^2
M205 X8.00 Y8.00 Z0.40 E5.00 ; sets the jerk limits, mm/sec
M205 S0 T0 ; sets the minimum extruding and travel feed rate, mm/sec

; printing object CorianderIndentExample.stl id:0 copy 0
; stop printing object CorianderIndentExample.stl id:0 copy 0

;TYPE:Custom
G90 ; use absolute coordinates
M83 ; extruder relative mode
M104 S150 ; set temporary nozzle temp to prevent oozing during homing
M140 S60 ; set final bed temp
G4 S30 ; allow partial nozzle warmup
G28 ; home all axis
G1 Z50 F240
G1 X2.0 Y10 F3000
M104 S210 ; set final nozzle temp
M190 S60 ; wait for bed temp to stabilize
M109 S210 ; wait for nozzle temp to stabilize
G1 Z0.28 F240
G92 E0
G1 X2.0 Y140 E10 F1500 ; prime the nozzle
G1 X2.3 Y140 F5000
G92 E0
G1 X2.3 Y10 E10 F1200 ; prime the nozzle
G92 E0
G21 ; set units to millimeters
G90 ; use absolute coordinates
M83 ; use relative distances for extrusion
; Filament gcode
M107
;LAYER_CHANGE
;Z:0.3
;HEIGHT:0.3
G1 E-5 F3600
G1 Z.6 F9000
G1 X102.007 Y64.517
G1 Z.3
G1 E5 F2400
M204 P500
;TYPE:Skirt/Brim
;WIDTH:0.42
G1 F1200
G1 X102.627 Y63.663 E.04681
G1 X107.627 Y58.663 E.31364
G1 X109.021 Y57.826 E.07212
G1 X110.646 Y57.743 E.07217
G1 X112.373 Y58.663 E.08679
G1 X117.373 Y63.663 E.31364
G1 X117.993 Y64.517 E.04681
G1 X154.993 Y137.446 E3.62725
G1 X155.356 Y138.964 E.06923
G1 X155.356 Y158.964 E.8871
G1 X154.962 Y160.542 E.07214
G1 X153.872 Y161.749 E.07214
G1 X152 Y162.32 E.08681
G1 X68 Y162.32 E3.7258
G1 X66.422 Y161.926 E.07214
G1 X65.215 Y160.836 E.07214
G1 X64.644 Y158.964 E.08681
G1 X64.644 Y138.964 E.8871
G1 X65.007 Y137.446 E.06923
G1 X101.98 Y64.571 E3.62457
G1 E-3.5 F3600
;WIPE_START
G1 F7200
G1 X102.007 Y64.517 E-.02868
G1 X102.627 Y63.663 E-.50128
G1 X104.071 Y62.219 E-.97004
;WIPE_END
G1 Z.6 F9000
; printing object CorianderIndentExample.stl id:0 copy 0
G1 X105.666 Y66.311
G1 Z.3
G1 E5 F2400
;TYPE:Perimeter
;WIDTH:0.42
G1 F1200
G1 X110 Y61.977 E.27186
G1 X114.334 Y66.311 E.27186
G1 X114.334 Y139.097 E3.22841
G2 X114.603 Y139.559 I.61 J-.045 E.02454
G1 X114.868 Y139.63 E.01217
G1 X151.334 Y139.63 E1.61744
G1 X151.334 Y148.964 E.41401
G1 X151.334 Y158.299 E.41405
G1 X68.666 Y158.299 E3.66672
G1 X68.666 Y139.63 E.82806
G1 X105.132 Y139.63 E1.61744
G2 X105.666 Y139.097 I-.028 J-.562 E.03668
G1 X105.666 Y66.371 E3.22574
G1 X105.666 Y66.371 F9000
G1 X105.31 Y66.164
;TYPE:External perimeter
G1 F1200
G1 X110 Y61.474 E.29419
G1 X114.69 Y66.164 E.29419
G1 X114.69 Y139.097 E3.23493
G2 X114.868 Y139.274 I.208 J-.03 E.01194
G1 X151.69 Y139.274 E1.63323
G1 X151.69 Y148.964 E.4298
G1 X151.69 Y158.654 E.4298
G1 X68.31 Y158.654 E3.6983
G1 X68.31 Y139.274 E.8596
G1 X105.132 Y139.274 E1.63323
G2 X105.31 Y139.097 I-.03 J-.207 E.01193
G1 X105.31 Y66.224 E3.23226
G1 E-3.5 F3600
;WIPE_START
G1 F7200
G1 X105.31 Y66.164 E-.0285
G1 X107.501 Y63.973 E-1.4715
;WIPE_END
G1 Z.6 F9000
G1 X109.887 Y62.251
G1 Z.3
G1 E5 F2400
;TYPE:Solid infill
;WIDTH:0.42008
G1 F1200
G1 X114.061 Y66.425 E.26188
G1 X114.061 Y66.928 E.02232
G1 X109.748 Y62.616 E.27057
G1 X109.497 Y62.867 E.01575
G1 X114.061 Y67.431 E.28635
G1 X114.061 Y67.934 E.02232
G1 X109.245 Y63.119 E.30213
G1 X108.994 Y63.37 E.01575
G1 X114.061 Y68.437 E.31791
G1 X114.061 Y68.94 E.02232
G1 X108.742 Y63.622 E.33369
G1 X108.491 Y63.873 E.01575
G1 X114.061 Y69.443 E.34947
G1 X114.061 Y69.946 E.02232
G1 X108.239 Y64.125 E.36525
G1 X107.988 Y64.376 E.01575
G1 X114.061 Y70.449 E.38103
G1 X114.061 Y70.952 E.02232
G1 X107.736 Y64.628 E.39681
G1 X107.485 Y64.879 E.01575
G1 X114.061 Y71.455 E.41259
G1 X114.061 Y71.958 E.02232
G1 X107.233 Y65.131 E.42837
G1 X106.982 Y65.382 E.01575
G1 X114.061 Y72.461 E.44415
G1 X114.061 Y72.964 E.02232
G1 X106.73 Y65.634 E.45992
G1 X106.479 Y65.885 E.01575
G1 X114.061 Y73.467 E.4757
G1 X114.061 Y73.97 E.02232
G1 X106.227 Y66.137 E.49148
G1 X105.976 Y66.388 E.01575
G1 X114.061 Y74.473 E.50726
G1 X114.061 Y74.976 E.02232
G1 X105.939 Y66.855 E.50955
G1 X105.939 Y67.358 E.02232
G1 X114.061 Y75.479 E.50955
G1 X114.061 Y75.982 E.02232
G1 X105.939 Y67.861 E.50955
G1 X105.939 Y68.364 E.02232
G1 X114.061 Y76.485 E.50955
G1 X114.061 Y76.989 E.02236
G1 X105.939 Y68.867 E.50958
G1 X105.939 Y69.37 E.02232
G1 X114.061 Y77.492 E.50958
G1 X114.061 Y77.995 E.02232
G1 X105.939 Y69.873 E.50958
G1 X105.939 Y70.377 E.02236
G1 X114.061 Y78.498 E.50955
G1 X114.061 Y79.001 E.02232
G1 X105.939 Y70.88 E.50955
G1 X105.939 Y71.383 E.02232
G1 X114.061 Y79.504 E.50955
G1 X114.061 Y80.007 E.02232
G1 X105.939 Y71.886 E.50955
G1 X105.939 Y72.389 E.02232
G1 X114.061 Y80.51 E.50955
G1 X114.061 Y81.013 E.02232
G1 X105.939 Y72.892 E.50955
G1 X105.939 Y73.395 E.02232
G1 X114.061 Y81.516 E.50955
G1 X114.061 Y82.019 E.02232
G1 X105.939 Y73.898 E.50955
G1 X105.939 Y74.401 E.02232
G1 X114.061 Y82.522 E.50955
G1 X114.061 Y83.025 E.02232
G1 X105.939 Y74.904 E.50955
G1 X105.939 Y75.407 E.02232
G1 X114.061 Y83.528 E.50955
G1 X114.061 Y84.031 E.02232
G1 X105.939 Y75.91 E.50955
G1 X105.939 Y76.413 E.02232
G1 X114.061 Y84.534 E.50955
G1 X114.061 Y85.037 E.02232
G1 X105.939 Y76.916 E.50955
G1 X105.939 Y77.419 E.02232
G1 X114.061 Y85.54 E.50955
G1 X114.061 Y86.043 E.02232
G1 X105.939 Y77.922 E.50955
G1 X105.939 Y78.425 E.02232
G1 X114.061 Y86.546 E.50955
G1 X114.061 Y87.049 E.02232
G1 X105.939 Y78.928 E.50955
G1 X105.939 Y79.431 E.02232
G1 X114.061 Y87.552 E.50955
G1 X114.061 Y88.055 E.02232
G1 X105.939 Y79.934 E.50955
G1 X105.939 Y80.437 E.02232
G1 X114.061 Y88.558 E.50955
G1 X114.061 Y89.061 E.02232
G1 X105.939 Y80.94 E.50955
G1 X105.939 Y81.443 E.02232
G1 X114.061 Y89.564 E.50955
G1 X114.061 Y90.067 E.02232
G1 X105.939 Y81.946 E.50955
G1 X105.939 Y82.449 E.02232
G1 X114.061 Y90.57 E.50955
G1 X114.061 Y91.073 E.02232
G1 X105.939 Y82.952 E.50955
G1 X105.939 Y83.455 E.02232
G1 X114.061 Y91.577 E.50958
G1 X114.061 Y92.08 E.02232
G1 X105.939 Y83.958 E.50958
G1 X105.939 Y84.461 E.02232
G1 X114.061 Y92.583 E.50958
G1 X114.061 Y93.086 E.02232
G1 X105.939 Y84.965 E.50955
G1 X105.939 Y85.468 E.02232
G1 X114.061 Y93.589 E.50955
G1 X114.061 Y94.092 E.02232
G1 X105.939 Y85.971 E.50955
G1 X105.939 Y86.474 E.02232
G1 X114.061 Y94.595 E.50955
G1 X114.061 Y95.098 E.02232
G1 X105.939 Y86.977 E.50955
G1 X105.939 Y87.48 E.02232
G1 X114.061 Y95.601 E.50955
G1 X114.061 Y96.104 E.02232
G1 X105.939 Y87.983 E.50955
G1 X105.939 Y88.486 E.02232
G1 X114.061 Y96.607 E.50955
G1 X114.061 Y97.11 E.02232
G1 X105.939 Y88.989 E.50955
G1 X105.939 Y89.492 E.02232
G1 X114.061 Y97.613 E.50955
G1 X114.061 Y98.116 E.02232
G1 X105.939 Y89.995 E.50955
G1 X105.939 Y90.498 E.02232
G1 X114.061 Y98.619 E.50955
G1 X114.061 Y99.122 E.02232
G1 X105.939 Y91.001 E.50955
G1 X105.939 Y91.504 E.02232
G1 X114.061 Y99.625 E.50955
G1 X114.061 Y100.128 E.02232
G1 X105.939 Y92.007 E.50955
G1 X105.939 Y92.51 E.02232
G1 X114.061 Y100.631 E.50955
G1 X114.061 Y101.134 E.02232
G1 X105.939 Y93.013 E.50955
G1 X105.939 Y93.516 E.02232
G1 X114.061 Y101.637 E.50955
G1 X114.061 Y102.14 E.02232
G1 X105.939 Y94.019 E.50955
G1 X105.939 Y94.522 E.02232
G1 X114.061 Y102.643 E.50955
G1 X114.061 Y103.146 E.02232
G1 X105.939 Y95.025 E.50955
G1 X105.939 Y95.528 E.02232
G1 X114.061 Y103.649 E.50955
G1 X114.061 Y104.152 E.02232
G1 X105.939 Y96.031 E.50955
G1 X105.939 Y96.534 E.02232
G1 X114.061 Y104.655 E.50955
G1 X114.061 Y105.158 E.02232
G1 X105.939 Y97.037 E.50955
G1 X105.939 Y97.54 E.02232
G1 X114.061 Y105.661 E.50955
G1 X114.061 Y106.165 E.02236
G1 X105.939 Y98.043 E.50958
G1 X105.939 Y98.546 E.02232
G1 X114.061 Y106.668 E.50958
G1 X114.061 Y107.171 E.02232
G1 X105.939 Y99.049 E.50958
G1 X105.939 Y99.553 E.02236
G1 X114.061 Y107.674 E.50955
G1 X114.061 Y108.177 E.02232
G1 X105.939 Y100.056 E.50955
G1 X105.939 Y100.559 E.02232
G1 X114.061 Y108.68 E.50955
G1 X114.061 Y109.183 E.02232
G1 X105.939 Y101.062 E.50955
G1 X105.939 Y101.565 E.02232
G1 X114.061 Y109.686 E.50955
G1 X114.061 Y110.189 E.02232
G1 X105.939 Y102.068 E.50955
G1 X105.939 Y102.571 E.02232
G1 X114.061 Y110.692 E.50955
G1 X114.061 Y111.195 E.02232
G1 X105.939 Y103.074 E.50955
G1 X105.939 Y103.577 E.02232
G1 X114.061 Y111.698 E.50955
G1 X114.061 Y112.201 E.02232
G1 X105.939 Y104.08 E.50955
G1 X105.939 Y104.583 E.02232
G1 X114.061 Y112.704 E.50955
G1 X114.061 Y113.207 E.02232
G1 X105.939 Y105.086 E.50955
G1 X105.939 Y105.589 E.02232
G1 X114.061 Y113.71 E.50955
G1 X114.061 Y114.213 E.02232
G1 X105.939 Y106.092 E.50955
G1 X105.939 Y106.595 E.02232
G1 X114.061 Y114.716 E.50955
G1 X114.061 Y115.219 E.02232
G1 X105.939 Y107.098 E.50955
G1 X105.939 Y107.601 E.02232
G1 X114.061 Y115.722 E.50955
G1 X114.061 Y116.225 E.02232
G1 X105.939 Y108.104 E.50955
G1 X105.939 Y108.607 E.02232
G1 X114.061 Y116.728 E.50955
G1 X114.061 Y117.231 E.02232
G1 X105.939 Y109.11 E.50955
G1 X105.939 Y109.613 E.02232
G1 X114.061 Y117.734 E.50955
G1 X114.061 Y118.237 E.02232
G1 X105.939 Y110.116 E.50955
G1 X105.939 Y110.619 E.02232
G1 X114.061 Y118.74 E.50955
G1 X114.061 Y119.243 E.02232
G1 X105.939 Y111.122 E.50955
G1 X105.939 Y111.625 E.02232
G1 X114.061 Y119.746 E.50955
G1 X114.061 Y120.249 E.02232
G1 X105.939 Y112.128 E.50955
G1 X105.939 Y112.631 E.02232
G1 X114.061 Y120.753 E.50958
G1 X114.061 Y121.256 E.02232
G1 X105.939 Y113.134 E.50958
G1 X105.939 Y113.637 E.02232
G1 X114.061 Y121.759 E.50958
G1 X114.061 Y122.262 E.02232
G1 X105.939 Y114.141 E.50955
G1 X105.939 Y114.644 E.02232
G1 X114.061 Y122.765 E.50955
G1 X114.061 Y123.268 E.02232
G1 X105.939 Y115.147 E.50955
G1 X105.939 Y115.65 E.02232
G1 X114.061 Y123.771 E.50955
G1 X114.061 Y124.274 E.02232
G1 X105.939 Y116.153 E.50955
G1 X105.939 Y116.656 E.02232
G1 X114.061 Y124.777 E.50955
G1 X114.061 Y125.28 E.02232
G1 X105.939 Y117.159 E.50955
G1 X105.939 Y117.662 E.02232
G1 X114.061 Y125.783 E.50955
G1 X114.061 Y126.286 E.02232
G1 X105.939 Y118.165 E.50955
G1 X105.939 Y118.668 E.02232
G1 X114.061 Y126.789 E.50955
G1 X114.061 Y127.292 E.02232
G1 X105.939 Y119.171 E.50955
G1 X105.939 Y119.674 E.02232
G1 X114.061 Y127.795 E.50955
G1 X114.061 Y128.298 E.02232
G1 X105.939 Y120.177 E.50955
G1 X105.939 Y120.68 E.02232
G1 X114.061 Y128.801 E.50955
G1 X114.061 Y129.304 E.02232
G1 X105.939 Y121.183 E.50955
G1 X105.939 Y121.686 E.02232
G1 X114.061 Y129.807 E.50955
G1 X114.061 Y130.31 E.02232
G1 X105.939 Y122.189 E.50955
G1 X105.939 Y122.692 E.02232
G1 X114.061 Y130.813 E.50955
G1 X114.061 Y131.316 E.02232
G1 X105.939 Y123.195 E.50955
G1 X105.939 Y123.698 E.02232
G1 X114.061 Y131.819 E.50955
G1 X114.061 Y132.322 E.02232
G1 X105.939 Y124.201 E.50955
G1 X105.939 Y124.704 E.02232
G1 X114.061 Y132.825 E.50955
G1 X114.061 Y133.328 E.02232
G1 X105.939 Y125.207 E.50955
G1 X105.939 Y125.71 E.02232
G1 X114.061 Y133.831 E.50955
G1 X114.061 Y134.334 E.02232
G1 X105.939 Y126.213 E.50955
G1 X105.939 Y126.716 E.02232
G1 X114.061 Y134.837 E.50955
G1 X114.061 Y135.341 E.02236
G1 X105.939 Y127.219 E.50958
G1 X105.939 Y127.722 E.02232
G1 X114.061 Y135.844 E.50958
G1 X114.061 Y136.347 E.02232
G1 X105.939 Y128.225 E.50958
G1 X105.939 Y128.729 E.02236
G1 X114.061 Y136.85 E.50955
G1 X114.061 Y137.353 E.02232
G1 X105.939 Y129.232 E.50955
G1 X105.939 Y129.735 E.02232
G1 X114.061 Y137.856 E.50955
G1 X114.061 Y138.359 E.02232
G1 X105.939 Y130.238 E.50955
G1 X105.939 Y130.741 E.02232
G1 X114.221 Y139.022 E.51959
G1 E-3.5 F3600
;WIPE_START
G1 F7200
G1 X111.988 Y136.789 E-1.5
;WIPE_END
G1 Z.6 F9000
G1 X150.658 Y139.744
G1 Z.3
G1 E5 F2400
G1 F1200
G1 X151.061 Y140.146 E.02525
G1 X151.061 Y140.649 E.02232
G1 X150.315 Y139.904 E.04677
G1 X149.812 Y139.904 E.02232
G1 X151.061 Y141.152 E.07833
G1 X151.061 Y141.655 E.02232
G1 X149.309 Y139.904 E.10989
G1 X148.806 Y139.904 E.02232
G1 X151.061 Y142.158 E.14145
G1 X151.061 Y142.661 E.02232
G1 X148.303 Y139.904 E.17301
G1 X147.8 Y139.904 E.02232
G1 X151.061 Y143.165 E.2046
G1 X151.061 Y143.668 E.02232
G1 X147.297 Y139.904 E.23616
G1 X146.794 Y139.904 E.02232
G1 X151.061 Y144.171 E.26772
G1 X151.061 Y144.674 E.02232
G1 X146.291 Y139.904 E.29928
G1 X145.788 Y139.904 E.02232
G1 X151.061 Y145.177 E.33083
G1 X151.061 Y145.68 E.02232
G1 X145.285 Y139.904 E.36239
G1 X144.782 Y139.904 E.02232
G1 X151.061 Y146.183 E.39395
G1 X151.061 Y146.686 E.02232
G1 X144.279 Y139.904 E.42551
G1 X143.776 Y139.904 E.02232
G1 X151.061 Y147.189 E.45707
G1 X151.061 Y147.692 E.02232
G1 X143.273 Y139.904 E.48863
G1 X142.77 Y139.904 E.02232
G1 X151.061 Y148.195 E.52019
G1 X151.061 Y148.698 E.02232
G1 X142.267 Y139.904 E.55175
G1 X141.764 Y139.904 E.02232
G1 X151.061 Y149.201 E.58331
G1 X151.061 Y149.704 E.02232
G1 X141.26 Y139.904 E.6149
G1 X140.757 Y139.904 E.02232
G1 X151.061 Y150.207 E.64645
G1 X151.061 Y150.71 E.02232
G1 X140.254 Y139.904 E.67801
G1 X139.751 Y139.904 E.02232
G1 X151.061 Y151.213 E.70957
G1 X151.061 Y151.716 E.02232
G1 X139.248 Y139.904 E.74113
G1 X138.745 Y139.904 E.02232
G1 X151.061 Y152.219 E.77269
G1 X151.061 Y152.722 E.02232
G1 X138.242 Y139.904 E.80425
G1 X137.739 Y139.904 E.02232
G1 X151.061 Y153.225 E.83581
G1 X151.061 Y153.728 E.02232
G1 X137.236 Y139.904 E.86737
G1 X136.733 Y139.904 E.02232
G1 X151.061 Y154.231 E.89892
G1 X151.061 Y154.734 E.02232
G1 X136.23 Y139.904 E.93048
G1 X135.727 Y139.904 E.02232
G1 X151.061 Y155.237 E.96204
G1 X151.061 Y155.74 E.02232
G1 X135.224 Y139.904 E.9936
G1 X134.721 Y139.904 E.02232
G1 X151.061 Y156.243 E1.02516
G1 X151.061 Y156.746 E.02232
G1 X134.218 Y139.904 E1.05672
G1 X133.715 Y139.904 E.02232
G1 X151.061 Y157.249 E1.08828
G1 X151.061 Y157.753 E.02236
G1 X133.212 Y139.904 E1.11987
G1 X132.709 Y139.904 E.02232
G1 X150.83 Y158.025 E1.13693
G1 X150.327 Y158.025 E.02232
G1 X132.206 Y139.904 E1.13693
G1 X131.703 Y139.904 E.02232
G1 X149.824 Y158.025 E1.13693
G1 X149.321 Y158.025 E.02232
G1 X131.2 Y139.904 E1.13693
G1 X130.697 Y139.904 E.02232
G1 X148.818 Y158.025 E1.13693
G1 X148.315 Y158.025 E.02232
G1 X130.194 Y139.904 E1.13693
G1 X129.691 Y139.904 E.02232
G1 X147.812 Y158.025 E1.13693
G1 X147.309 Y158.025 E.02232
G1 X129.188 Y139.904 E1.13693
G1 X128.685 Y139.904 E.02232
G1 X146.806 Y158.025 E1.13693
G1 X146.303 Y158.025 E.02232
G1 X128.182 Y139.904 E1.13693
G1 X127.679 Y139.904 E.02232
G1 X145.8 Y158.025 E1.13693
G1 X145.297 Y158.025 E.02232
G1 X127.176 Y139.904 E1.13693
G1 X126.672 Y139.904 E.02236
G1 X144.794 Y158.025 E1.13696
G1 X144.291 Y158.025 E.02232
G1 X126.169 Y139.904 E1.13696
G1 X125.666 Y139.904 E.02232
G1 X143.788 Y158.025 E1.13696
G1 X143.284 Y158.025 E.02236
G1 X125.163 Y139.904 E1.13693
G1 X124.66 Y139.904 E.02232
G1 X142.781 Y158.025 E1.13693
G1 X142.278 Y158.025 E.02232
G1 X124.157 Y139.904 E1.13693
G1 X123.654 Y139.904 E.02232
G1 X141.775 Y158.025 E1.13693
G1 X141.272 Y158.025 E.02232
G1 X123.151 Y139.904 E1.13693
G1 X122.648 Y139.904 E.02232
G1 X140.769 Y158.025 E1.13693
G1 X140.266 Y158.025 E.02232
G1 X122.145 Y139.904 E1.13693
G1 X121.642 Y139.904 E.02232
G1 X139.763 Y158.025 E1.13693
G1 X139.26 Y158.025 E.02232
G1 X121.139 Y139.904 E1.13693
G1 X120.636 Y139.904 E.02232
G1 X138.757 Y158.025 E1.13693
G1 X138.254 Y158.025 E.02232
G1 X120.133 Y139.904 E1.13693
G1 X119.63 Y139.904 E.02232
G1 X137.751 Y158.025 E1.13693
G1 X137.248 Y158.025 E.02232
G1 X119.127 Y139.904 E1.13693
G1 X118.624 Y139.904 E.02232
G1 X136.745 Y158.025 E1.13693
G1 X136.242 Y158.025 E.02232
G1 X118.121 Y139.904 E1.13693
G1 X117.618 Y139.904 E.02232
G1 X135.739 Y158.025 E1.13693
G1 X135.236 Y158.025 E.02232
G1 X117.115 Y139.904 E1.13693
G1 X116.612 Y139.904 E.02232
G1 X134.733 Y158.025 E1.13693
G1 X134.23 Y158.025 E.02232
G1 X116.109 Y139.904 E1.13693
G1 X115.606 Y139.904 E.02232
G1 X133.727 Y158.025 E1.13693
