; Original model: https://www.thingiverse.com/thing:387266
; Screw and Nut, by YSoft_be3D
; License: CC BY-NC-SA 3.0
;
; generated by PrusaSlicer 2.7.4+MacOS-x64 on 2024-05-26 at 01:32:45 UTC


;
;

;
;
;

; external perimeters extrusion width = 0.42mm
; perimeters extrusion width = 0.44mm
; infill extrusion width = 0.44mm
; solid infill extrusion width = 0.44mm
; top infill extrusion width = 0.40mm
; first layer extrusion width = 0.42mm

M201 X500 Y500 Z100 E5000 ; sets maximum accelerations, mm/sec^2
M203 X500 Y500 Z10 E60 ; sets maximum feedrates, mm / sec
M204 P500 R1000 T500 ; sets acceleration (P, T) and retract acceleration (R), mm/sec^2
M205 X8.00 Y8.00 Z0.40 E5.00 ; sets the jerk limits, mm/sec
M205 S0 T0 ; sets the minimum extruding and travel feed rate, mm/sec

; printing object screw_big.stl id:0 copy 0
; stop printing object screw_big.stl id:0 copy 0

;TYPE:Custom
G90 ; use absolute coordinates
M83 ; extruder relative mode
M104 S150 ; set temporary nozzle temp to prevent oozing during homing
M140 S60 ; set final bed temp
G4 S30 ; allow partial nozzle warmup
G28 ; home all axis
G1 Z50 F240
G1 X2.0 Y10 F3000
M104 S210 ; set final nozzle temp
M190 S60 ; wait for bed temp to stabilize
M109 S210 ; wait for nozzle temp to stabilize
G1 Z0.28 F240
G92 E0
G1 X2.0 Y140 E10 F1500 ; prime the nozzle
G1 X2.3 Y140 F5000
G92 E0
G1 X2.3 Y10 E10 F1200 ; prime the nozzle
G92 E0
G21 ; set units to millimeters
G90 ; use absolute coordinates
M83 ; use relative distances for extrusion
; Filament gcode
M107
;LAYER_CHANGE
;Z:0.3
;HEIGHT:0.3
G1 E-5 F3600
G1 Z.3 F9000
G1 X58.556 Y60.232
G1 Z.3
G1 E5 F2400
M204 P500
;TYPE:Skirt/Brim
;WIDTH:0.42
G1 F1200
G3 X59.352 Y59.547 I6.042 J6.215 E.04661
G3 X65.119 Y56.626 I10.067 J12.721 E.28867
G1 X65.921 Y56.529 E.03583
G1 X72.502 Y56.529 E.2919
G1 X73.456 Y56.663 E.04273
G3 X80.339 Y60.685 I-4.355 J15.352 E.35738
G1 X80.825 Y61.332 E.03589
G1 X84.116 Y67.032 E.29194
G3 X84.788 Y69.445 I-7.967 J3.517 E.11149
G3 X84.48 Y75.741 I-17.136 J2.317 E.28116
G1 X84.117 Y76.642 E.04309
G1 X80.827 Y82.341 E.29188
G3 X79.074 Y84.129 I-7.008 J-5.12 E.11145
G3 X73.307 Y87.05 I-10.068 J-12.722 E.28867
G1 X72.505 Y87.147 E.03583
G1 X65.923 Y87.147 E.29194
G3 X61.451 Y85.551 I1.821 J-12.163 E.21194
G3 X57.601 Y82.344 I6.067 J-11.198 E.22371
G1 X54.309 Y76.643 E.292
G3 X53.638 Y74.231 I7.973 J-3.517 E.11143
G3 X53.946 Y67.935 I17.136 J-2.317 E.28116
G1 X54.308 Y67.034 E.04307
G1 X57.599 Y61.334 E.29194
G3 X58.513 Y60.274 I6.999 J5.113 E.06215
G1 E-3.5 F3600
;WIPE_START
G1 F7200
G1 X58.556 Y60.232 E-.02855
G3 X59.352 Y59.547 I6.041 J6.215 E-.49913
G3 X61.033 Y58.381 I10.067 J12.721 E-.97232
;WIPE_END
; printing object screw_big.stl id:0 copy 0
G1 X60.331 Y64.646 F9000
G1 E5 F2400
;TYPE:Perimeter
;WIDTH:0.42
G1 F1200
G3 X67.438 Y60.55 I8.831 J7.109 E.37228
G1 X70.993 Y60.55 E.15768
G3 X78.101 Y64.657 I-1.728 J11.195 E.3726
G1 X79.882 Y67.741 E.15796
G3 X80.629 Y71.317 I-10.387 J4.036 E.16277
G3 X79.876 Y75.946 I-11.101 J.568 E.20959
G1 X78.099 Y79.024 E.15764
G3 X71 Y83.126 I-8.841 J-7.107 E.37208
G1 X67.426 Y83.126 E.15852
G3 X60.331 Y79.03 I1.747 J-11.22 E.37176
G1 X58.543 Y75.934 E.15858
G3 X58.543 Y67.742 I10.594 J-4.096 E.37173
G1 X60.301 Y64.698 E.15592
G1 X60.301 Y64.698 F9000
G1 X60.037 Y64.443
;TYPE:External perimeter
G1 F1200
G3 X67.409 Y60.194 I9.126 J7.314 E.38627
G1 X71.021 Y60.194 E.16021
G3 X78.395 Y64.454 I-1.757 J11.553 E.38663
G1 X80.205 Y67.588 E.16053
G3 X80.985 Y71.302 I-10.711 J4.189 E.1691
G3 X80.198 Y76.099 I-11.459 J.584 E.21726
G1 X78.393 Y79.226 E.16015
G3 X71.029 Y83.482 I-9.136 J-7.309 E.3861
G1 X67.397 Y83.482 E.1611
G3 X60.037 Y79.232 I1.777 J-11.577 E.38577
G1 X58.221 Y76.087 E.16108
G3 X58.221 Y67.589 I10.917 J-4.249 E.38572
G1 X60.007 Y64.495 E.15846
G1 E-3.5 F3600
;WIPE_START
G1 F7200
G1 X60.037 Y64.443 E-.02852
G3 X62.27 Y62.309 I9.126 J7.314 E-1.47148
;WIPE_END
G1 X78.184 Y65.027 F9000
G1 E5 F2400
;TYPE:Solid infill
;WIDTH:0.424357
G1 F1200
G2 X76.273 Y63.19 I-21.186 J20.124 E.11905
G2 X74.864 Y62.217 I-7.756 J9.717 E.07694
G1 X78.442 Y65.795 E.22719
G1 X79.138 Y66.999 E.06244
G1 X73.81 Y61.672 E.33827
G2 X72.957 Y61.328 I-3.691 J7.929 E.04131
G1 X79.723 Y68.094 E.42961
G1 X79.955 Y68.835 E.03486
G1 X72.21 Y61.09 E.49177
G1 X71.548 Y60.937 E.03051
G1 X80.123 Y69.512 E.54448
G1 X80.244 Y70.142 E.0288
G1 X70.926 Y60.824 E.59165
G1 X70.417 Y60.824 E.02285
G1 X80.314 Y70.721 E.62842
G1 X80.353 Y71.27 E.02471
G1 X69.908 Y60.824 E.66324
G1 X69.399 Y60.824 E.02285
G1 X80.375 Y71.8 E.69693
G1 X80.358 Y72.292 E.0221
G1 X68.889 Y60.824 E.7282
G1 X68.38 Y60.824 E.02285
G1 X80.335 Y72.778 E.75906
G1 X80.28 Y73.233 E.02058
G1 X67.871 Y60.824 E.78792
G1 X67.376 Y60.838 E.02223
G1 X80.221 Y73.683 E.8156
G1 X80.135 Y74.106 E.01938
G1 X66.939 Y60.91 E.83789
G1 X66.531 Y61.01 E.01886
G1 X80.047 Y74.527 E.85824
G1 X79.933 Y74.922 E.01846
G1 X66.122 Y61.111 E.87694
G1 X65.74 Y61.238 E.01807
G1 X79.819 Y75.317 E.89395
G1 X79.68 Y75.687 E.01775
G1 X65.358 Y61.365 E.90938
G1 X64.994 Y61.51 E.01759
G1 X79.512 Y76.028 E.92183
G1 X79.326 Y76.351 E.01673
G1 X64.637 Y61.663 E.93266
G1 X64.29 Y61.824 E.01717
G1 X79.139 Y76.674 E.94288
G1 X78.953 Y76.996 E.0167
G1 X63.956 Y61.999 E.95224
G1 X63.623 Y62.175 E.01691
G1 X78.767 Y77.319 E.96158
G1 X78.58 Y77.642 E.01676
G1 X63.311 Y62.372 E.96955
G1 X62.999 Y62.569 E.01657
G1 X78.394 Y77.965 E.97755
G1 X78.208 Y78.287 E.0167
G1 X62.7 Y62.78 E.98466
G1 X62.41 Y62.999 E.01632
G1 X78.021 Y78.61 E.99123
G1 X77.827 Y78.924 E.01657
G1 X62.121 Y63.219 E.99723
G1 X61.851 Y63.458 E.01619
G1 X77.598 Y79.205 E.99987
G1 X77.35 Y79.466 E.01616
G1 X61.581 Y63.697 E1.00126
G1 X61.324 Y63.949 E.01616
G1 X77.101 Y79.726 E1.00177
G1 X76.945 Y79.89 E.01016
G1 X76.845 Y79.979 E.00601
G1 X61.074 Y64.208 E1.00139
G1 X60.827 Y64.471 E.0162
G1 X76.575 Y80.218 E.9999
G1 X76.305 Y80.457 E.01619
G1 X60.599 Y64.751 E.99726
G1 X60.404 Y65.066 E.01663
G1 X76.017 Y80.678 E.99133
G1 X75.726 Y80.897 E.01635
G1 X60.218 Y65.389 E.98469
G1 X60.032 Y65.711 E.0167
G1 X75.427 Y81.106 E.97752
G1 X75.115 Y81.304 E.01659
G1 X59.845 Y66.034 E.96958
G1 X59.659 Y66.357 E.01673
G1 X74.803 Y81.501 E.96158
G1 X74.47 Y81.677 E.01691
G1 X59.473 Y66.68 E.95224
G1 X59.286 Y67.002 E.01672
G1 X74.136 Y81.852 E.94291
G1 X73.788 Y82.013 E.01722
G1 X59.1 Y67.325 E.93262
G1 X58.914 Y67.648 E.01673
G1 X73.431 Y82.165 E.92177
G1 X73.068 Y82.311 E.01757
G1 X58.743 Y67.986 E.90957
G1 X58.607 Y68.359 E.01783
G1 X72.686 Y82.438 E.89395
G1 X72.303 Y82.565 E.01812
G1 X58.493 Y68.754 E.87691
G1 X58.378 Y69.149 E.01847
G1 X71.895 Y82.665 E.85824
G1 X71.487 Y82.766 E.01887
G1 X58.292 Y69.572 E.83779
G1 X58.207 Y69.995 E.01937
G1 X71.052 Y82.84 E.8156
G1 X70.554 Y82.852 E.02237
G1 X58.146 Y70.443 E.78789
G1 X58.091 Y70.897 E.02053
G1 X70.045 Y82.852 E.75906
G1 X69.536 Y82.852 E.02285
G1 X58.068 Y71.384 E.72817
G1 X58.051 Y71.876 E.0221
G1 X69.027 Y82.852 E.69693
G1 X68.518 Y82.852 E.02285
G1 X58.072 Y72.406 E.66328
G1 X58.112 Y72.955 E.02471
G1 X68.009 Y82.852 E.62842
G1 X67.5 Y82.852 E.02285
G1 X58.182 Y73.534 E.59165
G1 X58.303 Y74.164 E.0288
G1 X66.893 Y82.755 E.54546
G1 X66.218 Y82.588 E.03122
G1 X58.469 Y74.839 E.49203
G2 X58.703 Y75.582 I6.628 J-1.679 E.03499
G1 X65.468 Y82.348 E.42958
G3 X64.615 Y82.004 I2.841 J-8.278 E.04131
G1 X59.288 Y76.677 E.33824
G1 X59.984 Y77.881 E.06244
G1 X63.561 Y81.459 E.22716
G3 X61.505 Y79.911 I5.815 J-9.868 E.11579
G1 X60.242 Y78.649 E.08016
M106 S127.5
;LAYER_CHANGE
;Z:0.6
;HEIGHT:0.3
;BEFORE_LAYER_CHANGE
G92 E0
;0.6


G1 E-3.5 F3600
;WIPE_START
G1 F7200
G1 X61.505 Y79.911 E-.84809
G2 X62.556 Y80.792 I7.873 J-8.319 E-.65191
;WIPE_END
G1 Z.6 F9000
;AFTER_LAYER_CHANGE
;0.6
M104 S200 ; set temperature
; stop printing object screw_big.stl id:0 copy 0
G1 Z.6
G1 X59.744 Y84.441
G1 E5 F2400
;TYPE:Skirt/Brim
;WIDTH:0.42
G3 X57.601 Y82.344 I7.774 J-10.088 E.1333
G1 X54.309 Y76.643 E.292
G3 X53.638 Y74.231 I7.973 J-3.517 E.11143
G3 X53.946 Y67.935 I17.136 J-2.317 E.28116
G1 X54.308 Y67.034 E.04307
G1 X57.599 Y61.334 E.29194
G3 X59.352 Y59.547 I6.999 J5.113 E.11142
G3 X65.119 Y56.626 I10.067 J12.721 E.28867
G1 X65.921 Y56.529 E.03583
G1 X72.502 Y56.529 E.2919
G1 X73.456 Y56.663 E.04273
G3 X80.339 Y60.685 I-4.355 J15.352 E.35738
G1 X80.825 Y61.332 E.03589
G1 X84.116 Y67.032 E.29194
G3 X84.788 Y69.445 I-7.967 J3.517 E.11149
G3 X84.48 Y75.741 I-17.136 J2.317 E.28116
G1 X84.117 Y76.642 E.04309
G1 X80.827 Y82.341 E.29188
G3 X79.074 Y84.129 I-7.008 J-5.12 E.11145
G3 X73.307 Y87.05 I-10.068 J-12.722 E.28867
G1 X72.505 Y87.147 E.03583
G1 X65.923 Y87.147 E.29194
G3 X61.451 Y85.551 I1.821 J-12.163 E.21194
G3 X59.792 Y84.478 I6.067 J-11.198 E.08772
G1 E-3.5 F3600
;WIPE_START
G1 F7200
G1 X59.744 Y84.441 E-.02879
G3 X57.601 Y82.344 I7.774 J-10.088 E-1.42751
G1 X57.555 Y82.264 E-.0437
;WIPE_END
; printing object screw_big.stl id:0 copy 0
G1 X60.96 Y80.3 F9000
G1 E5 F2400
;TYPE:Perimeter
;WIDTH:0.44
G1 X57.758 Y74.755 E.29998
G3 X57.748 Y68.939 I11.579 J-2.928 E.27524
G1 X60.959 Y63.377 E.30088
G3 X66.012 Y60.46 I8.202 J8.371 E.27625
G1 X72.413 Y60.46 E.29988
G3 X77.466 Y63.376 I-3.146 J11.286 E.27623
G1 X80.667 Y68.92 E.29992
G3 X81.014 Y71.175 I-11.407 J2.908 E.10706
G3 X80.678 Y74.737 I-12.285 J.637 E.16821
G1 X77.467 Y80.298 E.30084
G3 X72.414 Y83.216 I-8.2 J-8.366 E.27627
G1 X66.013 Y83.216 E.29988
G3 X61.003 Y80.341 I3.145 J-11.285 E.27344
G1 X61.003 Y80.341 F9000
G1 X60.672 Y80.532
;TYPE:External perimeter
;WIDTH:0.42
G1 F1500
G1 X57.413 Y74.888 E.28908
G3 X57.203 Y69.794 I11.712 J-3.035 E.22784
G1 X57.409 Y68.795 E.04524
G1 X60.671 Y63.145 E.28937
G3 X65.954 Y60.094 I8.526 J8.665 E.27352
G1 X72.47 Y60.094 E.28902
G3 X77.754 Y63.144 I-3.238 J11.714 E.27354
G1 X81.012 Y68.787 E.28901
G3 X81.379 Y71.161 I-11.952 J3.062 E.10672
G3 X81.017 Y74.881 I-12.575 J.652 E.16639
G1 X77.755 Y80.53 E.28933
G3 X72.472 Y83.582 I-8.524 J-8.66 E.27354
G1 X65.956 Y83.582 E.28902
G3 X60.715 Y80.574 I3.238 J-11.713 E.27087
G1 E-3.5 F3600
;WIPE_START
G1 F7200
G1 X60.672 Y80.532 E-.02855
G1 X59.123 Y77.849 E-1.47145
;WIPE_END
G1 X62.04 Y62.635 F9000
G1 E5 F2400
;TYPE:Solid infill
;WIDTH:0.404381
G1 X61.114 Y63.5 E.05374
;WIDTH:0.44
G1 X60.826 Y64.186 E.03486
G1 X62.69 Y62.322 E.1235
G1 X62.986 Y62.139 E.0163
;WIDTH:0.404381
G3 X62.926 Y62.079 I-.02 J-.04 E.00472
G1 X62.997 Y62.098 E.00312
G1 X62.997 Y62.098 F9000
G1 X63.978 Y61.565
;WIDTH:0.44
G1 F2400
G1 X60.101 Y65.442 E.25687
G1 X59.927 Y65.738 E.01609
;WIDTH:0.404381
G3 X59.867 Y65.678 I-.02 J-.04 E.00472
G1 X59.938 Y65.697 E.00312
G1 X59.938 Y65.697 F9000
G1 X59.213 Y66.954
G1 F2400
G1 X59.141 Y66.935 E.00316
G2 X59.202 Y66.995 I.041 J.02 E.00482
;WIDTH:0.44
G1 X59.375 Y66.699 E.01606
G1 X64.953 Y61.121 E.36957
G1 X64.953 Y61.121 F9000
G1 X65.761 Y60.844
G1 F2400
G1 X58.65 Y67.956 E.47117
G1 X58.487 Y68.21 E.01414
;WIDTH:0.404381
G1 X58.416 Y68.191 E.00312
G2 X58.476 Y68.251 I.04 J.02 E.00472
G1 X58.476 Y68.251 F9000
G1 X58.001 Y69.135
;WIDTH:0.44
G1 F2400
G1 X66.388 Y60.749 E.55565
G1 X66.212 Y60.612 E.01045
;WIDTH:0.404381
G1 X65.913 Y60.654 E.0128
G1 X65.913 Y60.654 F9000
G1 X66.919 Y60.749
;WIDTH:0.44
G1 F2400
G1 X57.87 Y69.798 E.59954
G1 X57.77 Y70.429 E.02993
G1 X67.45 Y60.749 E.64135
G1 X67.981 Y60.749 E.02488
G1 X57.708 Y71.023 E.68067
G1 X57.685 Y71.576 E.02593
G1 X68.512 Y60.749 E.71734
G1 X69.044 Y60.749 E.02492
G1 X57.686 Y72.107 E.75252
G1 X57.706 Y72.618 E.02396
G1 X69.575 Y60.749 E.78638
G1 X70.106 Y60.749 E.02488
G1 X57.753 Y73.102 E.81845
G1 X57.81 Y73.576 E.02237
G1 X70.637 Y60.749 E.84985
G1 X71.168 Y60.749 E.02488
G1 X57.896 Y74.022 E.87937
G1 X57.99 Y74.458 E.0209
G1 X71.7 Y60.749 E.90832
G1 X72.231 Y60.749 E.02488
G1 X58.141 Y74.839 E.93353
G1 X58.335 Y75.176 E.01822
G1 X72.666 Y60.845 E.9495
G1 X73.068 Y60.974 E.01978
G1 X58.53 Y75.513 E.96325
G1 X58.724 Y75.849 E.01818
G1 X73.458 Y61.115 E.9762
G1 X73.831 Y61.274 E.019
G1 X58.919 Y76.186 E.98799
G1 X59.113 Y76.523 E.01822
G1 X74.201 Y61.435 E.99965
G1 X74.549 Y61.618 E.01842
G1 X59.308 Y76.86 E1.00982
G1 X59.502 Y77.196 E.01818
G1 X74.897 Y61.801 E1.01999
G1 X75.228 Y62.001 E.01812
G1 X59.696 Y77.533 E1.02907
G1 X59.891 Y77.87 E.01824
G1 X75.554 Y62.207 E1.03775
G1 X75.872 Y62.42 E.01793
G1 X60.085 Y78.207 E1.04597
G1 X60.28 Y78.543 E.0182
G1 X76.175 Y62.648 E1.05312
G1 X76.478 Y62.876 E.01777
G1 X60.474 Y78.88 E1.06034
G1 X60.669 Y79.217 E.01824
G1 X76.759 Y63.126 E1.06607
G1 X77.038 Y63.379 E.01764
G1 X60.863 Y79.554 E1.07167
G1 X61.058 Y79.89 E.0182
G1 X77.293 Y63.655 E1.07565
G1 X77.487 Y63.992 E.01822
G1 X61.28 Y80.199 E1.07379
G1 X61.559 Y80.452 E.01764
G1 X77.682 Y64.329 E1.06823
G1 X77.876 Y64.665 E.01818
G1 X61.837 Y80.704 E1.06266
G1 X62.133 Y80.939 E.01771
G1 X78.071 Y65.002 E1.05594
G1 X78.265 Y65.339 E.01822
G1 X62.437 Y81.167 E1.04868
G1 X62.746 Y81.389 E.01783
G1 X78.46 Y65.676 E1.0411
G1 X78.654 Y66.012 E.01818
G1 X63.071 Y81.595 E1.03245
G1 X63.397 Y81.801 E.01807
G1 X78.849 Y66.349 E1.02377
G1 X79.043 Y66.686 E.01822
G1 X63.742 Y81.987 E1.01377
G1 X64.09 Y82.17 E.01842
G1 X79.237 Y67.023 E1.00356
G1 X79.432 Y67.359 E.0182
G1 X64.451 Y82.341 E.9926
G1 X64.823 Y82.499 E.01893
G1 X79.626 Y67.696 E.98077
G1 X79.821 Y68.033 E.01824
G1 X65.202 Y82.652 E.96858
G1 X65.604 Y82.781 E.01978
G1 X80.015 Y68.37 E.9548
G1 X80.21 Y68.706 E.0182
G1 X66.006 Y82.91 E.94108
G1 X66.521 Y82.927 E.02414
G1 X80.399 Y69.048 E.91952
G1 X80.493 Y69.485 E.02094
G1 X67.052 Y82.927 E.89056
G1 X67.583 Y82.927 E.02488
G1 X80.588 Y69.922 E.86164
G1 X80.651 Y70.39 E.02212
G1 X68.114 Y82.927 E.83064
G1 X68.645 Y82.927 E.02488
G1 X80.708 Y70.864 E.79923
G1 X80.732 Y71.371 E.02378
G1 X69.177 Y82.927 E.76561
G1 X69.708 Y82.927 E.02488
G1 X80.749 Y71.885 E.73155
G1 X80.727 Y72.439 E.02597
G1 X70.239 Y82.927 E.69488
G1 X70.77 Y82.927 E.02488
G1 X80.684 Y73.013 E.65685
G1 X80.606 Y73.622 E.02876
G1 X71.301 Y82.927 E.6165
G1 X71.833 Y82.927 E.02492
G1 X80.475 Y74.284 E.57261
G1 X80.302 Y74.957 E.03255
;WIDTH:0.404381
G1 X80.231 Y74.938 E.00312
G2 X80.291 Y74.998 I.04 J.02 E.00472
;WIDTH:0.44
G1 X72.364 Y82.927 E.52527
G1 X72.912 Y82.87 E.02581
;WIDTH:0.404381
G3 X72.852 Y82.81 I-.02 J-.04 E.00472
G1 X72.923 Y82.829 E.00312
;WIDTH:0.44
G1 X73.144 Y82.677 E.01257
G1 X79.565 Y76.255 E.42546
;WIDTH:0.404381
G3 X79.505 Y76.195 I-.02 J-.04 E.00472
G1 X79.576 Y76.214 E.00312
G1 X79.576 Y76.214 F9000
G1 X78.851 Y77.471
G1 F2400
G1 X78.78 Y77.451 E.00313
G2 X78.84 Y77.512 I.04 J.02 E.00482
;WIDTH:0.44
G1 X74.04 Y82.313 E.31806
G1 X73.815 Y82.481 E.01316
;WIDTH:0.404381
G1 X73.744 Y82.462 E.00312
G2 X73.804 Y82.522 I.04 J.02 E.00472
G1 X73.804 Y82.522 F9000
G1 X74.941 Y81.941
G1 F2400
G3 X74.881 Y81.881 I-.02 J-.04 E.00472
G1 X74.952 Y81.9 E.00312
;WIDTH:0.44
G1 X75.177 Y81.707 E.01389
G1 X78.114 Y78.768 E.19466
;WIDTH:0.404381
G3 X78.054 Y78.708 I-.02 J-.04 E.00472
G1 X78.125 Y78.727 E.00312
G1 X78.125 Y78.727 F9000
G1 X77.257 Y80.128
G1 F2400
G3 X75.831 Y81.426 I-17.844 J-18.161 E.08179
M106 S255
;LAYER_CHANGE
;Z:0.9
;HEIGHT:0.3
;BEFORE_LAYER_CHANGE
G92 E0
;0.9


G1 E-3.5 F3600
;WIPE_START
G1 F7200
G2 X77.257 Y80.128 I-16.413 J-19.464 E-.91615
;WIPE_END
G1 E-.58385 F3600
G1 Z.9 F9000
;AFTER_LAYER_CHANGE
;0.9
G1 Z.9
G1 X76.884 Y81.232
G1 E5 F2400
;TYPE:Perimeter
;WIDTH:0.44
G3 X73.398 Y83.216 I-7.957 J-9.925 E.1887
G1 X65.124 Y83.216 E.38763
G1 X64.913 Y83.178 E.01004
G3 X61.452 Y81.152 I4.614 J-11.854 E.18867
G1 X57.314 Y73.985 E.38772
G1 X57.242 Y73.784 E.01
G3 X57.266 Y69.774 I12.608 J-1.929 E.18865
G1 X61.403 Y62.608 E.38765
G1 X61.542 Y62.444 E.01007
G3 X65.027 Y60.46 I7.957 J9.925 E.18866
G1 X73.302 Y60.46 E.38768
G1 X73.513 Y60.498 E.01004
G3 X76.974 Y62.524 I-4.614 J11.854 E.18867
G1 X81.112 Y69.69 E.38767
G1 X81.187 Y69.915 E.01111
G1 X81.308 Y71.038 E.05292
G3 X81.16 Y73.902 I-13.079 J.757 E.13463
G1 X77.022 Y81.068 E.38767
G1 X76.922 Y81.186 E.00725
G1 X76.922 Y81.186 F9000
G1 X77.111 Y81.511
;TYPE:External perimeter
;WIDTH:0.42
G1 F1500
G3 X73.458 Y83.582 I-8.006 J-9.864 E.18711
G1 X64.967 Y83.582 E.37662
G3 X61.165 Y81.386 I4.353 J-11.932 E.19573
G1 X56.919 Y74.033 E.37661
