; Original model: https://www.thingiverse.com/thing:18672
; Twisted 6-sided Vase Basic, by MaakMijnIdee
; License: CC BY-NC-SA 3.0
;
; generated by PrusaSlicer 2.7.4+MacOS-x64 on 2024-05-26 at 00:53:36 UTC

;

; external perimeters extrusion width = 0.42mm
; perimeters extrusion width = 0.44mm
; infill extrusion width = 0.44mm
; solid infill extrusion width = 0.44mm
; top infill extrusion width = 0.40mm
; first layer extrusion width = 0.42mm

M201 X500 Y500 Z100 E5000 ; sets maximum accelerations, mm/sec^2
M203 X500 Y500 Z10 E60 ; sets maximum feedrates, mm / sec
M204 S500 T1000 ; sets acceleration (S) and retract acceleration (R), mm/sec^2
M205 X8.00 Y8.00 Z0.40 E5.00 ; sets the jerk limits, mm/sec
M205 S0 T0 ; sets the minimum extruding and travel feed rate, mm/sec

; printing object Twisted_Vase_Basic.stl id:0 copy 0
; stop printing object Twisted_Vase_Basic.stl id:0 copy 0

;TYPE:Custom
G90 ; use absolute coordinates
M83 ; extruder relative mode
M104 S150 ; set temporary nozzle temp to prevent oozing during homing
M140 S60 ; set final bed temp
G4 S30 ; allow partial nozzle warmup
G28 ; home all axis
G1 Z50 F240
G1 X2.0 Y10 F3000
M104 S210 ; set final nozzle temp
M190 S60 ; wait for bed temp to stabilize
M109 S210 ; wait for nozzle temp to stabilize
G1 Z0.28 F240
G92 E0
G1 X2.0 Y140 E10 F1500 ; prime the nozzle
G1 X2.3 Y140 F5000
G92 E0
G1 X2.3 Y10 E10 F1200 ; prime the nozzle
G92 E0
G21 ; set units to millimeters
G90 ; use absolute coordinates
M83 ; use relative distances for extrusion
; Filament gcode
M107
;LAYER_CHANGE
;Z:0.3
;HEIGHT:0.3
G1 E-5 F3600
G1 Z.3 F9000
G1 X94.669 Y86.63
G1 Z.3
G1 E5 F2400
M204 S500
;TYPE:Skirt/Brim
;WIDTH:0.42
G1 F1200
G1 X96.299 Y85.215 E.09574
G1 X97.715 Y84.913 E.06422
G1 X122.573 Y85.038 E1.10259
G1 X124.614 Y85.742 E.09576
G1 X125.584 Y86.818 E.06426
G1 X137.905 Y108.408 E1.10259
G1 X138.315 Y110.527 E.09573
G1 X137.868 Y111.905 E.06426
G1 X125.331 Y133.37 E1.10257
G1 X123.701 Y134.785 E.09574
G1 X122.285 Y135.087 E.06422
G1 X97.427 Y134.962 E1.10259
G1 X95.386 Y134.258 E.09576
G1 X94.416 Y133.182 E.06426
G1 X82.095 Y111.592 E1.10259
G1 X81.685 Y109.473 E.09573
G1 X82.132 Y108.095 E.06426
G1 X94.638 Y86.682 E1.09989
G1 E-3.5 F3600
;WIPE_START
G1 F7200
G1 X94.669 Y86.63 E-.02876
G1 X96.299 Y85.215 E-1.02529
G1 X97.217 Y85.019 E-.44595
;WIPE_END
; printing object Twisted_Vase_Basic.stl id:0 copy 0
G1 X97.714 Y88.686 F9000
G1 E5 F2400
;TYPE:External perimeter
;WIDTH:0.42
G1 F1200
G1 X97.801 Y88.703 E.00393
G1 X122.337 Y88.703 E1.08829
G1 X128.43 Y99.258 E.54057
G1 X128.528 Y99.497 E.01146
G1 X134.581 Y109.983 E.53703
G1 X134.573 Y110.045 E.00277
G1 X122.286 Y131.314 E1.08949
G1 X122.199 Y131.297 E.00393
G1 X97.663 Y131.297 E1.08829
G1 X91.57 Y120.742 E.54057
G1 X91.472 Y120.503 E.01146
G1 X85.399 Y109.983 E.53878
G1 X85.457 Y109.916 E.00393
G1 X97.684 Y88.738 E1.08466
G1 E-3.5 F3600
;WIPE_START
G1 F7200
G1 X97.714 Y88.686 E-.02852
G1 X97.801 Y88.703 E-.04211
G1 X100.81 Y88.703 E-1.42937
;WIPE_END
G1 X123.264 Y90.538 F9000
G1 E5 F2400
;TYPE:Solid infill
;WIDTH:0.4204
G1 F1200
G1 X121.704 Y88.977 E.098
G1 X121.2 Y88.977 E.02238
G1 X123.515 Y91.292 E.14538
G1 X124.203 Y92.483 E.06108
G1 X120.697 Y88.977 E.22017
G1 X120.193 Y88.977 E.02238
G1 X124.89 Y93.674 E.29496
G1 X125.578 Y94.866 E.06111
G1 X119.69 Y88.977 E.36978
G1 X119.186 Y88.977 E.02238
G1 X126.266 Y96.057 E.44461
G1 X126.954 Y97.248 E.06108
G1 X118.683 Y88.977 E.5194
G1 X118.179 Y88.977 E.02238
G1 X127.642 Y98.439 E.59422
G1 X128.229 Y99.458 E.05222
G1 X128.266 Y99.568 E.00515
G1 X117.676 Y88.977 E.66506
G1 X117.172 Y88.977 E.02238
G1 X128.92 Y100.725 E.73775
G1 X129.608 Y101.916 E.06108
G1 X116.669 Y88.977 E.81254
G1 X116.165 Y88.977 E.02238
G1 X130.296 Y103.108 E.88739
G1 X130.984 Y104.299 E.06108
G1 X115.662 Y88.977 E.96219
G1 X115.158 Y88.977 E.02238
G1 X131.672 Y105.49 E1.03701
G1 X132.359 Y106.681 E.06105
G1 X114.655 Y88.977 E1.11177
G1 X114.151 Y88.977 E.02238
G1 X133.047 Y107.873 E1.18662
G1 X133.735 Y109.064 E.06108
G1 X113.648 Y88.977 E1.26142
G1 X113.144 Y88.977 E.02238
G1 X134.236 Y110.068 E1.3245
G1 X134.051 Y110.388 E.01641
G1 X112.641 Y88.977 E1.34453
G1 X112.137 Y88.977 E.02238
G1 X133.867 Y110.707 E1.36459
G1 X133.683 Y111.026 E.01635
G1 X111.634 Y88.977 E1.38463
G1 X111.13 Y88.977 E.02238
G1 X133.499 Y111.345 E1.40469
G1 X133.314 Y111.664 E.01637
G1 X110.627 Y88.977 E1.42469
G1 X110.123 Y88.977 E.02238
G1 X133.13 Y111.984 E1.44479
G1 X132.946 Y112.303 E.01635
G1 X109.62 Y88.977 E1.46482
G1 X109.116 Y88.977 E.02238
G1 X132.761 Y112.622 E1.48485
G1 X132.577 Y112.941 E.01635
G1 X108.613 Y88.977 E1.50488
G1 X108.11 Y88.977 E.02234
G1 X132.393 Y113.26 E1.52492
G1 X132.209 Y113.58 E.01639
G1 X107.606 Y88.977 E1.54501
G1 X107.103 Y88.977 E.02234
G1 X132.024 Y113.899 E1.56501
G1 X131.84 Y114.218 E.01635
G1 X106.599 Y88.977 E1.58508
G1 X106.096 Y88.977 E.02234
G1 X131.656 Y114.537 E1.60511
G1 X131.471 Y114.856 E.01637
G1 X105.592 Y88.977 E1.62514
G1 X105.089 Y88.977 E.02234
G1 X131.287 Y115.176 E1.6452
G1 X131.103 Y115.495 E.01635
G1 X104.585 Y88.977 E1.66527
G1 X104.082 Y88.977 E.02234
G1 X130.919 Y115.814 E1.6853
G1 X130.734 Y116.133 E.01637
G1 X103.578 Y88.977 E1.70533
G1 X103.075 Y88.977 E.02234
G1 X130.55 Y116.452 E1.72537
G1 X130.366 Y116.772 E.01639
G1 X102.571 Y88.977 E1.74546
G1 X102.068 Y88.977 E.02234
G1 X130.181 Y117.091 E1.76546
G1 X129.997 Y117.41 E.01635
G1 X101.564 Y88.977 E1.78553
G1 X101.061 Y88.977 E.02234
G1 X129.813 Y117.729 E1.80556
G1 X129.629 Y118.048 E.01635
G1 X100.557 Y88.977 E1.82562
G1 X100.054 Y88.977 E.02234
G1 X129.444 Y118.368 E1.84565
G1 X129.26 Y118.687 E.01635
G1 X99.55 Y88.977 E1.86572
G1 X99.047 Y88.977 E.02234
G1 X129.076 Y119.006 E1.88575
G1 X128.891 Y119.325 E.01637
G1 X98.543 Y88.977 E1.90578
G1 X98.04 Y88.977 E.02234
G1 X128.707 Y119.644 E1.92582
G1 X128.523 Y119.964 E.01639
G1 X97.743 Y89.184 E1.93291
G1 X97.559 Y89.503 E.01635
G1 X128.339 Y120.283 E1.93291
G1 X128.154 Y120.602 E.01637
G1 X97.374 Y89.822 E1.93291
G1 X97.19 Y90.141 E.01635
G1 X127.97 Y120.921 E1.93291
G1 X127.786 Y121.24 E.01635
G1 X97.006 Y90.461 E1.93288
G1 X96.822 Y90.78 E.01635
G1 X127.601 Y121.56 E1.93288
G1 X127.417 Y121.879 E.01635
G1 X96.637 Y91.099 E1.93291
G1 X96.453 Y91.418 E.01635
G1 X127.233 Y122.198 E1.93291
G1 X127.049 Y122.517 E.01635
G1 X96.269 Y91.737 E1.93291
G1 X96.084 Y92.057 E.01641
G1 X126.864 Y122.836 E1.93288
G1 X126.68 Y123.156 E.01639
G1 X95.9 Y92.376 E1.93291
G1 X95.716 Y92.695 E.01635
G1 X126.496 Y123.475 E1.93291
G1 X126.311 Y123.794 E.01637
G1 X95.532 Y93.014 E1.93288
G1 X95.347 Y93.333 E.01637
G1 X126.127 Y124.113 E1.93291
G1 X125.943 Y124.432 E.01635
G1 X95.163 Y93.652 E1.93291
G1 X94.979 Y93.972 E.01639
G1 X125.758 Y124.751 E1.93285
G1 X125.574 Y125.071 E.01639
G1 X94.794 Y94.291 E1.93291
G1 X94.61 Y94.61 E.01635
G1 X125.39 Y125.39 E1.93291
G1 X125.206 Y125.709 E.01635
G1 X94.426 Y94.929 E1.93291
G1 X94.242 Y95.248 E.01635
G1 X125.021 Y126.028 E1.93288
G1 X124.837 Y126.347 E.01635
G1 X94.057 Y95.568 E1.93288
G1 X93.873 Y95.887 E.01635
G1 X124.653 Y126.667 E1.93291
G1 X124.468 Y126.986 E.01637
G1 X93.689 Y96.206 E1.93288
G1 X93.504 Y96.525 E.01637
G1 X124.284 Y127.305 E1.93291
G1 X124.1 Y127.624 E.01635
G1 X93.32 Y96.844 E1.93291
G1 X93.136 Y97.164 E.01639
G1 X123.916 Y127.943 E1.93288
G1 X123.731 Y128.263 E.01641
G1 X92.951 Y97.483 E1.93291
G1 X92.767 Y97.802 E.01635
G1 X123.547 Y128.582 E1.93291
G1 X123.363 Y128.901 E.01635
G1 X92.583 Y98.121 E1.93291
G1 X92.399 Y98.44 E.01635
G1 X123.178 Y129.22 E1.93288
G1 X122.994 Y129.539 E.01635
G1 X92.214 Y98.76 E1.93288
G1 X92.03 Y99.079 E.01635
G1 X122.81 Y129.859 E1.93291
G1 X122.626 Y130.178 E.01635
G1 X91.846 Y99.398 E1.93291
G1 X91.661 Y99.717 E.01637
G1 X122.441 Y130.497 E1.93291
G1 X122.257 Y130.816 E.01635
G1 X91.477 Y100.036 E1.93291
G1 X91.293 Y100.356 E.01639
G1 X121.96 Y131.023 E1.92582
G1 X121.457 Y131.023 E.02234
G1 X91.109 Y100.675 E1.90578
G1 X90.924 Y100.994 E.01637
G1 X120.953 Y131.023 E1.88575
G1 X120.45 Y131.023 E.02234
G1 X90.74 Y101.313 E1.86572
G1 X90.556 Y101.632 E.01635
G1 X119.946 Y131.023 E1.84565
G1 X119.443 Y131.023 E.02234
G1 X90.371 Y101.952 E1.82562
G1 X90.187 Y102.271 E.01635
G1 X118.939 Y131.023 E1.80556
G1 X118.436 Y131.023 E.02234
G1 X90.003 Y102.59 E1.78553
G1 X89.819 Y102.909 E.01635
G1 X117.932 Y131.023 E1.76546
G1 X117.429 Y131.023 E.02234
G1 X89.634 Y103.228 E1.74546
G1 X89.45 Y103.548 E.01639
G1 X116.925 Y131.023 E1.72537
G1 X116.422 Y131.023 E.02234
G1 X89.266 Y103.867 E1.70533
G1 X89.081 Y104.186 E.01637
G1 X115.918 Y131.023 E1.6853
G1 X115.415 Y131.023 E.02234
G1 X88.897 Y104.505 E1.66527
G1 X88.713 Y104.824 E.01635
G1 X114.911 Y131.023 E1.6452
G1 X114.408 Y131.023 E.02234
G1 X88.529 Y105.144 E1.62514
G1 X88.344 Y105.463 E.01637
G1 X113.904 Y131.023 E1.60511
G1 X113.401 Y131.023 E.02234
G1 X88.16 Y105.782 E1.58508
G1 X87.976 Y106.101 E.01635
G1 X112.897 Y131.023 E1.56501
G1 X112.394 Y131.023 E.02234
G1 X87.791 Y106.42 E1.54501
G1 X87.607 Y106.74 E.01639
G1 X111.891 Y131.023 E1.52495
G1 X111.387 Y131.023 E.02238
G1 X87.423 Y107.059 E1.50488
G1 X87.239 Y107.378 E.01635
G1 X110.884 Y131.023 E1.48485
G1 X110.38 Y131.023 E.02238
G1 X87.054 Y107.697 E1.46482
G1 X86.87 Y108.016 E.01635
G1 X109.877 Y131.023 E1.44479
G1 X109.373 Y131.023 E.02238
G1 X86.686 Y108.336 E1.42469
G1 X86.501 Y108.655 E.01637
G1 X108.87 Y131.023 E1.40469
G1 X108.366 Y131.023 E.02238
G1 X86.317 Y108.974 E1.38463
G1 X86.133 Y109.293 E.01635
G1 X107.863 Y131.023 E1.36459
G1 X107.359 Y131.023 E.02238
G1 X85.949 Y109.612 E1.34453
G1 X85.764 Y109.932 E.01641
G1 X106.856 Y131.023 E1.3245
G1 X106.352 Y131.023 E.02238
G1 X86.265 Y110.936 E1.26142
G1 X86.953 Y112.127 E.06108
G1 X105.849 Y131.023 E1.18662
G1 X105.345 Y131.023 E.02238
G1 X87.641 Y113.318 E1.1118
G1 X88.328 Y114.51 E.06109
G1 X104.842 Y131.023 E1.03701
G1 X104.338 Y131.023 E.02238
G1 X89.016 Y115.701 E.96219
G1 X89.704 Y116.892 E.06108
G1 X103.835 Y131.023 E.88739
G1 X103.331 Y131.023 E.02238
G1 X90.392 Y118.084 E.81254
G1 X91.08 Y119.275 E.06108
G1 X102.828 Y131.023 E.73775
G1 X102.324 Y131.023 E.02238
G1 X91.733 Y120.432 E.66509
G1 X91.771 Y120.542 E.00517
G1 X92.358 Y121.561 E.05222
G1 X101.821 Y131.023 E.59422
G1 X101.317 Y131.023 E.02238
G1 X93.046 Y122.752 E.5194
G1 X93.734 Y123.943 E.06108
G1 X100.814 Y131.023 E.44461
G1 X100.31 Y131.023 E.02238
G1 X94.422 Y125.134 E.36978
G1 X95.109 Y126.326 E.06109
G1 X99.807 Y131.023 E.29499
G1 X99.303 Y131.023 E.02238
G1 X95.797 Y127.517 E.22017
G1 X96.485 Y128.708 E.06108
G1 X98.8 Y131.023 E.14538
G1 X98.296 Y131.023 E.02238
G1 X96.736 Y129.462 E.098
M106 S127.5
;LAYER_CHANGE
;Z:0.6
;HEIGHT:0.3
;BEFORE_LAYER_CHANGE
G92 E0
;0.6


G1 Z.6 F9000
;AFTER_LAYER_CHANGE
;0.6
M104 S200 ; set temperature
; stop printing object Twisted_Vase_Basic.stl id:0 copy 0
G1 E-5 F3600
G1 X96.736 Y129.462 Z.6 F9000
G1 X93.385 Y131.375
G1 E5 F2400
;TYPE:Skirt/Brim
;WIDTH:0.42
G1 X82.095 Y111.592 E1.01031
G1 X81.685 Y109.473 E.09573
G1 X82.132 Y108.095 E.06426
G1 X94.669 Y86.63 E1.10257
G1 X96.299 Y85.215 E.09574
G1 X97.715 Y84.913 E.06422
G1 X122.573 Y85.038 E1.10259
G1 X124.614 Y85.742 E.09576
G1 X125.584 Y86.818 E.06426
G1 X137.905 Y108.408 E1.10259
G1 X138.315 Y110.527 E.09573
G1 X137.868 Y111.905 E.06426
G1 X125.331 Y133.37 E1.10257
G1 X123.701 Y134.785 E.09574
G1 X122.285 Y135.087 E.06422
G1 X97.427 Y134.962 E1.10259
G1 X95.386 Y134.258 E.09576
G1 X94.416 Y133.182 E.06426
G1 X93.414 Y131.427 E.08964
G1 E-3.5 F3600
;WIPE_START
G1 F7200
G1 X93.385 Y131.375 E-.02828
G1 X91.849 Y128.684 E-1.47172
;WIPE_END
; printing object Twisted_Vase_Basic.stl id:0 copy 0
G1 X96.585 Y129.596 F9000
G1 E5 F2400
;TYPE:External perimeter
;WIDTH:0.42
G1 F1500
G1 X91.376 Y120.573 E.46212
G1 X91.266 Y120.171 E.01849
G1 X85.293 Y109.824 E.52992
G1 X85.772 Y109.346 E.03001
G1 X97.799 Y88.515 E1.0669
G1 X98.452 Y88.691 E.03
G1 X122.506 Y88.691 E1.06691
G1 X122.583 Y88.963 E.01254
G1 X128.624 Y99.427 E.53592
G1 X128.734 Y99.829 E.01849
G1 X134.707 Y110.176 E.52992
G1 X134.258 Y110.616 E.02788
G1 X122.201 Y131.485 E1.06902
G1 X121.548 Y131.309 E.03
G1 X97.494 Y131.309 E1.06691
G1 X97.417 Y131.037 E.01254
G1 X96.615 Y129.648 E.07114
G1 E-3.5 F3600
;WIPE_START
G1 F7200
G1 X96.585 Y129.596 E-.02852
G1 X95.036 Y126.913 E-1.47148
;WIPE_END
G1 X97.929 Y88.717 F9000
G1 E5 F2400
;TYPE:Solid infill
;WIDTH:0.404381
G1 X97.858 Y88.698 E.00312
G1 X97.877 Y88.769 E.00312
G1 X97.918 Y88.758 E.0018
;WIDTH:0.44
G1 X98.107 Y88.896 E.01096
G1 X97.632 Y89.371 E.03147
G1 X97.632 Y89.371 F9000
G1 X98.738 Y88.803
;WIDTH:0.404381
G1 F2400
G1 X98.667 Y88.784 E.00312
G1 X98.686 Y88.855 E.00312
G1 X98.727 Y88.844 E.0018
;WIDTH:0.44
G1 X98.56 Y88.975 E.00994
G1 X96.907 Y90.628 E.10952
G1 X96.733 Y90.923 E.01605
;WIDTH:0.404381
G1 X96.692 Y90.934 E.0018
G1 X96.673 Y90.863 E.00312
G1 X96.744 Y90.882 E.00312
G1 X96.744 Y90.882 F9000
G1 X96.018 Y92.139
G1 F2400
G1 X95.947 Y92.12 E.00312
G1 X95.966 Y92.191 E.00312
G1 X96.007 Y92.18 E.0018
;WIDTH:0.44
G1 X96.181 Y91.885 E.01605
G1 X99.091 Y88.975 E.1928
G1 X99.622 Y88.975 E.02488
G1 X95.455 Y93.141 E.27605
G1 X95.292 Y93.396 E.01418
;WIDTH:0.404381
G1 X95.221 Y93.377 E.00312
G1 X95.24 Y93.448 E.00312
G1 X95.282 Y93.437 E.00184
G1 X95.282 Y93.437 F9000
G1 X94.556 Y94.694
G1 F2400
G1 X94.515 Y94.705 E.0018
G1 X94.496 Y94.634 E.00312
G1 X94.567 Y94.653 E.00312
;WIDTH:0.44
G1 X94.73 Y94.398 E.01418
G1 X100.153 Y88.975 E.3593
G1 X100.685 Y88.975 E.02492
G1 X94.004 Y95.655 E.44262
G1 X93.841 Y95.91 E.01418
;WIDTH:0.404381
G1 X93.77 Y95.891 E.00312
G1 X93.789 Y95.962 E.00312
G1 X93.83 Y95.951 E.0018
G1 X93.83 Y95.951 F9000
G1 X93.116 Y97.167
G1 F2400
G1 X93.044 Y97.148 E.00316
G1 X93.064 Y97.219 E.00313
G1 X93.105 Y97.208 E.0018
;WIDTH:0.44
G1 X93.278 Y96.912 E.01606
G1 X101.216 Y88.975 E.5259
G1 X101.747 Y88.975 E.02488
G1 X92.553 Y98.169 E.60915
G1 X92.379 Y98.465 E.01609
;WIDTH:0.404381
G1 X92.338 Y98.476 E.0018
G1 X92.319 Y98.404 E.00316
G1 X92.39 Y98.423 E.00312
G1 X92.39 Y98.423 F9000
G1 X91.653 Y99.721
G1 F2400
G1 X91.612 Y99.732 E.0018
G1 X91.593 Y99.661 E.00312
G1 X91.664 Y99.68 E.00312
;WIDTH:0.44
G1 X91.827 Y99.426 E.01414
G1 X102.278 Y88.975 E.69243
G1 X102.809 Y88.975 E.02488
G1 X91.101 Y100.683 E.77571
G1 X90.939 Y100.937 E.01411
;WIDTH:0.404381
G1 X90.868 Y100.918 E.00312
G1 X90.887 Y100.989 E.00312
G1 X90.928 Y100.978 E.0018
G1 X90.928 Y100.978 F9000
G1 X90.202 Y102.235
G1 F2400
G1 X90.161 Y102.246 E.0018
G1 X90.142 Y102.175 E.00312
G1 X90.213 Y102.194 E.00312
;WIDTH:0.44
G1 X90.376 Y101.939 E.01418
G1 X103.341 Y88.975 E.85896
G1 X103.872 Y88.975 E.02488
G1 X89.65 Y103.196 E.94224
G1 X89.476 Y103.492 E.01609
;WIDTH:0.404381
G1 X89.435 Y103.503 E.0018
G1 X89.416 Y103.432 E.00312
G1 X89.487 Y103.451 E.00312
G1 X89.487 Y103.451 F9000
G1 X88.762 Y104.708
G1 F2400
G1 X88.691 Y104.689 E.00312
G1 X88.71 Y104.76 E.00312
G1 X88.751 Y104.749 E.0018
;WIDTH:0.44
G1 X88.925 Y104.453 E.01609
G1 X104.403 Y88.975 E1.02549
G1 X104.934 Y88.975 E.02488
G1 X88.199 Y105.71 E1.10878
G1 X88.036 Y105.965 E.01418
;WIDTH:0.404381
G1 X87.965 Y105.945 E.00313
G1 X87.984 Y106.017 E.00316
G1 X88.025 Y106.006 E.0018
G1 X88.025 Y106.006 F9000
G1 X87.299 Y107.262
G1 F2400
G1 X87.258 Y107.273 E.0018
G1 X87.239 Y107.202 E.00312
G1 X87.31 Y107.221 E.00312
;WIDTH:0.44
G1 X87.473 Y106.967 E.01414
G1 X105.465 Y88.975 E1.19206
G1 X105.997 Y88.975 E.02492
G1 X86.748 Y108.224 E1.27534
G1 X86.585 Y108.478 E.01414
;WIDTH:0.404381
G1 X86.514 Y108.459 E.00312
G1 X86.533 Y108.53 E.00312
G1 X86.574 Y108.519 E.0018
G1 X86.574 Y108.519 F9000
G1 X86.022 Y109.48
;WIDTH:0.44
G1 F2400
G1 X106.528 Y88.975 E1.35859
G1 X107.059 Y88.975 E.02488
G1 X85.836 Y110.198 E1.40613
G1 X85.681 Y109.858 E.01751
;WIDTH:0.423363
G1 X85.605 Y109.838 E.00352
G1 X85.626 Y109.913 E.00349
G1 X85.669 Y109.902 E.00199
;WIDTH:0.44
G1 X86.03 Y110.534 E.0341
G1 X107.59 Y88.975 E1.42842
G1 X108.121 Y88.975 E.02488
G1 X86.225 Y110.871 E1.45072
G1 X86.419 Y111.208 E.01822
G1 X108.653 Y88.975 E1.47308
G1 X109.184 Y88.975 E.02488
G1 X86.614 Y111.545 E1.49537
G1 X86.808 Y111.881 E.01818
